%
(1001)
(MACHINE)
(  DESCRIPTION CNC ROUTER)
(T13 D=0.375 CR=0. - ZMIN=0.3976 - FLAT END MILL)
N10 G90 G94 G17 G91.1
N15 G20
(WHEN USING FUSION FOR PERSONAL USE, THE FEEDRATE OF RAPID)
(MOVES IS REDUCED TO MATCH THE FEEDRATE OF CUTTING MOVES,)
(WHICH CAN INCREASE MACHINING TIME. UNRESTRICTED RAPID MOVES)
(ARE AVAILABLE WITH A FUSION SUBSCRIPTION.)
N20 G53 G0 Z0.
(2D CONTOUR3)
N25 T13 M6
N30 S24000 M3
N35 G54
N40 G61
N45 G0 X1.9868 Y10.8
N50 G43 Z2.2 H13
N55 G1 Z1.85 F120.
N60 G18 G2 X2.2368 Z1.6 I0.25 K0.
N65 G1 X2.2618
N70 G17 G3 X2.1368 Y10.925 I-0.125 J0.
N75 G1 X0.9375 Z1.554
N80 G3 Y10.6 Z1.5344 I0. J-0.1625
N85 G1 X3.6875 Z1.429
N90 G3 Y10.925 Z1.4094 I0. J0.1625
N95 G1 X0.9375 Z1.304
N100 G3 Y10.6 Z1.2844 I0. J-0.1625
N105 G1 X3.6875 Z1.179
N110 G3 Y10.925 Z1.1594 I0. J0.1625
N115 G1 X0.9375 Z1.054
N120 G3 Y10.6 Z1.0344 I0. J-0.1625
N125 G1 X3.6875 Z0.929
N130 G3 Y10.925 Z0.9094 I0. J0.1625
N135 G1 X0.9375
N140 G3 Y10.6 I0. J-0.1625
N145 G1 X3.6875
N150 G3 Y10.925 I0. J0.1625
N155 G1 X3.6675
N160 G3 X3.5425 Y10.8 I0. J-0.125
N165 G1 X3.5675
N170 G18 G2 X3.8175 Z1.1594 I0. K0.25
N175 G1 Z2.2
N180 X0.8421 Y7.4658
N185 Z1.85
N190 X0.8422 Y7.4661 Z1.8377
N195 X0.8426 Y7.4669 Z1.8255
N200 X0.8432 Y7.4683 Z1.8133
N205 X0.8441 Y7.4702 Z1.8012
N210 X0.8452 Y7.4727 Z1.7893
N215 X0.8465 Y7.4757 Z1.7774
N220 X0.8481 Y7.4792 Z1.7658
N225 X0.8499 Y7.4832 Z1.7543
N230 X0.8519 Y7.4878 Z1.7431
N235 X0.8541 Y7.4928 Z1.7322
N240 X0.8566 Y7.4983 Z1.7215
N245 X0.8593 Y7.5043 Z1.7111
N250 X0.8622 Y7.5108 Z1.7011
N255 X0.8652 Y7.5177 Z1.6914
N260 X0.8685 Y7.525 Z1.6821
N265 X0.872 Y7.5327 Z1.6732
N270 X0.8756 Y7.5408 Z1.6648
N275 X0.8794 Y7.5493 Z1.6567
N280 X0.8833 Y7.5581 Z1.6492
N285 X0.8874 Y7.5673 Z1.6421
N290 X0.8916 Y7.5768 Z1.6356
N295 X0.896 Y7.5865 Z1.6295
N300 X0.9004 Y7.5965 Z1.624
N305 X0.905 Y7.6068 Z1.619
N310 X0.9097 Y7.6172 Z1.6146
N315 X0.9144 Y7.6279 Z1.6108
N320 X0.9193 Y7.6387 Z1.6075
N325 X0.9241 Y7.6496 Z1.6048
N330 X0.9291 Y7.6606 Z1.6027
N335 X0.934 Y7.6717 Z1.6012
N340 X0.939 Y7.6829 Z1.6003
N345 X0.944 Y7.6941 Z1.6
N350 X0.9542 Y7.7169
N355 G17 G3 X0.7891 Y7.6538 I-0.051 J-0.1141
N360 X0.9375 Y7.425 Z1.5876 I0.1484 J-0.0662
N365 G1 X3.6875 Z1.4822
N370 G3 Y7.75 Z1.4626 I0. J0.1625
N375 G1 X0.9375 Z1.3572
N380 G3 Y7.425 Z1.3376 I0. J-0.1625
N385 G1 X3.6875 Z1.2322
N390 G3 Y7.75 Z1.2126 I0. J0.1625
N395 G1 X0.9375 Z1.1072
N400 G3 Y7.425 Z1.0876 I0. J-0.1625
N405 G1 X3.6875 Z0.9822
N410 G3 Y7.75 Z0.9626 I0. J0.1625
N415 G1 X0.9375 Z0.8572
N420 G3 Y7.425 Z0.8376 I0. J-0.1625
N425 G1 X3.6875 Z0.7322
N430 G3 Y7.75 Z0.7126 I0. J0.1625
N435 G1 X0.9375
N440 G3 Y7.425 I0. J-0.1625
N445 G1 X3.6875
N450 G3 Y7.75 I0. J0.1625
N455 G1 X3.6675
N460 G3 X3.5425 Y7.625 I0. J-0.125
N465 G1 X3.5675
N470 G18 G2 X3.8175 Z0.9626 I0. K0.25
N475 G1 Z2.2
N480 X3.55 Y9.3861
N485 Z1.85
N490 G19 G3 Y9.6361 Z1.6 J0.25 K0.
N495 G1 Y9.6611
N500 G17 G3 X3.425 Y9.5361 I0. J-0.125
N505 G1 Y8.7375 Z1.5301
N510 G3 X3.75 Z1.4855 I0.1625 J0.
N515 G1 Y9.6125 Z1.4089
N520 G3 X3.425 Z1.3643 I-0.1625 J0.
N525 G1 Y8.7375 Z1.2877
N530 G3 X3.75 Z1.243 I0.1625 J0.
N535 G1 Y9.6125 Z1.1665
N540 G3 X3.425 Z1.1218 I-0.1625 J0.
N545 G1 Y8.7375 Z1.0453
N550 G3 X3.75 Z1.0006 I0.1625 J0.
N555 G1 Y9.6125 Z0.9241
N560 G3 X3.425 Z0.8794 I-0.1625 J0.
N565 G1 Y8.7375 Z0.8028
N570 G3 X3.75 Z0.7582 I0.1625 J0.
N575 G1 Y9.6125 Z0.6816
N580 G3 X3.425 Z0.637 I-0.1625 J0.
N585 G1 Y8.7375 Z0.5604
N590 G3 X3.75 Z0.5157 I0.1625 J0.
N595 G1 Y9.6125
N600 G3 X3.425 I-0.1625 J0.
N605 G1 Y8.7375
N610 G3 X3.75 I0.1625 J0.
N615 G1 Y8.7575
N620 G3 X3.625 Y8.8825 I-0.125 J0.
N625 G1 Y8.8575
N630 Y8.8453 Z0.516
N635 Y8.833 Z0.517
N640 Y8.8208 Z0.5185
N645 Y8.8088 Z0.5206
N650 Y8.7968 Z0.5232
N655 Y8.785 Z0.5265
N660 Y8.7733 Z0.5304
N665 Y8.7619 Z0.5348
N670 Y8.7506 Z0.5398
N675 Y8.7397 Z0.5453
N680 Y8.729 Z0.5513
N685 Y8.7186 Z0.5579
N690 Y8.7086 Z0.5649
N695 Y8.6989 Z0.5725
N700 Y8.6896 Z0.5805
N705 Y8.6808 Z0.589
N710 Y8.6723 Z0.5979
N715 Y8.6643 Z0.6071
N720 Y8.6567 Z0.6168
N725 Y8.6497 Z0.6269
N730 Y8.6431 Z0.6372
N735 Y8.6371 Z0.6479
N740 Y8.6315 Z0.6589
N745 Y8.6266 Z0.6701
N750 Y8.6221 Z0.6815
N755 Y8.6183 Z0.6932
N760 Y8.615 Z0.705
N765 Y8.6123 Z0.717
N770 Y8.6102 Z0.7291
N775 Y8.6087 Z0.7412
N780 Y8.6078 Z0.7535
N785 Y8.6075 Z0.7657
N790 Z2.2
N795 X0.8345 Y9.2464
N800 Z1.85
N805 X0.8348 Y9.2465 Z1.8377
N810 X0.8356 Y9.2466 Z1.8255
N815 X0.8371 Y9.2469 Z1.8133
N820 X0.8392 Y9.2473 Z1.8012
N825 X0.8418 Y9.2477 Z1.7893
N830 X0.8451 Y9.2483 Z1.7774
N835 X0.8488 Y9.249 Z1.7658
N840 X0.8532 Y9.2498 Z1.7543
N845 X0.8581 Y9.2507 Z1.7431
N850 X0.8635 Y9.2517 Z1.7322
N855 X0.8695 Y9.2528 Z1.7215
N860 X0.8759 Y9.254 Z1.7111
N865 X0.8829 Y9.2552 Z1.7011
N870 X0.8903 Y9.2566 Z1.6914
N875 X0.8982 Y9.258 Z1.6821
N880 X0.9065 Y9.2596 Z1.6732
N885 X0.9152 Y9.2612 Z1.6648
N890 X0.9244 Y9.2628 Z1.6567
N895 X0.9339 Y9.2646 Z1.6492
N900 X0.9438 Y9.2664 Z1.6421
N905 X0.954 Y9.2682 Z1.6356
N910 X0.9645 Y9.2702 Z1.6295
N915 X0.9752 Y9.2721 Z1.624
N920 X0.9863 Y9.2741 Z1.619
N925 X0.9975 Y9.2762 Z1.6146
N930 X1.009 Y9.2783 Z1.6108
N935 X1.0206 Y9.2804 Z1.6075
N940 X1.0324 Y9.2826 Z1.6048
N945 X1.0443 Y9.2848 Z1.6027
N950 X1.0563 Y9.2869 Z1.6012
N955 X1.0683 Y9.2891 Z1.6003
N960 X1.0804 Y9.2913 Z1.6
N965 X1.105 Y9.2958
N970 G3 X0.9595 Y9.3963 I-0.123 J-0.0225
N975 X1.0405 Y8.9537 Z1.5382 I0.0405 J-0.2213
N980 X0.9595 Y9.3963 Z1.4763 I-0.0405 J0.2213
N985 X1.0405 Y8.9537 Z1.4145 I0.0405 J-0.2213
N990 X0.9595 Y9.3963 Z1.3526 I-0.0405 J0.2213
N995 X1.0405 Y8.9537 Z1.2908 I0.0405 J-0.2213
N1000 X0.9595 Y9.3963 Z1.2289 I-0.0405 J0.2213
N1005 X1.0405 Y8.9537 Z1.1671 I0.0405 J-0.2213
N1010 X0.9595 Y9.3963 Z1.1053 I-0.0405 J0.2213
N1015 X1.0405 Y8.9537 Z1.0434 I0.0405 J-0.2213
N1020 X0.9595 Y9.3963 Z0.9816 I-0.0405 J0.2213
N1025 X1.0405 Y8.9537 Z0.9197 I0.0405 J-0.2213
N1030 X0.9595 Y9.3963 Z0.8579 I-0.0405 J0.2213
N1035 X1.0405 Y8.9537 Z0.7961 I0.0405 J-0.2213
N1040 X0.9595 Y9.3963 Z0.7342 I-0.0405 J0.2213
N1045 X1.0405 Y8.9537 Z0.6724 I0.0405 J-0.2213
N1050 X0.9595 Y9.3963 Z0.6105 I-0.0405 J0.2213
N1055 X1.0405 Y8.9537 Z0.5487 I0.0405 J-0.2213
N1060 X0.9595 Y9.3963 Z0.4868 I-0.0405 J0.2213
N1065 X1.0405 Y8.9537 Z0.425 I0.0405 J-0.2213
N1070 X1.225 Y9.175 Z0.3976 I-0.0405 J0.2213
N1075 X0.775 I-0.225 J0.
N1080 X1.01 Y8.9502 I0.225 J0.
N1085 X1.2241 Y9.195 I-0.01 J0.2248
N1090 X1.0885 Y9.3084 I-0.1245 J-0.0111
N1095 G1 X1.0907 Y9.2835
N1100 X1.0918 Y9.2713 Z0.3979
N1105 X1.0929 Y9.2591 Z0.3988
N1110 X1.094 Y9.2469 Z0.4003
N1115 X1.0951 Y9.2349 Z0.4024
N1120 X1.0961 Y9.223 Z0.4051
N1125 X1.0972 Y9.2112 Z0.4084
N1130 X1.0982 Y9.1996 Z0.4123
N1135 X1.0992 Y9.1882 Z0.4167
N1140 X1.1002 Y9.177 Z0.4216
N1145 X1.1012 Y9.1661 Z0.4272
N1150 X1.1021 Y9.1555 Z0.4332
N1155 X1.1031 Y9.1451 Z0.4398
N1160 X1.1039 Y9.1351 Z0.4468
N1165 X1.1048 Y9.1255 Z0.4544
N1170 X1.1056 Y9.1163 Z0.4624
N1175 X1.1064 Y9.1074 Z0.4709
N1180 X1.1072 Y9.099 Z0.4797
N1185 X1.1079 Y9.091 Z0.489
N1190 X1.1086 Y9.0835 Z0.4987
N1195 X1.1092 Y9.0764 Z0.5087
N1200 X1.1098 Y9.0699 Z0.5191
N1205 X1.1103 Y9.0639 Z0.5298
N1210 X1.1108 Y9.0584 Z0.5407
N1215 X1.1112 Y9.0534 Z0.552
N1220 X1.1116 Y9.049 Z0.5634
N1225 X1.112 Y9.0452 Z0.5751
N1230 X1.1123 Y9.0419 Z0.5869
N1235 X1.1125 Y9.0393 Z0.5989
N1240 X1.1127 Y9.0372 Z0.611
N1245 X1.1128 Y9.0357 Z0.6231
N1250 X1.1129 Y9.0348 Z0.6354
N1255 Y9.0345 Z0.6476
N1260 Z2.2
N1265 M5
N1270 G53 G0 Z0.
N1275 M30
%
