%
(1002)
(MACHINE)
(  DESCRIPTION CNC ROUTER)
(T7 D=0.25 CR=0.125 - ZMIN=1.1251 - BALL END MILL)
N10 G90 G94 G17 G91.1
N15 G20
(WHEN USING FUSION 360 FOR PERSONAL USE, THE FEEDRATE OF)
(RAPID MOVES IS REDUCED TO MATCH THE FEEDRATE OF CUTTING)
(MOVES, WHICH CAN INCREASE MACHINING TIME. UNRESTRICTED RAPID)
(MOVES ARE AVAILABLE WITH A FUSION 360 SUBSCRIPTION.)
N20 G53 G0 Z0.
(FLOW PREVIEW1)
N25 T7 M6
N30 S24000 M3
N35 G54
N40 G61.1
N45 G0 X0.9356 Y10.9651
N50 G43 Z2.6 H7
N55 G1 Z1.3676 F120.
N60 Z1.2427
N65 X0.9354 Y10.9657 Z1.2371
N70 X0.9349 Y10.9675 Z1.2318
N75 X0.9341 Y10.9703 Z1.2271
N80 X0.933 Y10.9741 Z1.2231
N85 X0.9317 Y10.9787 Z1.2201
N90 X0.9302 Y10.9838 Z1.2183
N95 X0.9286 Y10.9891 Z1.2177
N100 X0.9271 Y10.9945
N105 X0.9244 Y10.9994
N110 X0.9206 Y11.0036 Z1.2176
N115 X0.9161 Y11.0068
N120 X0.9109 Y11.0089
N125 X0.9054 Y11.0099
N130 X0.8998 Y11.0095
N135 X0.8909 Y11.008
N140 X0.882 Y11.0062
N145 X0.873 Y11.0039
N150 X0.8641 Y11.0014
N155 X0.8551 Y10.9984
N160 X0.8462 Y10.9951
N165 X0.8374 Y10.9915
N170 X0.8287 Y10.9875
N175 X0.82 Y10.9831
N180 X0.8115 Y10.9783
N185 X0.8031 Y10.9732
N190 X0.795 Y10.9678
N195 X0.787 Y10.962
N200 X0.7792 Y10.9558
N205 X0.7716 Y10.9494
N210 X0.7643 Y10.9427
N215 X0.7573 Y10.9356
N220 X0.7506 Y10.9283
N225 X0.7441 Y10.9208
N230 X0.738 Y10.913
N235 X0.7322 Y10.905
N240 X0.7268 Y10.8968
N245 X0.7217 Y10.8885
N250 X0.7169 Y10.88
N255 X0.7125 Y10.8713
N260 X0.7085 Y10.8626
N265 X0.7048 Y10.8537
N270 X0.7016 Y10.8448
N275 X0.6986 Y10.8359
N280 X0.6961 Y10.827
N285 X0.6938 Y10.818
N290 X0.692 Y10.8091
N295 X0.6905 Y10.8002
N300 X0.6893 Y10.7913
N305 X0.6884 Y10.7826
N310 X0.6879 Y10.7739
N315 X0.6876 Y10.7653
N320 X0.6877 Y10.7568
N325 X0.688 Y10.7482
N330 X0.6887 Y10.7395
N335 X0.6896 Y10.7307
N340 X0.6909 Y10.7218
N345 X0.6926 Y10.7129
N350 X0.6945 Y10.704
N355 X0.6969 Y10.695
N360 X0.6996 Y10.6861
N365 X0.7026 Y10.6772
N370 X0.706 Y10.6683
N375 X0.7098 Y10.6595
N380 X0.714 Y10.6508
N385 X0.7185 Y10.6422
N390 X0.7233 Y10.6337
N395 X0.7286 Y10.6254
N400 X0.7341 Y10.6173
N405 X0.74 Y10.6093
N410 X0.7463 Y10.6016
N415 X0.7528 Y10.5942
N420 X0.7596 Y10.587
N425 X0.7667 Y10.58
N430 X0.7741 Y10.5734
N435 X0.7818 Y10.5671
N440 X0.7896 Y10.5611
N445 X0.7977 Y10.5554
N450 X0.8059 Y10.55
N455 X0.8143 Y10.5451
N460 X0.8229 Y10.5404
N465 X0.8316 Y10.5362
N470 X0.8404 Y10.5323
N475 X0.8492 Y10.5287
N480 X0.8581 Y10.5255
N485 X0.8671 Y10.5227
N490 X0.876 Y10.5203
N495 X0.885 Y10.5182
N500 X0.8939 Y10.5164
N505 X0.9028 Y10.515
N510 X0.9116 Y10.5139
N515 X0.9203 Y10.5132
N520 X0.929 Y10.5127
N525 X0.9375 Y10.5126
N530 X3.6875
N535 X3.6989 Y10.5129
N540 X3.7076 Y10.5134
N545 X3.7164 Y10.5143
N550 X3.7252 Y10.5155
N555 X3.7341 Y10.517
N560 X3.743 Y10.5188
N565 X3.752 Y10.5211
N570 X3.7609 Y10.5236
N575 X3.7699 Y10.5266
N580 X3.7788 Y10.5299
N585 X3.7876 Y10.5335
N590 X3.7963 Y10.5375
N595 X3.805 Y10.5419
N600 X3.8135 Y10.5467
N605 X3.8219 Y10.5518
N610 X3.83 Y10.5572
N615 X3.838 Y10.563
N620 X3.8458 Y10.5692
N625 X3.8534 Y10.5756
N630 X3.8607 Y10.5823
N635 X3.8677 Y10.5894
N640 X3.8744 Y10.5967
N645 X3.8809 Y10.6042
N650 X3.887 Y10.612
N655 X3.8928 Y10.62
N660 X3.8982 Y10.6282
N665 X3.9033 Y10.6365
N670 X3.9081 Y10.645
N675 X3.9125 Y10.6537
N680 X3.9165 Y10.6624
N685 X3.9202 Y10.6713
N690 X3.9234 Y10.6802
N695 X3.9264 Y10.6891
N700 X3.9289 Y10.698
N705 X3.9312 Y10.707
N710 X3.933 Y10.7159
N715 X3.9345 Y10.7248
N720 X3.9357 Y10.7337
N725 X3.9366 Y10.7424
N730 X3.9371 Y10.7511
N735 X3.9374 Y10.7597
N740 X3.9373 Y10.7682
N745 X3.937 Y10.7768
N750 X3.9363 Y10.7855
N755 X3.9354 Y10.7943
N760 X3.9341 Y10.8032
N765 X3.9324 Y10.8121
N770 X3.9305 Y10.821
N775 X3.9281 Y10.83
N780 X3.9254 Y10.8389
N785 X3.9224 Y10.8478
N790 X3.919 Y10.8567
N795 X3.9152 Y10.8655
N800 X3.911 Y10.8742
N805 X3.9065 Y10.8828
N810 X3.9017 Y10.8913
N815 X3.8964 Y10.8996
N820 X3.8909 Y10.9077
N825 X3.885 Y10.9157
N830 X3.8787 Y10.9234
N835 X3.8722 Y10.9308
N840 X3.8654 Y10.938
N845 X3.8583 Y10.945
N850 X3.8509 Y10.9516
N855 X3.8432 Y10.9579
N860 X3.8354 Y10.9639
N865 X3.8273 Y10.9696
N870 X3.8191 Y10.975
N875 X3.8107 Y10.9799
N880 X3.8021 Y10.9846
N885 X3.7934 Y10.9888
N890 X3.7846 Y10.9927
N895 X3.7758 Y10.9963
N900 X3.7669 Y10.9995
N905 X3.7579 Y11.0023
N910 X3.749 Y11.0047
N915 X3.74 Y11.0068
N920 X3.7311 Y11.0086
N925 X3.7222 Y11.01
N930 X3.7134 Y11.0111
N935 X3.7047 Y11.0118
N940 X3.696 Y11.0123
N945 X3.6875 Y11.0124
N950 X0.9375
N955 X0.9261 Y11.0121
N960 X0.9174 Y11.0116
N965 X0.9086 Y11.0107
N970 X0.8998 Y11.0095
N975 X0.8939 Y11.0086 Z1.218
N980 X0.8881 Y11.0075 Z1.219
N985 X0.8825 Y11.0063 Z1.2207
N990 X0.8772 Y11.0051 Z1.2231
N995 X0.8719 Y11.004 Z1.2262
N1000 X0.8668 Y11.0027 Z1.23
N1005 X0.8619 Y11.0014 Z1.2344
N1010 X0.8572 Y11.0001 Z1.2396
N1015 X0.8524 Y10.9989 Z1.2447
N1020 X0.8475 Y10.9975 Z1.2492
N1025 X0.8425 Y10.9961 Z1.2529
N1030 X0.8373 Y10.9945 Z1.256
N1035 X0.8321 Y10.9927 Z1.2586
N1040 X0.8269 Y10.9903 Z1.2601
N1045 X0.8217 Y10.9878 Z1.2612
N1050 X0.8163 Y10.9851 Z1.2615
N1055 X0.8153 Y10.9845
N1060 X0.8067 Y10.9796
N1065 X0.7983 Y10.9743
N1070 X0.7901 Y10.9687
N1075 X0.7821 Y10.9627
N1080 X0.7744 Y10.9565
N1085 X0.7668 Y10.9499
N1090 X0.7596 Y10.943
N1095 X0.7526 Y10.9358
N1100 X0.7459 Y10.9283
N1105 X0.7395 Y10.9207
N1110 X0.7334 Y10.9127
N1115 X0.7276 Y10.9046
N1120 X0.7222 Y10.8963
N1125 X0.7172 Y10.8878
N1130 X0.7125 Y10.8792
N1135 X0.7082 Y10.8704
N1140 X0.7042 Y10.8616
N1145 X0.7006 Y10.8526
N1150 X0.6974 Y10.8437
N1155 X0.6945 Y10.8346
N1160 X0.692 Y10.8256
N1165 X0.6899 Y10.8166
N1170 X0.6881 Y10.8076
N1175 X0.6866 Y10.7986
N1180 X0.6855 Y10.7897
N1185 X0.6847 Y10.7809
N1190 X0.6842 Y10.7721
N1195 X0.6841 Y10.7635
N1200 X0.6842 Y10.7549
N1205 X0.6846 Y10.7462
N1210 X0.6853 Y10.7374
N1215 X0.6863 Y10.7285
N1220 X0.6877 Y10.7196
N1225 X0.6894 Y10.7106
N1230 X0.6915 Y10.7015
N1235 X0.6939 Y10.6925
N1240 X0.6967 Y10.6835
N1245 X0.6998 Y10.6745
N1250 X0.7033 Y10.6655
N1255 X0.7072 Y10.6567
N1260 X0.7114 Y10.6479
N1265 X0.7161 Y10.6392
N1270 X0.721 Y10.6307
N1275 X0.7263 Y10.6224
N1280 X0.732 Y10.6142
N1285 X0.738 Y10.6062
N1290 X0.7443 Y10.5985
N1295 X0.7509 Y10.591
N1300 X0.7579 Y10.5837
N1305 X0.7651 Y10.5767
N1310 X0.7726 Y10.5701
N1315 X0.7803 Y10.5637
N1320 X0.7882 Y10.5577
N1325 X0.7964 Y10.552
N1330 X0.8047 Y10.5466
N1335 X0.8132 Y10.5416
N1340 X0.8219 Y10.537
N1345 X0.8306 Y10.5327
N1350 X0.8395 Y10.5288
N1355 X0.8484 Y10.5252
N1360 X0.8574 Y10.522
N1365 X0.8664 Y10.5192
N1370 X0.8755 Y10.5168
N1375 X0.8845 Y10.5147
N1380 X0.8935 Y10.5129
N1385 X0.9025 Y10.5115
N1390 X0.9113 Y10.5104
N1395 X0.9202 Y10.5096
N1400 X0.9289 Y10.5092
N1405 X0.9375 Y10.5091
N1410 X3.6875
N1415 X3.7028 Y10.5095
N1420 X3.7116 Y10.5102
N1425 X3.7204 Y10.5112
N1430 X3.7294 Y10.5125
N1435 X3.7384 Y10.5142
N1440 X3.7474 Y10.5162
N1445 X3.7564 Y10.5186
N1450 X3.7654 Y10.5213
N1455 X3.7744 Y10.5244
N1460 X3.7834 Y10.5279
N1465 X3.7923 Y10.5317
N1470 X3.8011 Y10.5359
N1475 X3.8097 Y10.5405
N1480 X3.8183 Y10.5454
N1485 X3.8267 Y10.5507
N1490 X3.8349 Y10.5563
N1495 X3.8429 Y10.5623
N1500 X3.8506 Y10.5685
N1505 X3.8582 Y10.5751
N1510 X3.8654 Y10.582
N1515 X3.8724 Y10.5892
N1520 X3.8791 Y10.5967
N1525 X3.8855 Y10.6043
N1530 X3.8916 Y10.6123
N1535 X3.8974 Y10.6204
N1540 X3.9028 Y10.6287
N1545 X3.9078 Y10.6372
N1550 X3.9125 Y10.6458
N1555 X3.9168 Y10.6546
N1560 X3.9208 Y10.6634
N1565 X3.9244 Y10.6724
N1570 X3.9276 Y10.6813
N1575 X3.9305 Y10.6904
N1580 X3.933 Y10.6994
N1585 X3.9351 Y10.7084
N1590 X3.9369 Y10.7174
N1595 X3.9384 Y10.7264
N1600 X3.9395 Y10.7353
N1605 X3.9403 Y10.7441
N1610 X3.9408 Y10.7529
N1615 X3.9409 Y10.7615
N1620 X3.9408 Y10.7701
N1625 X3.9404 Y10.7788
N1630 X3.9397 Y10.7876
N1635 X3.9387 Y10.7965
N1640 X3.9373 Y10.8054
N1645 X3.9356 Y10.8144
N1650 X3.9335 Y10.8235
N1655 X3.9311 Y10.8325
N1660 X3.9283 Y10.8415
N1665 X3.9252 Y10.8505
N1670 X3.9217 Y10.8595
N1675 X3.9178 Y10.8683
N1680 X3.9136 Y10.8771
N1685 X3.9089 Y10.8858
N1690 X3.904 Y10.8943
N1695 X3.8987 Y10.9026
N1700 X3.893 Y10.9108
N1705 X3.887 Y10.9188
N1710 X3.8807 Y10.9265
N1715 X3.8741 Y10.934
N1720 X3.8671 Y10.9413
N1725 X3.8599 Y10.9483
N1730 X3.8524 Y10.9549
N1735 X3.8447 Y10.9613
N1740 X3.8368 Y10.9673
N1745 X3.8286 Y10.973
N1750 X3.8203 Y10.9784
N1755 X3.8118 Y10.9834
N1760 X3.8031 Y10.988
N1765 X3.7944 Y10.9923
N1770 X3.7855 Y10.9962
N1775 X3.7766 Y10.9998
N1780 X3.7676 Y11.003
N1785 X3.7586 Y11.0058
N1790 X3.7495 Y11.0082
N1795 X3.7405 Y11.0103
N1800 X3.7315 Y11.0121
N1805 X3.7225 Y11.0135
N1810 X3.7137 Y11.0146
N1815 X3.7048 Y11.0153
N1820 X3.6961 Y11.0158
N1825 X3.6875 Y11.0159
N1830 X0.9375
N1835 X0.9222 Y11.0155
N1840 X0.9134 Y11.0148
N1845 X0.9046 Y11.0138
N1850 X0.8956 Y11.0125
N1855 X0.8866 Y11.0108
N1860 X0.8776 Y11.0088
N1865 X0.8686 Y11.0064
N1870 X0.8596 Y11.0037
N1875 X0.8506 Y11.0006
N1880 X0.8416 Y10.9971
N1885 X0.8327 Y10.9933
N1890 X0.8239 Y10.9891
N1895 X0.8163 Y10.9851
N1900 X0.811 Y10.9823 Z1.2618
N1905 X0.8059 Y10.9793 Z1.2628
N1910 X0.8009 Y10.9766 Z1.2645
N1915 X0.7961 Y10.9738 Z1.2669
N1920 X0.7914 Y10.9712 Z1.2699
N1925 X0.7867 Y10.9688 Z1.2737
N1930 X0.7821 Y10.9665 Z1.2781
N1935 X0.7775 Y10.9646 Z1.2831
N1940 X0.7729 Y10.9625 Z1.2882
N1945 X0.7684 Y10.9601 Z1.2926
N1950 X0.7638 Y10.9575 Z1.2963
N1955 X0.7593 Y10.9546 Z1.2993
N1960 X0.7548 Y10.9514 Z1.3017
N1965 X0.7505 Y10.9478 Z1.3034
N1970 X0.7461 Y10.9439 Z1.3044
N1975 X0.742 Y10.9396 Z1.3048
N1980 X0.7385 Y10.9356
N1985 X0.7319 Y10.9278
N1990 X0.7256 Y10.9197 Z1.3049
N1995 X0.7197 Y10.9113
N2000 X0.7141 Y10.9028 Z1.3048
N2005 X0.7089 Y10.8942
N2010 X0.704 Y10.8853
N2015 X0.6995 Y10.8764
N2020 X0.6954 Y10.8673 Z1.3049
N2025 X0.6917 Y10.8582 Z1.3048
N2030 X0.6883 Y10.849
N2035 X0.6853 Y10.8398
N2040 X0.6826 Y10.8305 Z1.3049
N2045 X0.6803 Y10.8212 Z1.3048
N2050 X0.6784 Y10.812
N2055 X0.6768 Y10.8028
N2060 X0.6755 Y10.7936 Z1.3049
N2065 X0.6746 Y10.7846 Z1.3048
N2070 X0.674 Y10.7756
N2075 X0.6737 Y10.7667
N2080 Y10.7579
N2085 X0.674 Y10.749
N2090 X0.6747 Y10.74
N2095 X0.6756 Y10.7309 Z1.3049
N2100 X0.6769 Y10.7218 Z1.3048
N2105 X0.6785 Y10.7126
N2110 X0.6804 Y10.7033
N2115 X0.6827 Y10.6941 Z1.3049
N2120 X0.6854 Y10.6848 Z1.3048
N2125 X0.6884 Y10.6756
N2130 X0.6918 Y10.6664
N2135 X0.6956 Y10.6572
N2140 X0.6997 Y10.6482 Z1.3049
N2145 X0.7043 Y10.6392 Z1.3048
N2150 X0.7091 Y10.6304
N2155 X0.7144 Y10.6218
N2160 X0.72 Y10.6133
N2165 X0.7259 Y10.605 Z1.3049
N2170 X0.7322 Y10.5969 Z1.3048
N2175 X0.7388 Y10.589
N2180 X0.7457 Y10.5814
N2185 X0.7529 Y10.5741
N2190 X0.7603 Y10.567 Z1.3049
N2195 X0.7681 Y10.5603 Z1.3048
N2200 X0.7761 Y10.5538
N2205 X0.7843 Y10.5478
N2210 X0.7927 Y10.542
N2215 X0.8013 Y10.5366 Z1.3049
N2220 X0.81 Y10.5315
N2225 X0.8189 Y10.5268 Z1.3048
N2230 X0.8279 Y10.5225
N2235 X0.837 Y10.5186
N2240 X0.8462 Y10.515 Z1.3049
N2245 X0.8554 Y10.5118 Z1.3048
N2250 X0.8647 Y10.5089
N2255 X0.8739 Y10.5065
N2260 X0.8832 Y10.5043
N2265 X0.8924 Y10.5026
N2270 X0.9016 Y10.5012
N2275 X0.9107 Y10.5001
N2280 X0.9197 Y10.4993 Z1.3049
N2285 X0.9287 Y10.4988 Z1.3048
N2290 X0.9375 Y10.4987
N2295 X3.6875
N2300 X3.6967 Y10.4989
N2305 X3.7057 Y10.4993 Z1.3049
N2310 X3.7147 Y10.5001 Z1.3048
N2315 X3.7238 Y10.5012
N2320 X3.733 Y10.5027
N2325 X3.7422 Y10.5044
N2330 X3.7515 Y10.5066
N2335 X3.7608 Y10.5091
N2340 X3.77 Y10.5119
N2345 X3.7792 Y10.5152 Z1.3049
N2350 X3.7884 Y10.5188 Z1.3048
N2355 X3.7975 Y10.5227
N2360 X3.8065 Y10.5271
N2365 X3.8154 Y10.5318
N2370 X3.8241 Y10.5368 Z1.3049
N2375 X3.8327 Y10.5423 Z1.3048
N2380 X3.8411 Y10.548
N2385 X3.8493 Y10.5541
N2390 X3.8573 Y10.5606
N2395 X3.865 Y10.5673 Z1.3049
N2400 X3.8725 Y10.5744 Z1.3048
N2405 X3.8797 Y10.5817
N2410 X3.8865 Y10.5894
N2415 X3.8931 Y10.5972
N2420 X3.8994 Y10.6053 Z1.3049
N2425 X3.9053 Y10.6137
N2430 X3.9109 Y10.6222 Z1.3048
N2435 X3.9161 Y10.6308
N2440 X3.921 Y10.6397
N2445 X3.9255 Y10.6486
N2450 X3.9296 Y10.6577 Z1.3049
N2455 X3.9333 Y10.6668 Z1.3048
N2460 X3.9367 Y10.676
N2465 X3.9397 Y10.6852
N2470 X3.9424 Y10.6945 Z1.3049
N2475 X3.9447 Y10.7038 Z1.3048
N2480 X3.9466 Y10.713
N2485 X3.9482 Y10.7222
N2490 X3.9495 Y10.7314 Z1.3049
N2495 X3.9504 Y10.7404 Z1.3048
N2500 X3.951 Y10.7494
N2505 X3.9513 Y10.7583
N2510 Y10.7671
N2515 X3.951 Y10.776
N2520 X3.9503 Y10.785
N2525 X3.9494 Y10.7941 Z1.3049
N2530 X3.9481 Y10.8032 Z1.3048
N2535 X3.9465 Y10.8124
N2540 X3.9446 Y10.8217
N2545 X3.9423 Y10.8309 Z1.3049
N2550 X3.9396 Y10.8402 Z1.3048
N2555 X3.9366 Y10.8494
N2560 X3.9332 Y10.8586
N2565 X3.9294 Y10.8678
N2570 X3.9253 Y10.8768 Z1.3049
N2575 X3.9207 Y10.8858 Z1.3048
N2580 X3.9159 Y10.8946
N2585 X3.9106 Y10.9032
N2590 X3.905 Y10.9117
N2595 X3.8991 Y10.92 Z1.3049
N2600 X3.8928 Y10.9281 Z1.3048
N2605 X3.8862 Y10.936
N2610 X3.8793 Y10.9436
N2615 X3.8721 Y10.9509
N2620 X3.8647 Y10.958 Z1.3049
N2625 X3.8569 Y10.9647 Z1.3048
N2630 X3.8489 Y10.9711
N2635 X3.8407 Y10.9772
N2640 X3.8323 Y10.983
N2645 X3.8237 Y10.9884 Z1.3049
N2650 X3.815 Y10.9935
N2655 X3.8061 Y10.9981 Z1.3048
N2660 X3.7971 Y11.0025
N2665 X3.788 Y11.0064
N2670 X3.7788 Y11.01 Z1.3049
N2675 X3.7696 Y11.0132 Z1.3048
N2680 X3.7603 Y11.0161
N2685 X3.7511 Y11.0185
N2690 X3.7418 Y11.0207
N2695 X3.7326 Y11.0224
N2700 X3.7234 Y11.0239
N2705 X3.7143 Y11.0249
N2710 X3.7053 Y11.0257 Z1.3049
N2715 X3.6963 Y11.0262 Z1.3048
N2720 X3.6875 Y11.0263
N2725 X0.9375
N2730 X0.9283 Y11.0261
N2735 X0.9193 Y11.0257 Z1.3049
N2740 X0.9103 Y11.0249 Z1.3048
N2745 X0.9012 Y11.0238
N2750 X0.892 Y11.0223
N2755 X0.8828 Y11.0206
N2760 X0.8735 Y11.0184
N2765 X0.8642 Y11.0159
N2770 X0.855 Y11.0131
N2775 X0.8458 Y11.0098 Z1.3049
N2780 X0.8366 Y11.0062 Z1.3048
N2785 X0.8275 Y11.0023
N2790 X0.8185 Y10.9979
N2795 X0.8096 Y10.9932
N2800 X0.8009 Y10.9882 Z1.3049
N2805 X0.7923 Y10.9827 Z1.3048
N2810 X0.7839 Y10.977
N2815 X0.7757 Y10.9709
N2820 X0.7677 Y10.9644
N2825 X0.76 Y10.9577 Z1.3049
N2830 X0.7525 Y10.9506 Z1.3048
N2835 X0.7453 Y10.9433
N2840 X0.742 Y10.9396
N2845 X0.738 Y10.9352 Z1.3051
N2850 X0.7339 Y10.9311 Z1.3064
N2855 X0.7297 Y10.9271 Z1.3083
N2860 X0.7256 Y10.9234 Z1.3112
N2865 X0.7213 Y10.9199 Z1.3148
N2870 X0.7171 Y10.9165 Z1.3191
N2875 X0.7128 Y10.9134 Z1.3239
N2880 X0.7084 Y10.9105 Z1.3286
N2885 X0.7042 Y10.9075 Z1.333
N2890 X0.7002 Y10.9042 Z1.3366
N2895 X0.6964 Y10.9006 Z1.3394
N2900 X0.6929 Y10.8966 Z1.3419
N2905 X0.6896 Y10.8923 Z1.3436
N2910 X0.6866 Y10.8876 Z1.3449
N2915 X0.6838 Y10.8826 Z1.3456
N2920 X0.6813 Y10.8773 Z1.3458
N2925 X0.6785 Y10.8709
N2930 X0.6747 Y10.8614
N2935 X0.6713 Y10.8518
N2940 X0.6683 Y10.8422
N2945 X0.6656 Y10.8326
N2950 X0.6633 Y10.823
N2955 X0.6614 Y10.8134
N2960 X0.6598 Y10.8038
N2965 X0.6585 Y10.7943
N2970 X0.6576 Y10.7849
N2975 X0.657 Y10.7756
N2980 X0.6567 Y10.7664
N2985 X0.6568 Y10.7572
N2990 X0.6571 Y10.748
N2995 X0.6577 Y10.7387
N3000 X0.6587 Y10.7292
N3005 X0.66 Y10.7197
N3010 X0.6616 Y10.7102
N3015 X0.6636 Y10.7006
N3020 X0.666 Y10.691
N3025 X0.6687 Y10.6813
N3030 X0.6718 Y10.6717
N3035 X0.6752 Y10.6622
N3040 X0.6791 Y10.6527
N3045 X0.6833 Y10.6432
N3050 X0.6879 Y10.6339
N3055 X0.6928 Y10.6247
N3060 X0.6982 Y10.6157
N3065 X0.7038 Y10.6068
N3070 X0.7099 Y10.5981
N3075 X0.7163 Y10.5896
N3080 X0.723 Y10.5813
N3085 X0.73 Y10.5733
N3090 X0.7374 Y10.5656
N3095 X0.745 Y10.5581
N3100 X0.7529 Y10.5509
N3105 X0.761 Y10.5441
N3110 X0.7694 Y10.5376
N3115 X0.7781 Y10.5314
N3120 X0.7869 Y10.5255
N3125 X0.7959 Y10.52
N3130 X0.805 Y10.5149
N3135 X0.8143 Y10.5102
N3140 X0.8237 Y10.5058
N3145 X0.8331 Y10.5018
N3150 X0.8427 Y10.4982
N3155 X0.8523 Y10.495
N3160 X0.8619 Y10.4921
N3165 X0.8715 Y10.4896
N3170 X0.8811 Y10.4874
N3175 X0.8907 Y10.4856
N3180 X0.9002 Y10.4842
N3185 X0.9097 Y10.4831
N3190 X0.919 Y10.4823
N3195 X0.9283 Y10.4819
N3200 X0.9375 Y10.4817
N3205 X3.6875
N3210 X3.6981 Y10.4819
N3215 X3.7074 Y10.4824
N3220 X3.7168 Y10.4832
N3225 X3.7262 Y10.4844
N3230 X3.7358 Y10.4859
N3235 X3.7453 Y10.4877
N3240 X3.755 Y10.4899
N3245 X3.7646 Y10.4925
N3250 X3.7742 Y10.4954
N3255 X3.7838 Y10.4987
N3260 X3.7933 Y10.5024
N3265 X3.8028 Y10.5065
N3270 X3.8121 Y10.5109
N3275 X3.8214 Y10.5157
N3280 X3.8305 Y10.5209
N3285 X3.8395 Y10.5264
N3290 X3.8483 Y10.5323
N3295 X3.8568 Y10.5385
N3300 X3.8652 Y10.5451
N3305 X3.8733 Y10.552
N3310 X3.8812 Y10.5592
N3315 X3.8888 Y10.5667
N3320 X3.8961 Y10.5745
N3325 X3.9031 Y10.5826
N3330 X3.9097 Y10.5909
N3335 X3.916 Y10.5994
N3340 X3.922 Y10.6081
N3345 X3.9277 Y10.617
N3350 X3.9329 Y10.6261
N3355 X3.9378 Y10.6353
N3360 X3.9424 Y10.6447
N3365 X3.9465 Y10.6541
N3370 X3.9503 Y10.6636
N3375 X3.9537 Y10.6732
N3380 X3.9567 Y10.6828
N3385 X3.9594 Y10.6924
N3390 X3.9617 Y10.702
N3395 X3.9636 Y10.7116
N3400 X3.9652 Y10.7212
N3405 X3.9665 Y10.7307
N3410 X3.9674 Y10.7401
N3415 X3.968 Y10.7494
N3420 X3.9683 Y10.7586
N3425 X3.9682 Y10.7678
N3430 X3.9679 Y10.777
N3435 X3.9673 Y10.7863
N3440 X3.9663 Y10.7958
N3445 X3.965 Y10.8053
N3450 X3.9634 Y10.8148
N3455 X3.9614 Y10.8244
N3460 X3.959 Y10.834
N3465 X3.9563 Y10.8437
N3470 X3.9532 Y10.8533
N3475 X3.9498 Y10.8628
N3480 X3.9459 Y10.8723
N3485 X3.9417 Y10.8818
N3490 X3.9371 Y10.8911
N3495 X3.9322 Y10.9003
N3500 X3.9268 Y10.9093
N3505 X3.9212 Y10.9182
N3510 X3.9151 Y10.9269
N3515 X3.9087 Y10.9354
N3520 X3.902 Y10.9437
N3525 X3.895 Y10.9517
N3530 X3.8876 Y10.9594
N3535 X3.88 Y10.9669
N3540 X3.8721 Y10.9741
N3545 X3.864 Y10.9809
N3550 X3.8556 Y10.9874
N3555 X3.8469 Y10.9936
N3560 X3.8381 Y10.9995
N3565 X3.8291 Y11.0049
N3570 X3.82 Y11.0101
N3575 X3.8107 Y11.0148
N3580 X3.8013 Y11.0192
N3585 X3.7919 Y11.0232
N3590 X3.7823 Y11.0268
N3595 X3.7727 Y11.03
N3600 X3.7631 Y11.0329
N3605 X3.7535 Y11.0354
N3610 X3.7439 Y11.0376
N3615 X3.7343 Y11.0394
N3620 X3.7248 Y11.0408
N3625 X3.7153 Y11.0419
N3630 X3.706 Y11.0427
N3635 X3.6967 Y11.0431
N3640 X3.6875 Y11.0433
N3645 X0.9375
N3650 X0.9269 Y11.0431
N3655 X0.9176 Y11.0426
N3660 X0.9082 Y11.0418
N3665 X0.8988 Y11.0406
N3670 X0.8892 Y11.0391
N3675 X0.8797 Y11.0373
N3680 X0.87 Y11.0351
N3685 X0.8604 Y11.0325
N3690 X0.8508 Y11.0296
N3695 X0.8412 Y11.0263
N3700 X0.8317 Y11.0226
N3705 X0.8222 Y11.0185
N3710 X0.8129 Y11.0141
N3715 X0.8036 Y11.0093
N3720 X0.7945 Y11.0041
N3725 X0.7855 Y10.9986
N3730 X0.7767 Y10.9927
N3735 X0.7682 Y10.9865
N3740 X0.7598 Y10.9799
N3745 X0.7517 Y10.973
N3750 X0.7438 Y10.9658
N3755 X0.7362 Y10.9583
N3760 X0.7289 Y10.9505
N3765 X0.7219 Y10.9424
N3770 X0.7153 Y10.9341
N3775 X0.709 Y10.9256
N3780 X0.703 Y10.9169
N3785 X0.6973 Y10.908
N3790 X0.6921 Y10.8989
N3795 X0.6872 Y10.8897
N3800 X0.6826 Y10.8803
N3805 X0.6813 Y10.8773
N3810 X0.6788 Y10.8719 Z1.3461
N3815 X0.676 Y10.8667 Z1.3471
N3820 X0.6731 Y10.8618 Z1.3491
N3825 X0.67 Y10.857 Z1.3515
N3830 X0.6667 Y10.8525 Z1.3545
N3835 X0.6632 Y10.8482 Z1.3579
N3840 X0.6594 Y10.8441 Z1.3618
N3845 X0.6555 Y10.8403 Z1.3664
N3850 X0.6517 Y10.8364 Z1.3709
N3855 X0.6483 Y10.8322 Z1.3744
N3860 X0.6452 Y10.8278 Z1.3773
N3865 X0.6426 Y10.8231 Z1.3795
N3870 X0.6404 Y10.8181 Z1.3811
N3875 X0.6385 Y10.8129 Z1.3825
N3880 X0.6371 Y10.8073 Z1.3834
N3885 X0.636 Y10.8015 Z1.3837
N3890 Y10.8014
N3895 X0.6349 Y10.7915
N3900 X0.6341 Y10.7817
N3905 X0.6336 Y10.772
N3910 X0.6335 Y10.7624
N3915 X0.6336 Y10.7527
N3920 X0.6341 Y10.743
N3925 X0.6349 Y10.7332
N3930 X0.636 Y10.7233
N3935 X0.6375 Y10.7133
N3940 X0.6393 Y10.7033
N3945 X0.6415 Y10.6932
N3950 X0.644 Y10.6831
N3955 X0.6469 Y10.6731
N3960 X0.6502 Y10.663
N3965 X0.6539 Y10.653
N3970 X0.6579 Y10.643
N3975 X0.6624 Y10.6331
N3980 X0.6672 Y10.6234
N3985 X0.6724 Y10.6137
N3990 X0.6779 Y10.6042
N3995 X0.6838 Y10.5949
N4000 X0.6901 Y10.5857
N4005 X0.6968 Y10.5768
N4010 X0.7037 Y10.5681
N4015 X0.711 Y10.5596
N4020 X0.7187 Y10.5515
N4025 X0.7266 Y10.5435
N4030 X0.7348 Y10.5359
N4035 X0.7432 Y10.5286
N4040 X0.7519 Y10.5217
N4045 X0.7609 Y10.515
N4050 X0.77 Y10.5088
N4055 X0.7794 Y10.5028
N4060 X0.7889 Y10.4973
N4065 X0.7985 Y10.4921
N4070 X0.8083 Y10.4873
N4075 X0.8182 Y10.4829
N4080 X0.8281 Y10.4788
N4085 X0.8381 Y10.4752
N4090 X0.8482 Y10.4719
N4095 X0.8583 Y10.469
N4100 X0.8684 Y10.4664
N4105 X0.8784 Y10.4643
N4110 X0.8885 Y10.4625
N4115 X0.8984 Y10.461
N4120 X0.9083 Y10.4599
N4125 X0.9182 Y10.4591
N4130 X0.9279 Y10.4586
N4135 X0.9375 Y10.4585
N4140 X3.6875
N4145 X3.6974 Y10.4586
N4150 X3.7071 Y10.4591
N4155 X3.7169 Y10.4599
N4160 X3.7269 Y10.461
N4165 X3.7368 Y10.4625
N4170 X3.7469 Y10.4643
N4175 X3.7569 Y10.4665
N4180 X3.767 Y10.4691
N4185 X3.7771 Y10.472
N4190 X3.7872 Y10.4753
N4195 X3.7972 Y10.4789
N4200 X3.8071 Y10.483
N4205 X3.817 Y10.4874
N4210 X3.8268 Y10.4922
N4215 X3.8364 Y10.4974
N4220 X3.8459 Y10.503
N4225 X3.8552 Y10.5089
N4230 X3.8644 Y10.5152
N4235 X3.8733 Y10.5219
N4240 X3.882 Y10.5288
N4245 X3.8905 Y10.5362
N4250 X3.8987 Y10.5438
N4255 X3.9066 Y10.5517
N4260 X3.9142 Y10.5599
N4265 X3.9215 Y10.5684
N4270 X3.9284 Y10.5771
N4275 X3.9351 Y10.586
N4280 X3.9413 Y10.5952
N4285 X3.9472 Y10.6045
N4290 X3.9528 Y10.614
N4295 X3.958 Y10.6237
N4300 X3.9628 Y10.6334
N4305 X3.9672 Y10.6433
N4310 X3.9712 Y10.6533
N4315 X3.9749 Y10.6633
N4320 X3.9782 Y10.6733
N4325 X3.9811 Y10.6834
N4330 X3.9836 Y10.6935
N4335 X3.9858 Y10.7036
N4340 X3.9876 Y10.7136
N4345 X3.989 Y10.7236
N4350 X3.9901 Y10.7335
N4355 X3.9909 Y10.7433
N4360 X3.9914 Y10.753
N4365 X3.9915 Y10.7626
N4370 X3.9914 Y10.7723
N4375 X3.9909 Y10.782
N4380 X3.9901 Y10.7918
N4385 X3.989 Y10.8017
N4390 X3.9875 Y10.8117
N4395 X3.9857 Y10.8217
N4400 X3.9835 Y10.8318
N4405 X3.981 Y10.8419
N4410 X3.9781 Y10.8519
N4415 X3.9748 Y10.862
N4420 X3.9711 Y10.872
N4425 X3.9671 Y10.882
N4430 X3.9626 Y10.8919
N4435 X3.9578 Y10.9016
N4440 X3.9526 Y10.9113
N4445 X3.9471 Y10.9208
N4450 X3.9412 Y10.9301
N4455 X3.9349 Y10.9393
N4460 X3.9282 Y10.9482
N4465 X3.9213 Y10.9569
N4470 X3.914 Y10.9654
N4475 X3.9063 Y10.9735
N4480 X3.8984 Y10.9815
N4485 X3.8902 Y10.9891
N4490 X3.8818 Y10.9964
N4495 X3.8731 Y11.0033
N4500 X3.8641 Y11.01
N4505 X3.855 Y11.0162
N4510 X3.8456 Y11.0222
N4515 X3.8361 Y11.0277
N4520 X3.8265 Y11.0329
N4525 X3.8167 Y11.0377
N4530 X3.8068 Y11.0421
N4535 X3.7969 Y11.0462
N4540 X3.7869 Y11.0498
N4545 X3.7768 Y11.0531
N4550 X3.7667 Y11.056
N4555 X3.7566 Y11.0586
N4560 X3.7466 Y11.0607
N4565 X3.7365 Y11.0625
N4570 X3.7266 Y11.064
N4575 X3.7167 Y11.0651
N4580 X3.7068 Y11.0659
N4585 X3.6971 Y11.0664
N4590 X3.6875 Y11.0665
N4595 X0.9375
N4600 X0.9276 Y11.0664
N4605 X0.9179 Y11.0659
N4610 X0.9081 Y11.0651
N4615 X0.8981 Y11.064
N4620 X0.8882 Y11.0625
N4625 X0.8781 Y11.0607
N4630 X0.8681 Y11.0585
N4635 X0.858 Y11.0559
N4640 X0.8479 Y11.053
N4645 X0.8378 Y11.0497
N4650 X0.8278 Y11.0461
N4655 X0.8179 Y11.042
N4660 X0.808 Y11.0376
N4665 X0.7982 Y11.0328
N4670 X0.7886 Y11.0276
N4675 X0.7791 Y11.022
N4680 X0.7698 Y11.0161
N4685 X0.7606 Y11.0098
N4690 X0.7517 Y11.0031
N4695 X0.743 Y10.9962
N4700 X0.7345 Y10.9889
N4705 X0.7263 Y10.9812
N4710 X0.7184 Y10.9733
N4715 X0.7108 Y10.9651
N4720 X0.7035 Y10.9566
N4725 X0.6966 Y10.9479
N4730 X0.6899 Y10.939
N4735 X0.6837 Y10.9298
N4740 X0.6778 Y10.9205
N4745 X0.6722 Y10.911
N4750 X0.667 Y10.9013
N4755 X0.6622 Y10.8916
N4760 X0.6578 Y10.8817
N4765 X0.6538 Y10.8717
N4770 X0.6501 Y10.8617
N4775 X0.6468 Y10.8517
N4780 X0.6439 Y10.8416
N4785 X0.6414 Y10.8315
N4790 X0.6392 Y10.8214
N4795 X0.6374 Y10.8114
N4800 X0.636 Y10.8015
N4805 X0.635 Y10.7957 Z1.3839
N4810 X0.6336 Y10.79 Z1.3849
N4815 X0.6319 Y10.7844 Z1.3867
N4820 X0.6299 Y10.779 Z1.3888
N4825 X0.6276 Y10.7737 Z1.3917
N4830 X0.6249 Y10.7686 Z1.395
N4835 X0.622 Y10.7637 Z1.3985
N4840 X0.6186 Y10.7589 Z1.4023
N4845 X0.6154 Y10.7541 Z1.406
N4850 X0.6128 Y10.7491 Z1.409
N4855 X0.6106 Y10.744 Z1.4117
N4860 X0.609 Y10.7388 Z1.4138
N4865 X0.608 Y10.7333 Z1.4154
N4870 X0.6074 Y10.7278 Z1.4165
N4875 Y10.7221 Z1.4172
N4880 X0.608 Y10.7162 Z1.4174
N4885 X0.6084 Y10.713
N4890 X0.6101 Y10.7025
N4895 X0.6123 Y10.6919 Z1.4175
N4900 X0.6147 Y10.6813 Z1.4174
N4905 X0.6176 Y10.6707
N4910 X0.6208 Y10.6601 Z1.4175
N4915 X0.6245 Y10.6495 Z1.4174
N4920 X0.6285 Y10.639
N4925 X0.6329 Y10.6285
N4930 X0.6376 Y10.6181 Z1.4175
N4935 X0.6428 Y10.6079 Z1.4174
N4940 X0.6483 Y10.5977
N4945 X0.6542 Y10.5878 Z1.4175
N4950 X0.6605 Y10.578
N4955 X0.6672 Y10.5683 Z1.4174
N4960 X0.6742 Y10.559
N4965 X0.6815 Y10.5498 Z1.4175
N4970 X0.6892 Y10.5409 Z1.4174
N4975 X0.6972 Y10.5322
N4980 X0.7055 Y10.5239
N4985 X0.7141 Y10.5158 Z1.4175
N4990 X0.723 Y10.5081 Z1.4174
N4995 X0.7321 Y10.5006
N5000 X0.7414 Y10.4936
N5005 X0.751 Y10.4868 Z1.4175
N5010 X0.7608 Y10.4805 Z1.4174
N5015 X0.7707 Y10.4745
N5020 X0.7808 Y10.4689
N5025 X0.791 Y10.4636 Z1.4175
N5030 X0.8014 Y10.4588 Z1.4174
N5035 X0.8118 Y10.4543
N5040 X0.8224 Y10.4502 Z1.4175
N5045 X0.8329 Y10.4465 Z1.4174
N5050 X0.8435 Y10.4432
N5055 X0.8541 Y10.4403
N5060 X0.8648 Y10.4377 Z1.4175
N5065 X0.8754 Y10.4355 Z1.4174
N5070 X0.8859 Y10.4337
N5075 X0.8964 Y10.4322 Z1.4175
N5080 X0.9068 Y10.4311 Z1.4174
N5085 X0.9171 Y10.4303
N5090 X0.9274 Y10.4298 Z1.4175
N5095 X3.6875 Y10.4297 Z1.4174
N5100 X3.7037 Y10.4301
N5105 X3.714 Y10.4307
N5110 X3.7244 Y10.4317 Z1.4175
N5115 X3.7348 Y10.4331 Z1.4174
N5120 X3.7454 Y10.4348 Z1.4175
N5125 X3.756 Y10.4368
N5130 X3.7666 Y10.4392 Z1.4174
N5135 X3.7772 Y10.442
N5140 X3.7878 Y10.4452 Z1.4175
N5145 X3.7984 Y10.4487 Z1.4174
N5150 X3.8089 Y10.4526
N5155 X3.8194 Y10.4569 Z1.4175
N5160 X3.8298 Y10.4616 Z1.4174
N5165 X3.8401 Y10.4667
N5170 X3.8502 Y10.4722
N5175 X3.8602 Y10.478 Z1.4175
N5180 X3.8701 Y10.4842 Z1.4174
N5185 X3.8797 Y10.4908
N5190 X3.8892 Y10.4977
N5195 X3.8984 Y10.505 Z1.4175
N5200 X3.9073 Y10.5126 Z1.4174
N5205 X3.916 Y10.5206
N5210 X3.9245 Y10.5288 Z1.4175
N5215 X3.9326 Y10.5373
N5220 X3.9404 Y10.5462 Z1.4174
N5225 X3.9479 Y10.5552
N5230 X3.955 Y10.5645 Z1.4175
N5235 X3.9618 Y10.5741
N5240 X3.9683 Y10.5838 Z1.4174
N5245 X3.9743 Y10.5937
N5250 X3.98 Y10.6038 Z1.4175
N5255 X3.9853 Y10.614 Z1.4174
N5260 X3.9903 Y10.6243
N5265 X3.9948 Y10.6347
N5270 X3.999 Y10.6452 Z1.4175
N5275 X4.0027 Y10.6558 Z1.4174
N5280 X4.0061 Y10.6664
N5285 X4.0091 Y10.677 Z1.4175
N5290 X4.0118 Y10.6876 Z1.4174
N5295 X4.014 Y10.6982
N5300 X4.016 Y10.7088 Z1.4175
N5305 X4.0175 Y10.7193 Z1.4174
N5310 X4.0187 Y10.7297
N5315 X4.0196 Y10.7401 Z1.4175
N5320 X4.0201 Y10.7503 Z1.4174
N5325 X4.0203 Y10.7605
N5330 X4.0202 Y10.7706 Z1.4175
N5335 X4.0198 Y10.7808 Z1.4174
N5340 X4.0191 Y10.7911
N5345 X4.018 Y10.8015 Z1.4175
N5350 X4.0166 Y10.812 Z1.4174
N5355 X4.0149 Y10.8225
N5360 X4.0127 Y10.8331 Z1.4175
N5365 X4.0103 Y10.8437 Z1.4174
N5370 X4.0074 Y10.8543
N5375 X4.0042 Y10.8649 Z1.4175
N5380 X4.0005 Y10.8755 Z1.4174
N5385 X3.9965 Y10.886
N5390 X3.9921 Y10.8965
N5395 X3.9874 Y10.9069 Z1.4175
N5400 X3.9822 Y10.9171 Z1.4174
N5405 X3.9767 Y10.9273
N5410 X3.9708 Y10.9372 Z1.4175
N5415 X3.9645 Y10.947
N5420 X3.9578 Y10.9567 Z1.4174
N5425 X3.9508 Y10.966
N5430 X3.9435 Y10.9752 Z1.4175
N5435 X3.9358 Y10.9841 Z1.4174
N5440 X3.9278 Y10.9928
N5445 X3.9195 Y11.0011
N5450 X3.9109 Y11.0092 Z1.4175
N5455 X3.902 Y11.0169 Z1.4174
N5460 X3.8929 Y11.0244
N5465 X3.8836 Y11.0314
N5470 X3.874 Y11.0382 Z1.4175
N5475 X3.8642 Y11.0445 Z1.4174
N5480 X3.8543 Y11.0505
N5485 X3.8442 Y11.0561
N5490 X3.834 Y11.0614 Z1.4175
N5495 X3.8236 Y11.0662 Z1.4174
N5500 X3.8132 Y11.0707
N5505 X3.8026 Y11.0748 Z1.4175
N5510 X3.7921 Y11.0785 Z1.4174
N5515 X3.7815 Y11.0818
N5520 X3.7709 Y11.0847
N5525 X3.7602 Y11.0873 Z1.4175
N5530 X3.7496 Y11.0895 Z1.4174
N5535 X3.7391 Y11.0913
N5540 X3.7286 Y11.0928 Z1.4175
N5545 X3.7182 Y11.0939 Z1.4174
N5550 X3.7079 Y11.0947
N5555 X3.6976 Y11.0952 Z1.4175
N5560 X3.6875 Y11.0953 Z1.4174
N5565 X0.9375
N5570 X0.9213 Y11.0949
N5575 X0.911 Y11.0943
N5580 X0.9006 Y11.0933 Z1.4175
N5585 X0.8902 Y11.0919 Z1.4174
N5590 X0.8796 Y11.0902 Z1.4175
N5595 X0.869 Y11.0882
N5600 X0.8584 Y11.0858 Z1.4174
N5605 X0.8478 Y11.083
N5610 X0.8372 Y11.0798 Z1.4175
N5615 X0.8266 Y11.0763 Z1.4174
N5620 X0.8161 Y11.0724
N5625 X0.8056 Y11.0681 Z1.4175
N5630 X0.7952 Y11.0634 Z1.4174
N5635 X0.7849 Y11.0583
N5640 X0.7748 Y11.0528
N5645 X0.7648 Y11.047 Z1.4175
N5650 X0.7549 Y11.0408 Z1.4174
N5655 X0.7453 Y11.0342
N5660 X0.7358 Y11.0273
N5665 X0.7266 Y11.02 Z1.4175
N5670 X0.7177 Y11.0124 Z1.4174
N5675 X0.709 Y11.0044
N5680 X0.7005 Y10.9962 Z1.4175
N5685 X0.6924 Y10.9877
N5690 X0.6846 Y10.9789 Z1.4174
N5695 X0.6771 Y10.9698
N5700 X0.67 Y10.9605 Z1.4175
N5705 X0.6632 Y10.951
N5710 X0.6567 Y10.9412 Z1.4174
N5715 X0.6507 Y10.9313
N5720 X0.645 Y10.9212 Z1.4175
N5725 X0.6397 Y10.911 Z1.4174
N5730 X0.6347 Y10.9007
N5735 X0.6302 Y10.8903
N5740 X0.626 Y10.8798 Z1.4175
N5745 X0.6223 Y10.8692 Z1.4174
N5750 X0.6189 Y10.8586
N5755 X0.6159 Y10.848 Z1.4175
N5760 X0.6132 Y10.8374 Z1.4174
N5765 X0.611 Y10.8268
N5770 X0.609 Y10.8162 Z1.4175
N5775 X0.6075 Y10.8057 Z1.4174
N5780 X0.6063 Y10.7953
N5785 X0.6054 Y10.7849 Z1.4175
N5790 X0.6049 Y10.7747 Z1.4174
N5795 X0.6047 Y10.7645
N5800 X0.6048 Y10.7544 Z1.4175
N5805 X0.6052 Y10.7442 Z1.4174
N5810 X0.6059 Y10.7339
N5815 X0.607 Y10.7235 Z1.4175
N5820 X0.608 Y10.7162 Z1.4174
N5825 X0.6085 Y10.7104 Z1.4177
N5830 X0.6086 Y10.7045 Z1.4186
N5835 X0.6083 Y10.6988 Z1.4198
N5840 X0.6075 Y10.6931 Z1.4217
N5845 X0.6062 Y10.6874 Z1.4239
N5850 X0.6045 Y10.6817 Z1.4265
N5855 X0.6024 Y10.6762 Z1.4297
N5860 X0.5997 Y10.6706 Z1.4332
N5865 X0.5972 Y10.6651 Z1.4365
N5870 X0.5953 Y10.6596 Z1.4391
N5875 X0.594 Y10.654 Z1.4413
N5880 X0.5934 Y10.6485 Z1.443
N5885 Y10.643 Z1.4442
N5890 X0.594 Y10.6375 Z1.4452
N5895 X0.5953 Y10.632 Z1.4459
N5900 X0.5972 Y10.6265 Z1.4461
N5905 X0.5997 Y10.6203
N5910 X0.6046 Y10.6093
N5915 X0.6098 Y10.5984
N5920 X0.6154 Y10.5876
N5925 X0.6214 Y10.577
N5930 X0.6278 Y10.5666
N5935 X0.6345 Y10.5563
N5940 X0.6416 Y10.5462
N5945 X0.6491 Y10.5363
N5950 X0.6569 Y10.5267
N5955 X0.665 Y10.5174
N5960 X0.6735 Y10.5083
N5965 X0.6823 Y10.4995
N5970 X0.6913 Y10.491
N5975 X0.7006 Y10.4828
N5980 X0.7102 Y10.475
N5985 X0.7201 Y10.4675
N5990 X0.7301 Y10.4603
N5995 X0.7404 Y10.4535
N6000 X0.7508 Y10.4471
N6005 X0.7614 Y10.4411
N6010 X0.7721 Y10.4354
N6015 X0.783 Y10.4301
N6020 X0.794 Y10.4253
N6025 X0.805 Y10.4208
N6030 X0.8162 Y10.4167
N6035 X0.8273 Y10.4129
N6040 X0.8385 Y10.4096
N6045 X0.8497 Y10.4067
N6050 X0.8609 Y10.4041
N6055 X0.872 Y10.4019
N6060 X0.8832 Y10.4
N6065 X0.8942 Y10.3986
N6070 X0.9052 Y10.3974
N6075 X0.9161 Y10.3966
N6080 X0.9268 Y10.3961
N6085 X3.6875 Y10.396
N6090 X3.7065 Y10.3965
N6095 X3.7173 Y10.3972
N6100 X3.7283 Y10.3983
N6105 X3.7393 Y10.3997
N6110 X3.7504 Y10.4014
N6115 X3.7616 Y10.4035
N6120 X3.7727 Y10.406
N6125 X3.7839 Y10.4089
N6130 X3.7951 Y10.4121
N6135 X3.8063 Y10.4158
N6140 X3.8174 Y10.4198
N6145 X3.8285 Y10.4242
N6150 X3.8395 Y10.429
N6155 X3.8504 Y10.4342
N6160 X3.8611 Y10.4397
N6165 X3.8718 Y10.4457
N6170 X3.8823 Y10.452
N6175 X3.8926 Y10.4587
N6180 X3.9027 Y10.4658
N6185 X3.9125 Y10.4732
N6190 X3.9222 Y10.481
N6195 X3.9316 Y10.4891
N6200 X3.9407 Y10.4975
N6205 X3.9495 Y10.5062
N6210 X3.9581 Y10.5153
N6215 X3.9663 Y10.5246
N6220 X3.9742 Y10.5341
N6225 X3.9817 Y10.5439
N6230 X3.9889 Y10.5539
N6235 X3.9957 Y10.5642
N6240 X4.0022 Y10.5746
N6245 X4.0083 Y10.5852
N6250 X4.014 Y10.5959
N6255 X4.0193 Y10.6068
N6260 X4.0242 Y10.6177
N6265 X4.0287 Y10.6288
N6270 X4.0329 Y10.6399
N6275 X4.0367 Y10.651
N6280 X4.04 Y10.6622
N6285 X4.043 Y10.6734
N6290 X4.0456 Y10.6846
N6295 X4.0479 Y10.6958
N6300 X4.0498 Y10.7069
N6305 X4.0513 Y10.7179
N6310 X4.0525 Y10.7289
N6315 X4.0533 Y10.7398
N6320 X4.0538 Y10.7506
N6325 X4.054 Y10.7613
N6330 X4.0539 Y10.7719
N6335 X4.0535 Y10.7827
N6340 X4.0527 Y10.7936
N6345 X4.0516 Y10.8045
N6350 X4.0501 Y10.8156
N6355 X4.0483 Y10.8267
N6360 X4.0462 Y10.8378
N6365 X4.0437 Y10.849
N6370 X4.0407 Y10.8602
N6375 X4.0375 Y10.8714
N6380 X4.0338 Y10.8826
N6385 X4.0297 Y10.8937
N6390 X4.0253 Y10.9047
N6395 X4.0204 Y10.9157
N6400 X4.0152 Y10.9266
N6405 X4.0096 Y10.9374
N6410 X4.0036 Y10.948
N6415 X3.9972 Y10.9584
N6420 X3.9905 Y10.9687
N6425 X3.9834 Y10.9788
N6430 X3.9759 Y10.9887
N6435 X3.9681 Y10.9983
N6440 X3.96 Y11.0076
N6445 X3.9515 Y11.0167
N6450 X3.9427 Y11.0255
N6455 X3.9337 Y11.034
N6460 X3.9244 Y11.0422
N6465 X3.9148 Y11.05
N6470 X3.9049 Y11.0575
N6475 X3.8949 Y11.0647
N6480 X3.8846 Y11.0715
N6485 X3.8742 Y11.0779
N6490 X3.8636 Y11.0839
N6495 X3.8529 Y11.0896
N6500 X3.842 Y11.0949
N6505 X3.831 Y11.0997
N6510 X3.82 Y11.1042
N6515 X3.8088 Y11.1083
N6520 X3.7977 Y11.1121
N6525 X3.7865 Y11.1154
N6530 X3.7753 Y11.1183
N6535 X3.7641 Y11.1209
N6540 X3.753 Y11.1231
N6545 X3.7418 Y11.125
N6550 X3.7308 Y11.1264
N6555 X3.7198 Y11.1276
N6560 X3.7089 Y11.1284
N6565 X3.6982 Y11.1289
N6570 X3.6875 Y11.129
N6575 X0.9375
N6580 X0.9185 Y11.1285
N6585 X0.9077 Y11.1278
N6590 X0.8967 Y11.1267
N6595 X0.8857 Y11.1253
N6600 X0.8746 Y11.1236
N6605 X0.8634 Y11.1215
N6610 X0.8523 Y11.119
N6615 X0.8411 Y11.1161
N6620 X0.8299 Y11.1129
N6625 X0.8187 Y11.1092
N6630 X0.8076 Y11.1052
N6635 X0.7965 Y11.1008
N6640 X0.7855 Y11.096
N6645 X0.7746 Y11.0908
N6650 X0.7639 Y11.0853
N6655 X0.7532 Y11.0793
N6660 X0.7427 Y11.073
N6665 X0.7324 Y11.0663
N6670 X0.7223 Y11.0592
N6675 X0.7125 Y11.0518
N6680 X0.7028 Y11.044
N6685 X0.6934 Y11.0359
N6690 X0.6843 Y11.0275
N6695 X0.6755 Y11.0188
N6700 X0.6669 Y11.0097
N6705 X0.6587 Y11.0004
N6710 X0.6508 Y10.9909
N6715 X0.6433 Y10.9811
N6720 X0.6361 Y10.9711
N6725 X0.6293 Y10.9608
N6730 X0.6228 Y10.9504
N6735 X0.6167 Y10.9398
N6740 X0.611 Y10.9291
N6745 X0.6057 Y10.9182
N6750 X0.6008 Y10.9073
N6755 X0.5963 Y10.8962
N6760 X0.5921 Y10.8851
N6765 X0.5883 Y10.874
N6770 X0.585 Y10.8628
N6775 X0.582 Y10.8516
N6780 X0.5794 Y10.8404
N6785 X0.5771 Y10.8292
N6790 X0.5752 Y10.8181
N6795 X0.5737 Y10.8071
N6800 X0.5725 Y10.7961
N6805 X0.5717 Y10.7852
N6810 X0.5712 Y10.7744
N6815 X0.571 Y10.7637
N6820 X0.5711 Y10.7531
N6825 X0.5715 Y10.7423
N6830 X0.5723 Y10.7314
N6835 X0.5734 Y10.7205
N6840 X0.5749 Y10.7094
N6845 X0.5767 Y10.6983
N6850 X0.5788 Y10.6872
N6855 X0.5813 Y10.676
N6860 X0.5843 Y10.6648
N6865 X0.5875 Y10.6536
N6870 X0.5912 Y10.6424
N6875 X0.5953 Y10.6313
N6880 X0.5972 Y10.6265
N6885 X0.5992 Y10.6209 Z1.4463
N6890 X0.6006 Y10.6153 Z1.4468
N6895 X0.6015 Y10.6095 Z1.4479
N6900 X0.6019 Y10.6037 Z1.4495
N6905 X0.6017 Y10.5978 Z1.4514
N6910 X0.6011 Y10.5917 Z1.4536
N6915 X0.5999 Y10.5856 Z1.456
N6920 X0.5982 Y10.5794 Z1.4587
N6925 X0.5965 Y10.5732 Z1.4613
N6930 X0.5956 Y10.5672 Z1.4636
N6935 X0.5952 Y10.5613 Z1.4654
N6940 X0.5956 Y10.5556 Z1.4669
N6945 X0.5966 Y10.5501 Z1.4679
N6950 X0.5983 Y10.5448 Z1.4686
N6955 X0.6006 Y10.5396 Z1.4691
N6960 X0.6036 Y10.5346 Z1.4692
N6965 X0.6065 Y10.5304
N6970 X0.6141 Y10.5198
N6975 X0.6221 Y10.5095
N6980 X0.6304 Y10.4995
N6985 X0.6391 Y10.4897
N6990 X0.6481 Y10.4802
N6995 X0.6573 Y10.471
N7000 X0.6669 Y10.4621
N7005 X0.6768 Y10.4535
N7010 X0.6869 Y10.4453
N7015 X0.6972 Y10.4374
N7020 X0.7078 Y10.4298
N7025 X0.7185 Y10.4226
N7030 X0.7295 Y10.4158
N7035 X0.7406 Y10.4094
N7040 X0.7519 Y10.4033
N7045 X0.7633 Y10.3977
N7050 X0.7748 Y10.3924
N7055 X0.7864 Y10.3875
N7060 X0.7981 Y10.383
N7065 X0.8098 Y10.3789
N7070 X0.8216 Y10.3752
N7075 X0.8334 Y10.3718
N7080 X0.8452 Y10.3689
N7085 X0.8569 Y10.3663
N7090 X0.8687 Y10.3641
N7095 X0.8803 Y10.3623
N7100 X0.892 Y10.3608
N7105 X0.9035 Y10.3596
N7110 X0.9149 Y10.3588
N7115 X0.9263 Y10.3584
N7120 X3.6875 Y10.3582
N7125 X3.7038 Y10.3585
N7130 X3.7152 Y10.3591
N7135 X3.7267 Y10.3601
N7140 X3.7383 Y10.3614
N7145 X3.7499 Y10.363
N7150 X3.7616 Y10.3651
N7155 X3.7734 Y10.3674
N7160 X3.7852 Y10.3702
N7165 X3.7969 Y10.3733
N7170 X3.8087 Y10.3768
N7175 X3.8205 Y10.3807
N7180 X3.8322 Y10.385
N7185 X3.8438 Y10.3896
N7190 X3.8554 Y10.3947
N7195 X3.8669 Y10.4002
N7200 X3.8782 Y10.406
N7205 X3.8894 Y10.4122
N7210 X3.9005 Y10.4188
N7215 X3.9114 Y10.4258
N7220 X3.922 Y10.4332
N7225 X3.9325 Y10.4409
N7230 X3.9427 Y10.449
N7235 X3.9527 Y10.4574
N7240 X3.9625 Y10.4661
N7245 X3.9719 Y10.4751
N7250 X3.981 Y10.4845
N7255 X3.9899 Y10.4941
N7260 X3.9984 Y10.504
N7265 X4.0066 Y10.5142
N7270 X4.0144 Y10.5246
N7275 X4.0218 Y10.5352
N7280 X4.0289 Y10.546
N7285 X4.0357 Y10.557
N7290 X4.042 Y10.5682
N7295 X4.048 Y10.5795
N7300 X4.0536 Y10.5909
N7305 X4.0588 Y10.6024
N7310 X4.0636 Y10.6141
N7315 X4.068 Y10.6257
N7320 X4.072 Y10.6375
N7325 X4.0756 Y10.6493
N7330 X4.0789 Y10.661
N7335 X4.0817 Y10.6728
N7340 X4.0842 Y10.6846
N7345 X4.0863 Y10.6963
N7350 X4.0881 Y10.708
N7355 X4.0895 Y10.7196
N7360 X4.0906 Y10.7311
N7365 X4.0913 Y10.7425
N7370 X4.0917 Y10.7538
N7375 X4.0918 Y10.765
N7380 X4.0916 Y10.7763
N7385 X4.091 Y10.7876
N7390 X4.0901 Y10.7991
N7395 X4.0889 Y10.8107
N7400 X4.0874 Y10.8223
N7405 X4.0854 Y10.834
N7410 X4.0831 Y10.8457
N7415 X4.0805 Y10.8575
N7420 X4.0774 Y10.8693
N7425 X4.074 Y10.8811
N7430 X4.0702 Y10.8928
N7435 X4.066 Y10.9045
N7440 X4.0614 Y10.9162
N7445 X4.0565 Y10.9278
N7450 X4.0511 Y10.9393
N7455 X4.0453 Y10.9507
N7460 X4.0392 Y10.9619
N7465 X4.0327 Y10.973
N7470 X4.0258 Y10.9839
N7475 X4.0185 Y10.9946
N7480 X4.0109 Y11.0052
N7485 X4.0029 Y11.0154
N7490 X3.9946 Y11.0255
N7495 X3.9859 Y11.0353
N7500 X3.9769 Y11.0448
N7505 X3.9677 Y11.054
N7510 X3.9581 Y11.0629
N7515 X3.9482 Y11.0715
N7520 X3.9381 Y11.0797
N7525 X3.9278 Y11.0876
N7530 X3.9172 Y11.0952
N7535 X3.9065 Y11.1024
N7540 X3.8955 Y11.1092
N7545 X3.8844 Y11.1156
N7550 X3.8731 Y11.1217
N7555 X3.8617 Y11.1273
N7560 X3.8502 Y11.1326
N7565 X3.8386 Y11.1375
N7570 X3.8269 Y11.142
N7575 X3.8152 Y11.1461
N7580 X3.8034 Y11.1498
N7585 X3.7916 Y11.1532
N7590 X3.7798 Y11.1561
N7595 X3.7681 Y11.1587
N7600 X3.7563 Y11.1609
N7605 X3.7447 Y11.1627
N7610 X3.733 Y11.1642
N7615 X3.7215 Y11.1654
N7620 X3.7101 Y11.1662
N7625 X3.6987 Y11.1666
N7630 X3.6875 Y11.1668
N7635 X0.9375
N7640 X0.9212 Y11.1665
N7645 X0.9098 Y11.1658
N7650 X0.8983 Y11.1649
N7655 X0.8867 Y11.1636
N7660 X0.8751 Y11.162
N7665 X0.8634 Y11.1599
N7670 X0.8516 Y11.1576
N7675 X0.8398 Y11.1548
N7680 X0.8281 Y11.1517
N7685 X0.8163 Y11.1482
N7690 X0.8045 Y11.1443
N7695 X0.7928 Y11.14
N7700 X0.7812 Y11.1354
N7705 X0.7696 Y11.1303
N7710 X0.7581 Y11.1248
N7715 X0.7468 Y11.119
N7720 X0.7356 Y11.1128
N7725 X0.7245 Y11.1062
N7730 X0.7136 Y11.0992
N7735 X0.703 Y11.0918
N7740 X0.6925 Y11.0841
N7745 X0.6823 Y11.076
N7750 X0.6723 Y11.0676
N7755 X0.6625 Y11.0589
N7760 X0.6531 Y11.0499
N7765 X0.644 Y11.0405
N7770 X0.6351 Y11.0309
N7775 X0.6266 Y11.021
N7780 X0.6184 Y11.0108
N7785 X0.6106 Y11.0004
N7790 X0.6032 Y10.9898
N7795 X0.5961 Y10.979
N7800 X0.5893 Y10.968
N7805 X0.583 Y10.9568
N7810 X0.577 Y10.9455
N7815 X0.5714 Y10.9341
N7820 X0.5662 Y10.9226
N7825 X0.5614 Y10.9109
N7830 X0.557 Y10.8992
N7835 X0.553 Y10.8875
N7840 X0.5494 Y10.8757
N7845 X0.5461 Y10.864
N7850 X0.5433 Y10.8522
N7855 X0.5408 Y10.8404
N7860 X0.5387 Y10.8287
N7865 X0.5369 Y10.817
N7870 X0.5355 Y10.8054
N7875 X0.5344 Y10.7939
N7880 X0.5337 Y10.7825
N7885 X0.5333 Y10.7712
N7890 X0.5332 Y10.76
N7895 X0.5334 Y10.7487
N7900 X0.534 Y10.7374
N7905 X0.5349 Y10.7259
N7910 X0.5361 Y10.7143
N7915 X0.5376 Y10.7027
N7920 X0.5396 Y10.691
N7925 X0.5419 Y10.6793
N7930 X0.5445 Y10.6675
N7935 X0.5476 Y10.6557
N7940 X0.551 Y10.6439
N7945 X0.5548 Y10.6322
N7950 X0.559 Y10.6205
N7955 X0.5636 Y10.6088
N7960 X0.5685 Y10.5972
N7965 X0.5739 Y10.5857
N7970 X0.5797 Y10.5743
N7975 X0.5858 Y10.5631
N7980 X0.5923 Y10.552
N7985 X0.5992 Y10.5411
N7990 X0.6036 Y10.5346
N7995 X0.6067 Y10.5295 Z1.4694
N8000 X0.6093 Y10.5242 Z1.4698
N8005 X0.6113 Y10.5187 Z1.4706
N8010 X0.613 Y10.513 Z1.4716
N8015 X0.6141 Y10.5071 Z1.473
N8020 X0.6146 Y10.5009 Z1.4746
N8025 X0.6147 Y10.4946 Z1.4765
N8030 X0.614 Y10.4878 Z1.4786
N8035 X0.6134 Y10.4811 Z1.4804
N8040 Y10.4746 Z1.482
N8045 X0.614 Y10.4686 Z1.4833
N8050 X0.6153 Y10.4628 Z1.4844
N8055 X0.6172 Y10.4573 Z1.4851
N8060 X0.6199 Y10.4523 Z1.4857
N8065 X0.6232 Y10.4476 Z1.4861
N8070 X0.6271 Y10.4433 Z1.4862
N8075 X0.6313 Y10.4392
N8080 X0.6414 Y10.4299
N8085 X0.6518 Y10.421
N8090 X0.6624 Y10.4124
N8095 X0.6733 Y10.4041
N8100 X0.6844 Y10.3962
N8105 X0.6957 Y10.3886
N8110 X0.7072 Y10.3814
N8115 X0.7188 Y10.3746
N8120 X0.7306 Y10.3682
N8125 X0.7426 Y10.3622
N8130 X0.7546 Y10.3565
N8135 X0.7668 Y10.3513
N8140 X0.779 Y10.3464
N8145 X0.7913 Y10.3419
N8150 X0.8036 Y10.3378
N8155 X0.816 Y10.3341
N8160 X0.8283 Y10.3308
N8165 X0.8407 Y10.3279
N8170 X0.853 Y10.3253
N8175 X0.8653 Y10.3231
N8180 X0.8776 Y10.3213
N8185 X0.8897 Y10.3198
N8190 X0.9018 Y10.3187
N8195 X0.9138 Y10.3179
N8200 X0.9257 Y10.3174
N8205 X3.6875 Y10.3172
N8210 X3.7055 Y10.3176
N8215 X3.7175 Y10.3182
N8220 X3.7295 Y10.3192
N8225 X3.7417 Y10.3205
N8230 X3.7539 Y10.3222
N8235 X3.7661 Y10.3242
N8240 X3.7785 Y10.3266
N8245 X3.7908 Y10.3294
N8250 X3.8032 Y10.3325
N8255 X3.8155 Y10.336
N8260 X3.8279 Y10.3399
N8265 X3.8402 Y10.3442
N8270 X3.8525 Y10.3489
N8275 X3.8647 Y10.354
N8280 X3.8768 Y10.3595
N8285 X3.8887 Y10.3653
N8290 X3.9006 Y10.3715
N8295 X3.9123 Y10.3782
N8300 X3.9239 Y10.3852
N8305 X3.9353 Y10.3926
N8310 X3.9465 Y10.4003
N8315 X3.9575 Y10.4084
N8320 X3.9682 Y10.4169
N8325 X3.9787 Y10.4257
N8330 X3.9889 Y10.4348
N8335 X3.9989 Y10.4442
N8340 X4.0086 Y10.454
N8345 X4.0179 Y10.464
N8350 X4.0269 Y10.4743
N8355 X4.0356 Y10.4849
N8360 X4.044 Y10.4957
N8365 X4.052 Y10.5067
N8370 X4.0596 Y10.518
N8375 X4.0669 Y10.5294
N8380 X4.0738 Y10.5411
N8385 X4.0803 Y10.5528
N8390 X4.0864 Y10.5647
N8395 X4.0922 Y10.5768
N8400 X4.0975 Y10.5889
N8405 X4.1025 Y10.6011
N8410 X4.1071 Y10.6134
N8415 X4.1112 Y10.6257
N8420 X4.115 Y10.6381
N8425 X4.1184 Y10.6504
N8430 X4.1215 Y10.6628
N8435 X4.1241 Y10.6751
N8440 X4.1264 Y10.6874
N8445 X4.1283 Y10.6997
N8450 X4.1299 Y10.7119
N8455 X4.1311 Y10.724
N8460 X4.132 Y10.736
N8465 X4.1325 Y10.7479
N8470 X4.1328 Y10.7597
N8475 X4.1327 Y10.7715
N8480 X4.1323 Y10.7833
N8485 X4.1316 Y10.7953
N8490 X4.1305 Y10.8074
N8495 X4.1291 Y10.8195
N8500 X4.1273 Y10.8318
N8505 X4.1252 Y10.8441
N8510 X4.1228 Y10.8564
N8515 X4.1199 Y10.8687
N8520 X4.1167 Y10.8811
N8525 X4.1131 Y10.8935
N8530 X4.1091 Y10.9058
N8535 X4.1047 Y10.9181
N8540 X4.0999 Y10.9303
N8545 X4.0948 Y10.9425
N8550 X4.0892 Y10.9546
N8555 X4.0833 Y10.9666
N8560 X4.0769 Y10.9784
N8565 X4.0702 Y10.9901
N8570 X4.0631 Y11.0016
N8575 X4.0556 Y11.013
N8580 X4.0478 Y11.0241
N8585 X4.0396 Y11.035
N8590 X4.0311 Y11.0457
N8595 X4.0222 Y11.0562
N8600 X4.013 Y11.0663
N8605 X4.0035 Y11.0762
N8610 X3.9937 Y11.0858
N8615 X3.9836 Y11.0951
N8620 X3.9732 Y11.104
N8625 X3.9626 Y11.1126
N8630 X3.9517 Y11.1209
N8635 X3.9406 Y11.1288
N8640 X3.9293 Y11.1364
N8645 X3.9178 Y11.1436
N8650 X3.9062 Y11.1504
N8655 X3.8944 Y11.1568
N8660 X3.8824 Y11.1628
N8665 X3.8704 Y11.1685
N8670 X3.8582 Y11.1737
N8675 X3.846 Y11.1786
N8680 X3.8337 Y11.1831
N8685 X3.8214 Y11.1872
N8690 X3.809 Y11.1909
N8695 X3.7967 Y11.1942
N8700 X3.7843 Y11.1971
N8705 X3.772 Y11.1997
N8710 X3.7597 Y11.2019
N8715 X3.7474 Y11.2037
N8720 X3.7353 Y11.2052
N8725 X3.7232 Y11.2063
N8730 X3.7112 Y11.2071
N8735 X3.6993 Y11.2076
N8740 X3.6875 Y11.2078
N8745 X0.9375
N8750 X0.9195 Y11.2074
N8755 X0.9075 Y11.2068
N8760 X0.8955 Y11.2058
N8765 X0.8833 Y11.2045
N8770 X0.8711 Y11.2028
N8775 X0.8589 Y11.2008
N8780 X0.8465 Y11.1984
N8785 X0.8342 Y11.1956
N8790 X0.8218 Y11.1925
N8795 X0.8095 Y11.189
N8800 X0.7971 Y11.1851
N8805 X0.7848 Y11.1808
N8810 X0.7725 Y11.1761
N8815 X0.7603 Y11.171
N8820 X0.7482 Y11.1655
N8825 X0.7363 Y11.1597
N8830 X0.7244 Y11.1535
N8835 X0.7127 Y11.1468
N8840 X0.7011 Y11.1398
N8845 X0.6897 Y11.1324
N8850 X0.6785 Y11.1247
N8855 X0.6675 Y11.1166
N8860 X0.6568 Y11.1081
N8865 X0.6463 Y11.0993
N8870 X0.6361 Y11.0902
N8875 X0.6261 Y11.0808
N8880 X0.6164 Y11.071
N8885 X0.6071 Y11.061
N8890 X0.5981 Y11.0507
N8895 X0.5894 Y11.0401
N8900 X0.581 Y11.0293
N8905 X0.573 Y11.0183
N8910 X0.5654 Y11.007
N8915 X0.5581 Y10.9956
N8920 X0.5512 Y10.9839
N8925 X0.5447 Y10.9722
N8930 X0.5386 Y10.9603
N8935 X0.5328 Y10.9482
N8940 X0.5275 Y10.9361
N8945 X0.5225 Y10.9239
N8950 X0.5179 Y10.9116
N8955 X0.5138 Y10.8993
N8960 X0.51 Y10.8869
N8965 X0.5066 Y10.8746
N8970 X0.5035 Y10.8622
N8975 X0.5009 Y10.8499
N8980 X0.4986 Y10.8376
N8985 X0.4967 Y10.8253
N8990 X0.4951 Y10.8131
N8995 X0.4939 Y10.801
N9000 X0.493 Y10.789
N9005 X0.4925 Y10.7771
N9010 X0.4922 Y10.7653
N9015 X0.4923 Y10.7535
N9020 X0.4927 Y10.7417
N9025 X0.4934 Y10.7297
N9030 X0.4945 Y10.7176
N9035 X0.4959 Y10.7055
N9040 X0.4977 Y10.6932
N9045 X0.4998 Y10.6809
N9050 X0.5022 Y10.6686
N9055 X0.5051 Y10.6563
N9060 X0.5083 Y10.6439
N9065 X0.5119 Y10.6315
N9070 X0.5159 Y10.6192
N9075 X0.5203 Y10.6069
N9080 X0.5251 Y10.5947
N9085 X0.5302 Y10.5825
N9090 X0.5358 Y10.5704
N9095 X0.5417 Y10.5584
N9100 X0.5481 Y10.5466
N9105 X0.5548 Y10.5349
N9110 X0.5619 Y10.5234
N9115 X0.5694 Y10.512
N9120 X0.5772 Y10.5009
N9125 X0.5854 Y10.49
N9130 X0.5939 Y10.4793
N9135 X0.6028 Y10.4688
N9140 X0.612 Y10.4587
N9145 X0.6215 Y10.4488
N9150 X0.6271 Y10.4433
N9155 X0.6312 Y10.4389 Z1.4863
N9160 X0.6347 Y10.4342 Z1.4866
N9165 X0.6377 Y10.4291 Z1.4872
N9170 X0.6402 Y10.4237 Z1.4879
N9175 X0.6422 Y10.4179 Z1.4888
N9180 X0.6437 Y10.4117 Z1.4898
N9185 X0.6447 Y10.4052 Z1.4909
N9190 X0.6452 Y10.3983 Z1.4921
N9195 X0.6458 Y10.3915 Z1.4934
N9200 X0.6469 Y10.3851 Z1.4944
N9205 X0.6486 Y10.3792 Z1.4951
N9210 X0.6509 Y10.3738 Z1.4956
N9215 X0.6538 Y10.3688 Z1.4959
N9220 X0.6573 Y10.3643 Z1.4962
N9225 X0.6614 Y10.3603 Z1.4964
N9230 X0.666 Y10.3567 Z1.4965
N9235 X0.6722 Y10.3526
N9240 X0.6842 Y10.3451
N9245 X0.6964 Y10.3379
N9250 X0.7087 Y10.3312
N9255 X0.7211 Y10.3248
N9260 X0.7337 Y10.3188
N9265 X0.7464 Y10.3132
N9270 X0.7591 Y10.308
N9275 X0.772 Y10.3032
N9280 X0.7848 Y10.2987
N9285 X0.7977 Y10.2947
N9290 X0.8106 Y10.291
N9295 X0.8236 Y10.2877
N9300 X0.8365 Y10.2848
N9305 X0.8493 Y10.2823
N9310 X0.8622 Y10.2801
N9315 X0.8749 Y10.2783
N9320 X0.8876 Y10.2768
N9325 X0.9003 Y10.2757
N9330 X0.9128 Y10.2749
N9335 X0.9252 Y10.2744
N9340 X3.6875 Y10.2743
N9345 X3.7104 Y10.2748
N9350 X3.7229 Y10.2755
N9355 X3.7355 Y10.2766
N9360 X3.7482 Y10.278
N9365 X3.7609 Y10.2798
N9370 X3.7738 Y10.2819
N9375 X3.7866 Y10.2844
N9380 X3.7995 Y10.2873
N9385 X3.8124 Y10.2905
N9390 X3.8254 Y10.2941
N9395 X3.8383 Y10.2981
N9400 X3.8511 Y10.3025
N9405 X3.864 Y10.3073
N9410 X3.8767 Y10.3124
N9415 X3.8894 Y10.318
N9420 X3.902 Y10.3239
N9425 X3.9145 Y10.3302
N9430 X3.9268 Y10.3369
N9435 X3.939 Y10.344
N9440 X3.951 Y10.3515
N9445 X3.9628 Y10.3593
N9450 X3.9745 Y10.3675
N9455 X3.9859 Y10.376
N9460 X3.9971 Y10.3849
N9465 X4.008 Y10.3942
N9470 X4.0187 Y10.4037
N9475 X4.0291 Y10.4136
N9480 X4.0392 Y10.4238
N9485 X4.0489 Y10.4343
N9490 X4.0584 Y10.445
N9495 X4.0676 Y10.456
N9500 X4.0764 Y10.4673
N9505 X4.0848 Y10.4787
N9510 X4.0929 Y10.4904
N9515 X4.1006 Y10.5023
N9520 X4.108 Y10.5144
N9525 X4.115 Y10.5266
N9530 X4.1216 Y10.539
N9535 X4.1278 Y10.5515
N9540 X4.1336 Y10.5641
N9545 X4.1391 Y10.5768
N9550 X4.1441 Y10.5896
N9555 X4.1488 Y10.6024
N9560 X4.153 Y10.6153
N9565 X4.1569 Y10.6282
N9570 X4.1604 Y10.6412
N9575 X4.1636 Y10.6541
N9580 X4.1663 Y10.667
N9585 X4.1687 Y10.6798
N9590 X4.1707 Y10.6926
N9595 X4.1724 Y10.7054
N9600 X4.1737 Y10.718
N9605 X4.1747 Y10.7306
N9610 X4.1754 Y10.7431
N9615 X4.1757 Y10.7555
N9620 Y10.7677
N9625 X4.1754 Y10.7801
N9630 X4.1748 Y10.7925
N9635 X4.1739 Y10.8051
N9640 X4.1726 Y10.8178
N9645 X4.171 Y10.8305
N9650 X4.169 Y10.8433
N9655 X4.1667 Y10.8561
N9660 X4.164 Y10.869
N9665 X4.1609 Y10.8819
N9670 X4.1575 Y10.8949
N9675 X4.1536 Y10.9078
N9680 X4.1494 Y10.9207
N9685 X4.1448 Y10.9335
N9690 X4.1398 Y10.9463
N9695 X4.1344 Y10.959
N9700 X4.1287 Y10.9716
N9705 X4.1225 Y10.9842
N9710 X4.116 Y10.9966
N9715 X4.1091 Y11.0088
N9720 X4.1018 Y11.0209
N9725 X4.0941 Y11.0328
N9730 X4.086 Y11.0445
N9735 X4.0776 Y11.0561
N9740 X4.0689 Y11.0673
N9745 X4.0598 Y11.0784
N9750 X4.0504 Y11.0892
N9755 X4.0406 Y11.0997
N9760 X4.0306 Y11.1099
N9765 X4.0202 Y11.1198
N9770 X4.0096 Y11.1294
N9775 X3.9987 Y11.1387
N9780 X3.9876 Y11.1477
N9785 X3.9762 Y11.1563
N9790 X3.9646 Y11.1645
N9795 X3.9528 Y11.1724
N9800 X3.9408 Y11.1799
N9805 X3.9286 Y11.1871
N9810 X3.9163 Y11.1938
N9815 X3.9039 Y11.2002
N9820 X3.8913 Y11.2062
N9825 X3.8786 Y11.2118
N9830 X3.8659 Y11.217
N9835 X3.853 Y11.2218
N9840 X3.8402 Y11.2263
N9845 X3.8273 Y11.2303
N9850 X3.8144 Y11.234
N9855 X3.8014 Y11.2373
N9860 X3.7885 Y11.2402
N9865 X3.7757 Y11.2427
N9870 X3.7628 Y11.2449
N9875 X3.7501 Y11.2467
N9880 X3.7374 Y11.2482
N9885 X3.7247 Y11.2493
N9890 X3.7122 Y11.2501
N9895 X3.6998 Y11.2506
N9900 X3.6875 Y11.2507
N9905 X0.9375
N9910 X0.9146 Y11.2502
N9915 X0.9021 Y11.2495
N9920 X0.8895 Y11.2484
N9925 X0.8768 Y11.247
N9930 X0.8641 Y11.2452
N9935 X0.8512 Y11.2431
N9940 X0.8384 Y11.2406
N9945 X0.8255 Y11.2377
N9950 X0.8126 Y11.2345
N9955 X0.7996 Y11.2309
N9960 X0.7867 Y11.2269
N9965 X0.7739 Y11.2225
N9970 X0.761 Y11.2177
N9975 X0.7483 Y11.2126
N9980 X0.7356 Y11.207
N9985 X0.723 Y11.2011
N9990 X0.7105 Y11.1948
N9995 X0.6982 Y11.1881
N10000 X0.686 Y11.181
N10005 X0.674 Y11.1735
N10010 X0.6622 Y11.1657
N10015 X0.6505 Y11.1575
N10020 X0.6391 Y11.149
N10025 X0.6279 Y11.1401
N10030 X0.617 Y11.1308
N10035 X0.6063 Y11.1213
N10040 X0.5959 Y11.1114
N10045 X0.5858 Y11.1012
N10050 X0.5761 Y11.0907
N10055 X0.5666 Y11.08
N10060 X0.5574 Y11.069
N10065 X0.5486 Y11.0577
N10070 X0.5402 Y11.0463
N10075 X0.5321 Y11.0346
N10080 X0.5244 Y11.0227
N10085 X0.517 Y11.0106
N10090 X0.51 Y10.9984
N10095 X0.5034 Y10.986
N10100 X0.4972 Y10.9735
N10105 X0.4914 Y10.9609
N10110 X0.4859 Y10.9482
N10115 X0.4809 Y10.9354
N10120 X0.4762 Y10.9226
N10125 X0.472 Y10.9097
N10130 X0.4681 Y10.8968
N10135 X0.4646 Y10.8838
N10140 X0.4614 Y10.8709
N10145 X0.4587 Y10.858
N10150 X0.4563 Y10.8452
N10155 X0.4543 Y10.8324
N10160 X0.4526 Y10.8196
N10165 X0.4513 Y10.807
N10170 X0.4503 Y10.7944
N10175 X0.4496 Y10.7819
N10180 X0.4493 Y10.7695
N10185 Y10.7573
N10190 X0.4496 Y10.7449
N10195 X0.4502 Y10.7325
N10200 X0.4511 Y10.7199
N10205 X0.4524 Y10.7072
N10210 X0.454 Y10.6945
N10215 X0.456 Y10.6817
N10220 X0.4583 Y10.6689
N10225 X0.461 Y10.656
N10230 X0.4641 Y10.6431
N10235 X0.4675 Y10.6301
N10240 X0.4714 Y10.6172
N10245 X0.4756 Y10.6043
N10250 X0.4802 Y10.5915
N10255 X0.4852 Y10.5787
N10260 X0.4906 Y10.566
N10265 X0.4963 Y10.5534
N10270 X0.5025 Y10.5408
N10275 X0.509 Y10.5284
N10280 X0.5159 Y10.5162
N10285 X0.5232 Y10.5041
N10290 X0.5309 Y10.4922
N10295 X0.539 Y10.4805
N10300 X0.5474 Y10.4689
N10305 X0.5561 Y10.4577
N10310 X0.5652 Y10.4466
N10315 X0.5746 Y10.4358
N10320 X0.5844 Y10.4253
N10325 X0.5944 Y10.4151
N10330 X0.6048 Y10.4052
N10335 X0.6154 Y10.3956
N10340 X0.6263 Y10.3863
N10345 X0.6374 Y10.3773
N10350 X0.6488 Y10.3687
N10355 X0.6604 Y10.3605
N10360 X0.666 Y10.3567
N10365 X0.6708 Y10.3532
N10370 X0.6751 Y10.3492 Z1.4966
N10375 X0.6789 Y10.3447 Z1.4968
N10380 X0.6823 Y10.3397 Z1.4972
N10385 X0.6853 Y10.3343 Z1.4976
N10390 X0.6878 Y10.3284 Z1.4982
N10395 X0.6899 Y10.322 Z1.4987
N10400 X0.6915 Y10.3152 Z1.4991
N10405 X0.6932 Y10.3084 Z1.4993
N10410 X0.6953 Y10.3022 Z1.4995
N10415 X0.698 Y10.2966 Z1.4997
N10420 X0.7011 Y10.2916 Z1.4999
N10425 X0.7048 Y10.2871 Z1.5
N10430 X0.709 Y10.2832
N10435 X0.7137 Y10.2799
N10440 X0.7189 Y10.2772
N10445 X0.7255 Y10.2742
N10450 X0.7387 Y10.2686
N10455 X0.7521 Y10.2635
N10460 X0.7654 Y10.2587
N10465 X0.7788 Y10.2543
N10470 X0.7923 Y10.2503
N10475 X0.8057 Y10.2467
N10480 X0.8191 Y10.2435
N10485 X0.8325 Y10.2406
N10490 X0.8459 Y10.2381
N10495 X0.8592 Y10.2359
N10500 X0.8725 Y10.2341
N10505 X0.8857 Y10.2327
N10510 X0.8988 Y10.2316
N10515 X0.9118 Y10.2308
N10520 X0.9247 Y10.2303
N10525 X3.6875 Y10.2301
N10530 X3.7044 Y10.2304
N10535 X3.7173 Y10.231
N10540 X3.7303 Y10.2319
N10545 X3.7435 Y10.2331
N10550 X3.7567 Y10.2347
N10555 X3.77 Y10.2366
N10560 X3.7833 Y10.2388
N10565 X3.7967 Y10.2415
N10570 X3.8101 Y10.2445
N10575 X3.8236 Y10.2478
N10580 X3.837 Y10.2516
N10585 X3.8504 Y10.2557
N10590 X3.8638 Y10.2602
N10595 X3.8772 Y10.2651
N10600 X3.8905 Y10.2703
N10605 X3.9037 Y10.276
N10610 X3.9168 Y10.2821
N10615 X3.9298 Y10.2885
N10620 X3.9427 Y10.2953
N10625 X3.9554 Y10.3025
N10630 X3.968 Y10.3101
N10635 X3.9804 Y10.318
N10640 X3.9927 Y10.3263
N10645 X4.0047 Y10.335
N10650 X4.0165 Y10.344
N10655 X4.028 Y10.3533
N10660 X4.0393 Y10.363
N10665 X4.0504 Y10.373
N10670 X4.0612 Y10.3833
N10675 X4.0716 Y10.3939
N10680 X4.0818 Y10.4048
N10685 X4.0916 Y10.416
N10690 X4.1012 Y10.4274
N10695 X4.1104 Y10.4391
N10700 X4.1192 Y10.451
N10705 X4.1277 Y10.4631
N10710 X4.1358 Y10.4754
N10715 X4.1436 Y10.4879
N10720 X4.151 Y10.5006
N10725 X4.158 Y10.5134
N10730 X4.1646 Y10.5264
N10735 X4.1709 Y10.5394
N10740 X4.1767 Y10.5526
N10745 X4.1822 Y10.5659
N10750 X4.1873 Y10.5792
N10755 X4.192 Y10.5925
N10760 X4.1963 Y10.606
N10765 X4.2003 Y10.6194
N10770 X4.2038 Y10.6328
N10775 X4.207 Y10.6462
N10780 X4.2098 Y10.6597
N10785 X4.2123 Y10.673
N10790 X4.2144 Y10.6863
N10795 X4.2161 Y10.6996
N10800 X4.2175 Y10.7128
N10805 X4.2186 Y10.7259
N10810 X4.2193 Y10.7389
N10815 X4.2197 Y10.7517
N10820 X4.2199 Y10.7645
N10825 X4.2196 Y10.7773
N10830 X4.2191 Y10.7902
N10835 X4.2183 Y10.8033
N10840 X4.2171 Y10.8164
N10845 X4.2156 Y10.8296
N10850 X4.2138 Y10.8429
N10855 X4.2115 Y10.8562
N10860 X4.209 Y10.8696
N10865 X4.206 Y10.883
N10870 X4.2027 Y10.8964
N10875 X4.1991 Y10.9099
N10880 X4.195 Y10.9233
N10885 X4.1905 Y10.9367
N10890 X4.1857 Y10.9501
N10895 X4.1805 Y10.9634
N10900 X4.1749 Y10.9766
N10905 X4.1689 Y10.9897
N10910 X4.1626 Y11.0028
N10915 X4.1558 Y11.0157
N10920 X4.1487 Y11.0284
N10925 X4.1412 Y11.041
N10930 X4.1333 Y11.0535
N10935 X4.125 Y11.0657
N10940 X4.1164 Y11.0778
N10945 X4.1075 Y11.0896
N10950 X4.0982 Y11.1012
N10955 X4.0886 Y11.1126
N10960 X4.0786 Y11.1237
N10965 X4.0683 Y11.1345
N10970 X4.0578 Y11.145
N10975 X4.0469 Y11.1552
N10980 X4.0358 Y11.1651
N10985 X4.0244 Y11.1747
N10990 X4.0128 Y11.1839
N10995 X4.0009 Y11.1928
N11000 X3.9888 Y11.2014
N11005 X3.9765 Y11.2096
N11010 X3.9641 Y11.2174
N11015 X3.9514 Y11.2248
N11020 X3.9386 Y11.2319
N11025 X3.9257 Y11.2386
N11030 X3.9126 Y11.2449
N11035 X3.8995 Y11.2508
N11040 X3.8863 Y11.2564
N11045 X3.8729 Y11.2615
N11050 X3.8596 Y11.2663
N11055 X3.8462 Y11.2707
N11060 X3.8327 Y11.2747
N11065 X3.8193 Y11.2783
N11070 X3.8059 Y11.2815
N11075 X3.7925 Y11.2844
N11080 X3.7791 Y11.2869
N11085 X3.7658 Y11.2891
N11090 X3.7525 Y11.2909
N11095 X3.7393 Y11.2923
N11100 X3.7262 Y11.2934
N11105 X3.7132 Y11.2942
N11110 X3.7003 Y11.2947
N11115 X0.9375 Y11.2949
N11120 X0.9206 Y11.2946
N11125 X0.9077 Y11.294
N11130 X0.8947 Y11.2931
N11135 X0.8815 Y11.2919
N11140 X0.8683 Y11.2903
N11145 X0.855 Y11.2884
N11150 X0.8417 Y11.2862
N11155 X0.8283 Y11.2835
N11160 X0.8149 Y11.2805
N11165 X0.8014 Y11.2772
N11170 X0.788 Y11.2734
N11175 X0.7746 Y11.2693
N11180 X0.7612 Y11.2648
N11185 X0.7478 Y11.2599
N11190 X0.7345 Y11.2546
N11195 X0.7213 Y11.249
N11200 X0.7082 Y11.2429
N11205 X0.6952 Y11.2365
N11210 X0.6823 Y11.2297
N11215 X0.6696 Y11.2225
N11220 X0.657 Y11.2149
N11225 X0.6446 Y11.207
N11230 X0.6323 Y11.1987
N11235 X0.6203 Y11.19
N11240 X0.6085 Y11.181
N11245 X0.597 Y11.1717
N11250 X0.5857 Y11.162
N11255 X0.5746 Y11.152
N11260 X0.5638 Y11.1417
N11265 X0.5534 Y11.1311
N11270 X0.5432 Y11.1202
N11275 X0.5334 Y11.109
N11280 X0.5238 Y11.0976
N11285 X0.5146 Y11.0859
N11290 X0.5058 Y11.074
N11295 X0.4973 Y11.0619
N11300 X0.4892 Y11.0496
N11305 X0.4814 Y11.0371
N11310 X0.474 Y11.0244
N11315 X0.467 Y11.0116
N11320 X0.4604 Y10.9986
N11325 X0.4541 Y10.9856
N11330 X0.4483 Y10.9724
N11335 X0.4428 Y10.9591
N11340 X0.4377 Y10.9458
N11345 X0.433 Y10.9325
N11350 X0.4287 Y10.919
N11355 X0.4247 Y10.9056
N11360 X0.4212 Y10.8922
N11365 X0.418 Y10.8788
N11370 X0.4152 Y10.8653
N11375 X0.4127 Y10.852
N11380 X0.4106 Y10.8387
N11385 X0.4089 Y10.8254
N11390 X0.4075 Y10.8122
N11395 X0.4064 Y10.7991
N11400 X0.4057 Y10.7861
N11405 X0.4053 Y10.7733
N11410 X0.4051 Y10.7605
N11415 X0.4054 Y10.7477
N11420 X0.4059 Y10.7348
N11425 X0.4067 Y10.7217
N11430 X0.4079 Y10.7086
N11435 X0.4094 Y10.6954
N11440 X0.4112 Y10.6821
N11445 X0.4135 Y10.6688
N11450 X0.416 Y10.6554
N11455 X0.419 Y10.642
N11460 X0.4223 Y10.6286
N11465 X0.4259 Y10.6151
N11470 X0.43 Y10.6017
N11475 X0.4345 Y10.5883
N11480 X0.4393 Y10.5749
N11485 X0.4445 Y10.5616
N11490 X0.4501 Y10.5484
N11495 X0.4561 Y10.5353
N11500 X0.4624 Y10.5222
N11505 X0.4692 Y10.5093
N11510 X0.4763 Y10.4966
N11515 X0.4838 Y10.484
N11520 X0.4917 Y10.4715
N11525 X0.5 Y10.4593
N11530 X0.5086 Y10.4472
N11535 X0.5175 Y10.4354
N11540 X0.5268 Y10.4238
N11545 X0.5364 Y10.4124
N11550 X0.5464 Y10.4013
N11555 X0.5567 Y10.3905
N11560 X0.5672 Y10.38
N11565 X0.5781 Y10.3698
N11570 X0.5892 Y10.3599
N11575 X0.6006 Y10.3503
N11580 X0.6122 Y10.3411
N11585 X0.6241 Y10.3322
N11590 X0.6362 Y10.3236
N11595 X0.6485 Y10.3154
N11600 X0.6609 Y10.3076
N11605 X0.6736 Y10.3002
N11610 X0.6864 Y10.2931
N11615 X0.6993 Y10.2864
N11620 X0.7124 Y10.2801
N11625 X0.7189 Y10.2772
N11630 X0.724 Y10.2749 Z1.5006
N11635 X0.7288 Y10.2727 Z1.5025
N11640 X0.7331 Y10.2708 Z1.5055
N11645 X0.7367 Y10.2691 Z1.5094
N11650 X0.7394 Y10.2679 Z1.5142
N11655 X0.7411 Y10.2672 Z1.5194
N11660 X0.7417 Y10.2669 Z1.525
N11665 Z2.6
(WHEN USING FUSION 360 FOR PERSONAL USE, THE FEEDRATE OF)
(RAPID MOVES IS REDUCED TO MATCH THE FEEDRATE OF CUTTING)
(MOVES, WHICH CAN INCREASE MACHINING TIME. UNRESTRICTED RAPID)
(MOVES ARE AVAILABLE WITH A FUSION 360 SUBSCRIPTION.)
(FLOW PREVIEW1 6)
N11670 G0 X3.6942 Y9.7848
N11675 G1 Z2.6 F120.
N11680 Z1.3367
N11685 Z1.2033
N11690 X3.6943 Y9.7854 Z1.1977
N11695 X3.6949 Y9.7872 Z1.1925
N11700 X3.6957 Y9.7901 Z1.1877
N11705 X3.6968 Y9.7939 Z1.1838
N11710 X3.6981 Y9.7984 Z1.1808
N11715 X3.6996 Y9.8035 Z1.1789
N11720 X3.7011 Y9.8088 Z1.1783
N11725 X3.7026 Y9.8142
N11730 X3.703 Y9.8198
N11735 X3.702 Y9.8253
N11740 X3.6999 Y9.8305
N11745 X3.6966 Y9.8351
N11750 X3.6925 Y9.8388
N11755 X3.6876 Y9.8415
N11760 X3.6787 Y9.8452
N11765 X3.6698 Y9.8484
N11770 X3.6609 Y9.8514
N11775 X3.652 Y9.8539
N11780 X3.643 Y9.8562
N11785 X3.6341 Y9.858
N11790 X3.6252 Y9.8595
N11795 X3.6163 Y9.8607
N11800 X3.6076 Y9.8616
N11805 X3.5989 Y9.8621
N11810 X3.5903 Y9.8624
N11815 X3.5818 Y9.8623
N11820 X3.5732 Y9.862
N11825 X3.5645 Y9.8613
N11830 X3.5557 Y9.8604
N11835 X3.5468 Y9.8591
N11840 X3.5379 Y9.8574
N11845 X3.529 Y9.8555
N11850 X3.52 Y9.8531
N11855 X3.5111 Y9.8504
N11860 X3.5022 Y9.8474
N11865 X3.4933 Y9.844
N11870 X3.4845 Y9.8402
N11875 X3.4758 Y9.836
N11880 X3.4672 Y9.8315
N11885 X3.4587 Y9.8267
N11890 X3.4504 Y9.8214
N11895 X3.4423 Y9.8159
N11900 X3.4343 Y9.81
N11905 X3.4266 Y9.8037
N11910 X3.4192 Y9.7972
N11915 X3.412 Y9.7904
N11920 X3.405 Y9.7833
N11925 X3.3984 Y9.7759
N11930 X3.3921 Y9.7682
N11935 X3.3861 Y9.7604
N11940 X3.3804 Y9.7523
N11945 X3.375 Y9.7441
N11950 X3.3701 Y9.7357
N11955 X3.3654 Y9.7271
N11960 X3.3612 Y9.7184
N11965 X3.3573 Y9.7096
N11970 X3.3537 Y9.7008
N11975 X3.3505 Y9.6919
N11980 X3.3477 Y9.6829
N11985 X3.3453 Y9.674
N11990 X3.3432 Y9.665
N11995 X3.3414 Y9.6561
N12000 X3.34 Y9.6472
N12005 X3.3389 Y9.6384
N12010 X3.3382 Y9.6297
N12015 X3.3377 Y9.621
N12020 X3.3376 Y9.6125
N12025 Y8.7375
N12030 X3.3379 Y8.7261
N12035 X3.3384 Y8.7174
N12040 X3.3393 Y8.7086
N12045 X3.3405 Y8.6998
N12050 X3.342 Y8.6909
N12055 X3.3438 Y8.682
N12060 X3.3461 Y8.673
N12065 X3.3486 Y8.6641
N12070 X3.3516 Y8.6551
N12075 X3.3549 Y8.6462
N12080 X3.3585 Y8.6374
N12085 X3.3625 Y8.6287
N12090 X3.3669 Y8.62
N12095 X3.3717 Y8.6115
N12100 X3.3768 Y8.6031
N12105 X3.3822 Y8.595
N12110 X3.388 Y8.587
N12115 X3.3942 Y8.5792
N12120 X3.4006 Y8.5716
N12125 X3.4073 Y8.5643
N12130 X3.4144 Y8.5573
N12135 X3.4217 Y8.5506
N12140 X3.4292 Y8.5441
N12145 X3.437 Y8.538
N12150 X3.445 Y8.5322
N12155 X3.4532 Y8.5268
N12160 X3.4615 Y8.5217
N12165 X3.47 Y8.5169
N12170 X3.4787 Y8.5125
N12175 X3.4874 Y8.5085
N12180 X3.4963 Y8.5049
N12185 X3.5052 Y8.5016
N12190 X3.5141 Y8.4986
N12195 X3.523 Y8.4961
N12200 X3.532 Y8.4938
N12205 X3.5409 Y8.492
N12210 X3.5498 Y8.4905
N12215 X3.5587 Y8.4893
N12220 X3.5674 Y8.4884
N12225 X3.5761 Y8.4879
N12230 X3.5847 Y8.4876
N12235 X3.5932 Y8.4877
N12240 X3.6018 Y8.488
N12245 X3.6105 Y8.4887
N12250 X3.6193 Y8.4896
N12255 X3.6282 Y8.4909
N12260 X3.6371 Y8.4926
N12265 X3.646 Y8.4945
N12270 X3.655 Y8.4969
N12275 X3.6639 Y8.4996
N12280 X3.6728 Y8.5026
N12285 X3.6817 Y8.506
N12290 X3.6905 Y8.5098
N12295 X3.6992 Y8.514
N12300 X3.7078 Y8.5185
N12305 X3.7163 Y8.5233
N12310 X3.7246 Y8.5286
N12315 X3.7327 Y8.5341
N12320 X3.7407 Y8.54
N12325 X3.7484 Y8.5463
N12330 X3.7558 Y8.5528
N12335 X3.763 Y8.5596
N12340 X3.77 Y8.5667
N12345 X3.7766 Y8.5741
N12350 X3.7829 Y8.5818
N12355 X3.7889 Y8.5896
N12360 X3.7946 Y8.5977
N12365 X3.8 Y8.6059
N12370 X3.8049 Y8.6143
N12375 X3.8096 Y8.6229
N12380 X3.8138 Y8.6316
N12385 X3.8177 Y8.6404
N12390 X3.8213 Y8.6492
N12395 X3.8245 Y8.6581
N12400 X3.8273 Y8.6671
N12405 X3.8297 Y8.676
N12410 X3.8318 Y8.685
N12415 X3.8336 Y8.6939
N12420 X3.835 Y8.7028
N12425 X3.8361 Y8.7116
N12430 X3.8368 Y8.7203
N12435 X3.8373 Y8.729
N12440 X3.8374 Y8.7375
N12445 Y9.6125
N12450 X3.8371 Y9.6239
N12455 X3.8366 Y9.6326
N12460 X3.8357 Y9.6414
N12465 X3.8345 Y9.6502
N12470 X3.833 Y9.6591
N12475 X3.8312 Y9.668
N12480 X3.8289 Y9.677
N12485 X3.8264 Y9.6859
N12490 X3.8234 Y9.6949
N12495 X3.8201 Y9.7038
N12500 X3.8165 Y9.7126
N12505 X3.8125 Y9.7213
N12510 X3.8081 Y9.73
N12515 X3.8033 Y9.7385
N12520 X3.7982 Y9.7469
N12525 X3.7928 Y9.755
N12530 X3.787 Y9.763
N12535 X3.7808 Y9.7708
N12540 X3.7744 Y9.7784
N12545 X3.7677 Y9.7857
N12550 X3.7606 Y9.7927
N12555 X3.7533 Y9.7994
N12560 X3.7458 Y9.8059
N12565 X3.738 Y9.812
N12570 X3.73 Y9.8178
N12575 X3.7218 Y9.8232
N12580 X3.7135 Y9.8283
N12585 X3.705 Y9.8331
N12590 X3.6963 Y9.8375
N12595 X3.6876 Y9.8415
N12600 X3.6826 Y9.8436 Z1.1786
N12605 X3.6778 Y9.8455 Z1.1795
N12610 X3.6731 Y9.8474 Z1.181
N12615 X3.6684 Y9.8491 Z1.1832
N12620 X3.6639 Y9.8507 Z1.1859
N12625 X3.6595 Y9.8521 Z1.1893
N12630 X3.6552 Y9.8536 Z1.1933
N12635 X3.651 Y9.8549 Z1.1978
N12640 X3.6468 Y9.8562 Z1.2024
N12645 X3.6425 Y9.8575 Z1.2064
N12650 X3.638 Y9.8588 Z1.2098
N12655 X3.6334 Y9.86 Z1.2125
N12660 X3.6286 Y9.8613 Z1.2146
N12665 X3.6236 Y9.8621 Z1.2162
N12670 X3.6184 Y9.863 Z1.2171
N12675 X3.6131 Y9.8636 Z1.2174
N12680 X3.6063 Y9.8642
N12685 X3.5976 Y9.8647
N12690 X3.5889 Y9.8649
N12695 X3.5804 Y9.8648
N12700 X3.5717 Y9.8644
N12705 X3.5629 Y9.8637
N12710 X3.5541 Y9.8627
N12715 X3.5451 Y9.8613
N12720 X3.5362 Y9.8596
N12725 X3.5272 Y9.8576
N12730 X3.5182 Y9.8552
N12735 X3.5092 Y9.8524
N12740 X3.5002 Y9.8493
N12745 X3.4913 Y9.8458
N12750 X3.4824 Y9.842
N12755 X3.4737 Y9.8378
N12760 X3.465 Y9.8332
N12765 X3.4565 Y9.8283
N12770 X3.4482 Y9.823
N12775 X3.44 Y9.8173
N12780 X3.4321 Y9.8114
N12785 X3.4243 Y9.8051
N12790 X3.4169 Y9.7985
N12795 X3.4096 Y9.7916
N12800 X3.4027 Y9.7844
N12805 X3.396 Y9.7769
N12810 X3.3897 Y9.7692
N12815 X3.3836 Y9.7613
N12820 X3.378 Y9.7532
N12825 X3.3726 Y9.7449
N12830 X3.3676 Y9.7364
N12835 X3.363 Y9.7278
N12840 X3.3587 Y9.7191
N12845 X3.3548 Y9.7102
N12850 X3.3512 Y9.7013
N12855 X3.3481 Y9.6924
N12860 X3.3453 Y9.6834
N12865 X3.3428 Y9.6744
N12870 X3.3407 Y9.6654
N12875 X3.3389 Y9.6564
N12880 X3.3375 Y9.6474
N12885 X3.3364 Y9.6386
N12890 X3.3357 Y9.6298
N12895 X3.3352 Y9.6211
N12900 X3.3351 Y9.6125
N12905 Y8.7375
N12910 X3.3355 Y8.7232
N12915 X3.3362 Y8.7144
N12920 X3.3371 Y8.7056
N12925 X3.3384 Y8.6966
N12930 X3.3401 Y8.6877
N12935 X3.342 Y8.6787
N12940 X3.3444 Y8.6697
N12945 X3.3471 Y8.6607
N12950 X3.3501 Y8.6517
N12955 X3.3535 Y8.6428
N12960 X3.3573 Y8.6339
N12965 X3.3615 Y8.6251
N12970 X3.366 Y8.6165
N12975 X3.3709 Y8.608
N12980 X3.3761 Y8.5996
N12985 X3.3817 Y8.5914
N12990 X3.3876 Y8.5834
N12995 X3.3938 Y8.5756
N13000 X3.4004 Y8.5681
N13005 X3.4072 Y8.5608
N13010 X3.4144 Y8.5538
N13015 X3.4218 Y8.5471
N13020 X3.4294 Y8.5407
N13025 X3.4373 Y8.5346
N13030 X3.4454 Y8.5289
N13035 X3.4537 Y8.5235
N13040 X3.4621 Y8.5184
N13045 X3.4707 Y8.5137
N13050 X3.4795 Y8.5094
N13055 X3.4883 Y8.5054
N13060 X3.4972 Y8.5018
N13065 X3.5061 Y8.4986
N13070 X3.5151 Y8.4957
N13075 X3.5241 Y8.4932
N13080 X3.5331 Y8.491
N13085 X3.5421 Y8.4892
N13090 X3.551 Y8.4877
N13095 X3.5599 Y8.4866
N13100 X3.5687 Y8.4858
N13105 X3.5774 Y8.4853
N13110 X3.5861 Y8.4851
N13115 X3.5946 Y8.4852
N13120 X3.6033 Y8.4856
N13125 X3.6121 Y8.4863
N13130 X3.6209 Y8.4873
N13135 X3.6299 Y8.4887
N13140 X3.6388 Y8.4904
N13145 X3.6478 Y8.4924
N13150 X3.6568 Y8.4948
N13155 X3.6658 Y8.4976
N13160 X3.6748 Y8.5007
N13165 X3.6837 Y8.5042
N13170 X3.6926 Y8.508
N13175 X3.7013 Y8.5122
N13180 X3.71 Y8.5168
N13185 X3.7185 Y8.5217
N13190 X3.7268 Y8.527
N13195 X3.735 Y8.5327
N13200 X3.7429 Y8.5386
N13205 X3.7507 Y8.5449
N13210 X3.7581 Y8.5515
N13215 X3.7654 Y8.5584
N13220 X3.7723 Y8.5656
N13225 X3.779 Y8.5731
N13230 X3.7853 Y8.5808
N13235 X3.7914 Y8.5887
N13240 X3.797 Y8.5968
N13245 X3.8024 Y8.6051
N13250 X3.8074 Y8.6136
N13255 X3.812 Y8.6222
N13260 X3.8163 Y8.6309
N13265 X3.8202 Y8.6398
N13270 X3.8238 Y8.6487
N13275 X3.8269 Y8.6576
N13280 X3.8297 Y8.6666
N13285 X3.8322 Y8.6756
N13290 X3.8343 Y8.6846
N13295 X3.8361 Y8.6936
N13300 X3.8375 Y8.7026
N13305 X3.8386 Y8.7114
N13310 X3.8393 Y8.7202
N13315 X3.8398 Y8.7289
N13320 X3.8399 Y8.7375
N13325 Y9.6125
N13330 X3.8395 Y9.6268
N13335 X3.8388 Y9.6356
N13340 X3.8379 Y9.6444
N13345 X3.8366 Y9.6534
N13350 X3.8349 Y9.6623
N13355 X3.833 Y9.6713
N13360 X3.8306 Y9.6803
N13365 X3.8279 Y9.6893
N13370 X3.8249 Y9.6983
N13375 X3.8215 Y9.7072
N13380 X3.8177 Y9.7161
N13385 X3.8135 Y9.7249
N13390 X3.809 Y9.7335
N13395 X3.8041 Y9.742
N13400 X3.7989 Y9.7504
N13405 X3.7933 Y9.7586
N13410 X3.7874 Y9.7666
N13415 X3.7812 Y9.7744
N13420 X3.7746 Y9.7819
N13425 X3.7678 Y9.7892
N13430 X3.7606 Y9.7962
N13435 X3.7532 Y9.8029
N13440 X3.7456 Y9.8093
N13445 X3.7377 Y9.8154
N13450 X3.7296 Y9.8211
N13455 X3.7213 Y9.8265
N13460 X3.7129 Y9.8316
N13465 X3.7043 Y9.8363
N13470 X3.6955 Y9.8406
N13475 X3.6867 Y9.8446
N13480 X3.6778 Y9.8482
N13485 X3.6689 Y9.8514
N13490 X3.6599 Y9.8543
N13495 X3.6509 Y9.8568
N13500 X3.6419 Y9.859
N13505 X3.6329 Y9.8608
N13510 X3.624 Y9.8623
N13515 X3.6151 Y9.8634
N13520 X3.6131 Y9.8636
N13525 X3.6079 Y9.8641 Z1.2177
N13530 X3.6029 Y9.8646 Z1.2186
N13535 X3.5979 Y9.865 Z1.22
N13540 X3.5931 Y9.8655 Z1.2221
N13545 X3.5885 Y9.8659 Z1.2247
N13550 X3.5839 Y9.8663 Z1.228
N13555 X3.5795 Y9.8668 Z1.2318
N13560 X3.5753 Y9.8673 Z1.2362
N13565 X3.571 Y9.8681 Z1.2406
N13570 X3.5666 Y9.8685 Z1.2445
N13575 X3.5621 Y9.8689 Z1.2477
N13580 X3.5574 Y9.869 Z1.2503
N13585 X3.5527 Y9.8688 Z1.2524
N13590 X3.5478 Y9.8685 Z1.2539
N13595 X3.5428 Y9.8679 Z1.2548
N13600 X3.5377 Y9.867 Z1.255
N13605 X3.5311 Y9.8656
N13610 X3.5219 Y9.8634
N13615 X3.5128 Y9.8608
N13620 X3.5036 Y9.8579
N13625 X3.4945 Y9.8546
N13630 X3.4855 Y9.8509
N13635 X3.4765 Y9.8469
N13640 X3.4677 Y9.8425
N13645 X3.4589 Y9.8377
N13650 X3.4504 Y9.8326
N13655 X3.4419 Y9.8271
N13660 X3.4337 Y9.8213
N13665 X3.4257 Y9.8151
N13670 X3.4179 Y9.8087
N13675 X3.4103 Y9.8019
N13680 X3.4031 Y9.7948
N13685 X3.3961 Y9.7874
N13690 X3.3894 Y9.7798
N13695 X3.383 Y9.7719
N13700 X3.3769 Y9.7638
N13705 X3.3712 Y9.7556
N13710 X3.3658 Y9.7471
N13715 X3.3608 Y9.7384
N13720 X3.3562 Y9.7297
N13725 X3.3519 Y9.7208
N13730 X3.3479 Y9.7118
N13735 X3.3444 Y9.7027
N13740 X3.3412 Y9.6936
N13745 X3.3384 Y9.6845
N13750 X3.3359 Y9.6753
N13755 X3.3338 Y9.6662
N13760 X3.332 Y9.6571
N13765 X3.3306 Y9.648
N13770 X3.3295 Y9.639
N13775 X3.3288 Y9.6301
N13780 X3.3283 Y9.6212
N13785 X3.3282 Y9.6125
N13790 Y8.7375
N13795 X3.3286 Y8.7235
N13800 X3.3292 Y8.7146
N13805 X3.3302 Y8.7056
N13810 X3.3314 Y8.6965
N13815 X3.3331 Y8.6874
N13820 X3.335 Y8.6783
N13825 X3.3373 Y8.6692
N13830 X3.34 Y8.66
N13835 X3.3431 Y8.6509
N13840 X3.3465 Y8.6418
N13845 X3.3503 Y8.6328
N13850 X3.3544 Y8.6239
N13855 X3.3589 Y8.615
N13860 X3.3638 Y8.6063
N13865 X3.369 Y8.5978
N13870 X3.3746 Y8.5894
N13875 X3.3805 Y8.5813
N13880 X3.3868 Y8.5733
N13885 X3.3934 Y8.5656
N13890 X3.4002 Y8.5581
N13895 X3.4074 Y8.5509
N13900 X3.4148 Y8.544
N13905 X3.4225 Y8.5374
N13910 X3.4305 Y8.5311
N13915 X3.4386 Y8.5252
N13920 X3.447 Y8.5196
N13925 X3.4555 Y8.5143
N13930 X3.4642 Y8.5094
N13935 X3.473 Y8.5048
N13940 X3.4819 Y8.5006
N13945 X3.4909 Y8.4968
N13950 X3.5 Y8.4934
N13955 X3.5091 Y8.4903
N13960 X3.5183 Y8.4876
N13965 X3.5274 Y8.4852
N13970 X3.5366 Y8.4832
N13975 X3.5457 Y8.4816
N13980 X3.5547 Y8.4803
N13985 X3.5637 Y8.4793
N13990 X3.5726 Y8.4786
N13995 X3.5814 Y8.4783
N14000 X3.5901 Y8.4782
N14005 X3.5989 Y8.4784
N14010 X3.6077 Y8.479
N14015 X3.6167 Y8.4798
N14020 X3.6257 Y8.481
N14025 X3.6348 Y8.4825
N14030 X3.6439 Y8.4844
N14035 X3.6531 Y8.4866
N14040 X3.6622 Y8.4892
N14045 X3.6714 Y8.4921
N14050 X3.6805 Y8.4954
N14055 X3.6895 Y8.4991
N14060 X3.6985 Y8.5031
N14065 X3.7073 Y8.5075
N14070 X3.7161 Y8.5123
N14075 X3.7246 Y8.5174
N14080 X3.7331 Y8.5229
N14085 X3.7413 Y8.5287
N14090 X3.7493 Y8.5349
N14095 X3.7571 Y8.5413
N14100 X3.7647 Y8.5481
N14105 X3.7719 Y8.5552
N14110 X3.7789 Y8.5626
N14115 X3.7856 Y8.5702
N14120 X3.792 Y8.5781
N14125 X3.7981 Y8.5862
N14130 X3.8038 Y8.5944
N14135 X3.8092 Y8.6029
N14140 X3.8142 Y8.6116
N14145 X3.8188 Y8.6203
N14150 X3.8231 Y8.6292
N14155 X3.8271 Y8.6382
N14160 X3.8306 Y8.6473
N14165 X3.8338 Y8.6564
N14170 X3.8366 Y8.6655
N14175 X3.8391 Y8.6747
N14180 X3.8412 Y8.6838
N14185 X3.843 Y8.6929
N14190 X3.8444 Y8.702
N14195 X3.8455 Y8.711
N14200 X3.8462 Y8.7199
N14205 X3.8467 Y8.7288
N14210 X3.8468 Y8.7375
N14215 Y9.6125
N14220 X3.8464 Y9.6265
N14225 X3.8458 Y9.6354
N14230 X3.8448 Y9.6444
N14235 X3.8436 Y9.6535
N14240 X3.8419 Y9.6626
N14245 X3.84 Y9.6717
N14250 X3.8377 Y9.6808
N14255 X3.835 Y9.69
N14260 X3.8319 Y9.6991
N14265 X3.8285 Y9.7082
N14270 X3.8247 Y9.7172
N14275 X3.8206 Y9.7261
N14280 X3.8161 Y9.735
N14285 X3.8112 Y9.7437
N14290 X3.806 Y9.7522
N14295 X3.8004 Y9.7606
N14300 X3.7945 Y9.7687
N14305 X3.7882 Y9.7767
N14310 X3.7816 Y9.7844
N14315 X3.7748 Y9.7919
N14320 X3.7676 Y9.7991
N14325 X3.7602 Y9.806
N14330 X3.7525 Y9.8126
N14335 X3.7445 Y9.8189
N14340 X3.7364 Y9.8248
N14345 X3.728 Y9.8304
N14350 X3.7195 Y9.8357
N14355 X3.7108 Y9.8406
N14360 X3.702 Y9.8452
N14365 X3.6931 Y9.8494
N14370 X3.6841 Y9.8532
N14375 X3.675 Y9.8566
N14380 X3.6659 Y9.8597
N14385 X3.6567 Y9.8624
N14390 X3.6476 Y9.8648
N14395 X3.6384 Y9.8668
N14400 X3.6293 Y9.8684
N14405 X3.6203 Y9.8697
N14410 X3.6113 Y9.8707
N14415 X3.6024 Y9.8714
N14420 X3.5936 Y9.8717
N14425 X3.5849 Y9.8718
N14430 X3.5761 Y9.8716
N14435 X3.5673 Y9.871
N14440 X3.5583 Y9.8702
N14445 X3.5493 Y9.869
N14450 X3.5402 Y9.8675
N14455 X3.5377 Y9.867
N14460 X3.5324 Y9.8659 Z1.2553
N14465 X3.5272 Y9.865 Z1.2564
N14470 X3.5222 Y9.8641 Z1.2577
N14475 X3.5173 Y9.8632 Z1.2598
N14480 X3.5124 Y9.8626 Z1.2624
N14485 X3.5077 Y9.8621 Z1.2657
N14490 X3.503 Y9.8618 Z1.2695
N14495 X3.4984 Z1.274
N14500 X3.4939 Y9.8615 Z1.2784
N14505 X3.4893 Y9.8611 Z1.2822
N14510 X3.4846 Y9.8604 Z1.2855
N14515 X3.4799 Y9.8593 Z1.2882
N14520 X3.4752 Y9.8581 Z1.2902
N14525 X3.4704 Y9.8565 Z1.2917
N14530 X3.4656 Y9.8545 Z1.2926
N14535 X3.4608 Y9.8521 Z1.2929
N14540 X3.4573 Y9.8503
N14545 X3.4484 Y9.8452
N14550 X3.4397 Y9.8398 Z1.2928
N14555 X3.4311 Y9.834
N14560 X3.4228 Y9.8278
N14565 X3.4146 Y9.8214 Z1.2929
N14570 X3.4067 Y9.8146
N14575 X3.3991 Y9.8075
N14580 X3.3918 Y9.8001
N14585 X3.3847 Y9.7924 Z1.2928
N14590 X3.3779 Y9.7845
N14595 X3.3715 Y9.7764 Z1.2929
N14600 X3.3654 Y9.768
N14605 X3.3596 Y9.7594
N14610 X3.3542 Y9.7507
N14615 X3.3492 Y9.7418 Z1.2928
N14620 X3.3445 Y9.7328
N14625 X3.3402 Y9.7236 Z1.2929
N14630 X3.3362 Y9.7144
N14635 X3.3327 Y9.7051
N14640 X3.3295 Y9.6957 Z1.2928
N14645 X3.3266 Y9.6863
N14650 X3.3241 Y9.6769 Z1.2929
N14655 X3.322 Y9.6676
N14660 X3.3203 Y9.6582
N14665 X3.3188 Y9.6489 Z1.2928
N14670 X3.3177 Y9.6397 Z1.2929
N14675 X3.317 Y9.6305
N14680 X3.3165 Y9.6215
N14685 X3.3164 Y9.6125 Z1.2928
N14690 Y8.7375
N14695 X3.3166 Y8.7267
N14700 X3.3171 Y8.7176 Z1.2929
N14705 X3.3179 Y8.7084
N14710 X3.3191 Y8.6992 Z1.2928
N14715 X3.3206 Y8.6899
N14720 X3.3224 Y8.6805 Z1.2929
N14725 X3.3246 Y8.6711
N14730 X3.3272 Y8.6617
N14735 X3.3301 Y8.6523 Z1.2928
N14740 X3.3334 Y8.643 Z1.2929
N14745 X3.337 Y8.6337
N14750 X3.3411 Y8.6245
N14755 X3.3454 Y8.6154
N14760 X3.3502 Y8.6063 Z1.2928
N14765 X3.3553 Y8.5975
N14770 X3.3608 Y8.5888 Z1.2929
N14775 X3.3666 Y8.5802
N14780 X3.3728 Y8.5719
N14785 X3.3793 Y8.5638
N14790 X3.3861 Y8.5559 Z1.2928
N14795 X3.3933 Y8.5483
N14800 X3.4007 Y8.541 Z1.2929
N14805 X3.4084 Y8.534
N14810 X3.4163 Y8.5273
N14815 X3.4245 Y8.5209
N14820 X3.4329 Y8.5148
N14825 X3.4415 Y8.5091 Z1.2928
N14830 X3.4502 Y8.5037
N14835 X3.4591 Y8.4987 Z1.2929
N14840 X3.4682 Y8.494
N14845 X3.4773 Y8.4898
N14850 X3.4866 Y8.4859 Z1.2928
N14855 X3.4959 Y8.4823
N14860 X3.5053 Y8.4791 Z1.2929
N14865 X3.5146 Y8.4763
N14870 X3.524 Y8.4739
N14875 X3.5334 Y8.4718 Z1.2928
N14880 X3.5428 Y8.4701
N14885 X3.552 Y8.4687 Z1.2929
N14890 X3.5613 Y8.4676
N14895 X3.5704 Y8.4669 Z1.2928
N14900 X3.5795 Y8.4665
N14905 X3.5884 Y8.4664 Z1.2929
N14910 X3.5974 Y8.4666
N14915 X3.6065 Y8.467 Z1.2928
N14920 X3.6156 Y8.4678 Z1.2929
N14925 X3.6249 Y8.469
N14930 X3.6342 Y8.4704
N14935 X3.6435 Y8.4722 Z1.2928
N14940 X3.6529 Y8.4744
N14945 X3.6623 Y8.4769 Z1.2929
N14950 X3.6717 Y8.4798
N14955 X3.681 Y8.483
N14960 X3.6903 Y8.4866 Z1.2928
N14965 X3.6996 Y8.4906
N14970 X3.7087 Y8.495 Z1.2929
N14975 X3.7177 Y8.4997
N14980 X3.7266 Y8.5048
N14985 X3.7353 Y8.5102 Z1.2928
N14990 X3.7439 Y8.516
N14995 X3.7522 Y8.5222
N15000 X3.7604 Y8.5286 Z1.2929
N15005 X3.7683 Y8.5354
N15010 X3.7759 Y8.5425
N15015 X3.7832 Y8.5499
N15020 X3.7903 Y8.5576 Z1.2928
N15025 X3.7971 Y8.5655
N15030 X3.8035 Y8.5736 Z1.2929
N15035 X3.8096 Y8.582
N15040 X3.8154 Y8.5906
N15045 X3.8208 Y8.5993
N15050 X3.8258 Y8.6082 Z1.2928
N15055 X3.8305 Y8.6172
N15060 X3.8348 Y8.6264 Z1.2929
N15065 X3.8388 Y8.6356
N15070 X3.8423 Y8.6449
N15075 X3.8455 Y8.6543 Z1.2928
N15080 X3.8484 Y8.6637
N15085 X3.8509 Y8.6731 Z1.2929
N15090 X3.853 Y8.6824
N15095 X3.8547 Y8.6918
N15100 X3.8562 Y8.7011 Z1.2928
N15105 X3.8573 Y8.7103 Z1.2929
N15110 X3.858 Y8.7195
N15115 X3.8585 Y8.7285
N15120 X3.8586 Y8.7375 Z1.2928
N15125 Y9.6125
N15130 X3.8584 Y9.6233
N15135 X3.8579 Y9.6324 Z1.2929
N15140 X3.8571 Y9.6416
N15145 X3.8559 Y9.6508 Z1.2928
N15150 X3.8544 Y9.6601
N15155 X3.8526 Y9.6695 Z1.2929
N15160 X3.8504 Y9.6789
N15165 X3.8478 Y9.6883
N15170 X3.8449 Y9.6977 Z1.2928
N15175 X3.8416 Y9.707 Z1.2929
N15180 X3.838 Y9.7163
N15185 X3.8339 Y9.7255
N15190 X3.8296 Y9.7346
N15195 X3.8248 Y9.7437 Z1.2928
N15200 X3.8197 Y9.7525
N15205 X3.8142 Y9.7612 Z1.2929
N15210 X3.8084 Y9.7698
N15215 X3.8022 Y9.7781
N15220 X3.7957 Y9.7862
N15225 X3.7889 Y9.7941 Z1.2928
N15230 X3.7817 Y9.8017
N15235 X3.7743 Y9.809 Z1.2929
N15240 X3.7666 Y9.816
N15245 X3.7587 Y9.8227
N15250 X3.7505 Y9.8291
N15255 X3.7421 Y9.8352
N15260 X3.7335 Y9.8409 Z1.2928
N15265 X3.7248 Y9.8463
N15270 X3.7159 Y9.8513 Z1.2929
N15275 X3.7068 Y9.856
N15280 X3.6977 Y9.8602
N15285 X3.6884 Y9.8641 Z1.2928
N15290 X3.6791 Y9.8677
N15295 X3.6697 Y9.8709 Z1.2929
N15300 X3.6604 Y9.8737
N15305 X3.651 Y9.8761
N15310 X3.6416 Y9.8782 Z1.2928
N15315 X3.6322 Y9.8799
N15320 X3.623 Y9.8813 Z1.2929
N15325 X3.6137 Y9.8824
N15330 X3.6046 Y9.8831 Z1.2928
N15335 X3.5955 Y9.8835
N15340 X3.5866 Y9.8836 Z1.2929
N15345 X3.5776 Y9.8834
N15350 X3.5685 Y9.883 Z1.2928
N15355 X3.5594 Y9.8822 Z1.2929
N15360 X3.5501 Y9.881
N15365 X3.5408 Y9.8796
N15370 X3.5315 Y9.8778 Z1.2928
N15375 X3.5221 Y9.8756
N15380 X3.5127 Y9.8731 Z1.2929
N15385 X3.5033 Y9.8702
N15390 X3.494 Y9.867
N15395 X3.4847 Y9.8634 Z1.2928
N15400 X3.4754 Y9.8594
N15405 X3.4663 Y9.855 Z1.2929
N15410 X3.4608 Y9.8521
N15415 X3.4559 Y9.8497 Z1.2932
N15420 X3.451 Y9.8474 Z1.2942
N15425 X3.4463 Y9.8452 Z1.2955
N15430 X3.4416 Y9.8432 Z1.2976
N15435 X3.4369 Y9.8415 Z1.3002
N15440 X3.4322 Y9.84 Z1.3033
N15445 X3.4275 Y9.8387 Z1.3071
N15450 X3.423 Y9.8376 Z1.3114
N15455 X3.4183 Y9.8366 Z1.3158
N15460 X3.4136 Y9.8353 Z1.3195
N15465 X3.4089 Y9.8337 Z1.3227
N15470 X3.4044 Y9.8317 Z1.3253
N15475 X3.4 Y9.8294 Z1.3273
N15480 X3.3956 Y9.8266 Z1.3287
N15485 X3.3915 Y9.8233 Z1.3295
N15490 X3.3875 Y9.8197 Z1.3298
N15495 X3.3829 Y9.8152
N15500 X3.3755 Y9.8074
N15505 X3.3683 Y9.7993
N15510 X3.3615 Y9.791
N15515 X3.355 Y9.7825
N15520 X3.3489 Y9.7737
N15525 X3.3431 Y9.7648
N15530 X3.3376 Y9.7556
N15535 X3.3325 Y9.7464
N15540 X3.3278 Y9.737
N15545 X3.3235 Y9.7275
N15550 X3.3195 Y9.7179
N15555 X3.3159 Y9.7083
N15560 X3.3127 Y9.6986
N15565 X3.3098 Y9.6889
N15570 X3.3073 Y9.6791
N15575 X3.3052 Y9.6694
N15580 X3.3034 Y9.6598
N15585 X3.302 Y9.6502
N15590 X3.3009 Y9.6406
N15595 X3.3001 Y9.6311
N15600 X3.2997 Y9.6218
N15605 X3.2995 Y9.6125
N15610 Y8.7375
N15615 X3.2998 Y8.7236
N15620 X3.3005 Y8.7142
N15625 X3.3014 Y8.7046
N15630 X3.3027 Y8.6951
N15635 X3.3043 Y8.6854
N15640 X3.3062 Y8.6757
N15645 X3.3085 Y8.666
N15650 X3.3112 Y8.6563
N15655 X3.3142 Y8.6466
N15660 X3.3176 Y8.6369
N15665 X3.3214 Y8.6273
N15670 X3.3256 Y8.6178
N15675 X3.3301 Y8.6083
N15680 X3.335 Y8.599
N15685 X3.3403 Y8.5898
N15690 X3.3459 Y8.5808
N15695 X3.3519 Y8.5719
N15700 X3.3582 Y8.5633
N15705 X3.3649 Y8.5548
N15710 X3.3719 Y8.5466
N15715 X3.3791 Y8.5387
N15720 X3.3867 Y8.531
N15725 X3.3946 Y8.5237
N15730 X3.4027 Y8.5166
N15735 X3.4111 Y8.5099
N15740 X3.4197 Y8.5034
N15745 X3.4285 Y8.4974
N15750 X3.4375 Y8.4917
N15755 X3.4467 Y8.4863
N15760 X3.456 Y8.4813
N15765 X3.4654 Y8.4767
N15770 X3.4749 Y8.4724
N15775 X3.4845 Y8.4686
N15780 X3.4942 Y8.4651
N15785 X3.5038 Y8.4619
N15790 X3.5136 Y8.4592
N15795 X3.5233 Y8.4568
N15800 X3.533 Y8.4547
N15805 X3.5426 Y8.453
N15810 X3.5522 Y8.4517
N15815 X3.5618 Y8.4507
N15820 X3.5712 Y8.45
N15825 X3.5806 Y8.4496
N15830 X3.5898 Y8.4495
N15835 X3.5991 Y8.4497
N15840 X3.6085 Y8.4503
N15845 X3.618 Y8.4511
N15850 X3.6275 Y8.4523
N15855 X3.6372 Y8.4538
N15860 X3.6469 Y8.4557
N15865 X3.6566 Y8.4579
N15870 X3.6663 Y8.4605
N15875 X3.676 Y8.4634
N15880 X3.6857 Y8.4668
N15885 X3.6953 Y8.4705
N15890 X3.7049 Y8.4745
N15895 X3.7143 Y8.4789
N15900 X3.7237 Y8.4838
N15905 X3.7329 Y8.4889
N15910 X3.742 Y8.4945
N15915 X3.7509 Y8.5004
N15920 X3.7596 Y8.5066
N15925 X3.7681 Y8.5132
N15930 X3.7764 Y8.5201
N15935 X3.7844 Y8.5273
N15940 X3.7921 Y8.5348
N15945 X3.7995 Y8.5426
N15950 X3.8067 Y8.5507
N15955 X3.8135 Y8.559
N15960 X3.82 Y8.5675
N15965 X3.8261 Y8.5763
N15970 X3.8319 Y8.5852
N15975 X3.8374 Y8.5944
N15980 X3.8425 Y8.6036
N15985 X3.8472 Y8.613
N15990 X3.8515 Y8.6225
N15995 X3.8555 Y8.6321
N16000 X3.8591 Y8.6417
N16005 X3.8623 Y8.6514
N16010 X3.8652 Y8.6611
N16015 X3.8677 Y8.6709
N16020 X3.8698 Y8.6806
N16025 X3.8716 Y8.6902
N16030 X3.873 Y8.6998
N16035 X3.8741 Y8.7094
N16040 X3.8749 Y8.7189
N16045 X3.8753 Y8.7282
N16050 X3.8755 Y8.7375
N16055 Y9.6125
N16060 X3.8752 Y9.6264
N16065 X3.8745 Y9.6358
N16070 X3.8736 Y9.6454
N16075 X3.8723 Y9.6549
N16080 X3.8707 Y9.6646
N16085 X3.8688 Y9.6743
N16090 X3.8665 Y9.684
N16095 X3.8638 Y9.6937
N16100 X3.8608 Y9.7034
N16105 X3.8574 Y9.7131
N16110 X3.8536 Y9.7227
N16115 X3.8494 Y9.7322
N16120 X3.8449 Y9.7417
N16125 X3.84 Y9.751
N16130 X3.8347 Y9.7602
N16135 X3.8291 Y9.7692
N16140 X3.8231 Y9.7781
N16145 X3.8168 Y9.7867
N16150 X3.8101 Y9.7952
N16155 X3.8031 Y9.8034
N16160 X3.7959 Y9.8113
N16165 X3.7883 Y9.819
N16170 X3.7804 Y9.8263
N16175 X3.7723 Y9.8334
N16180 X3.7639 Y9.8401
N16185 X3.7553 Y9.8466
N16190 X3.7465 Y9.8526
N16195 X3.7375 Y9.8583
N16200 X3.7283 Y9.8637
N16205 X3.719 Y9.8687
N16210 X3.7096 Y9.8733
N16215 X3.7001 Y9.8776
N16220 X3.6905 Y9.8814
N16225 X3.6808 Y9.8849
N16230 X3.6711 Y9.8881
N16235 X3.6614 Y9.8908
N16240 X3.6517 Y9.8932
N16245 X3.642 Y9.8953
N16250 X3.6324 Y9.897
N16255 X3.6228 Y9.8983
N16260 X3.6132 Y9.8993
N16265 X3.6038 Y9.9
N16270 X3.5944 Y9.9004
N16275 X3.5852 Y9.9005
N16280 X3.5759 Y9.9003
N16285 X3.5665 Y9.8997
N16290 X3.557 Y9.8989
N16295 X3.5475 Y9.8977
N16300 X3.5378 Y9.8962
N16305 X3.5281 Y9.8943
N16310 X3.5184 Y9.8921
N16315 X3.5087 Y9.8895
N16320 X3.499 Y9.8866
N16325 X3.4893 Y9.8832
N16330 X3.4797 Y9.8795
N16335 X3.4701 Y9.8755
N16340 X3.4607 Y9.8711
N16345 X3.4513 Y9.8662
N16350 X3.4421 Y9.8611
N16355 X3.433 Y9.8555
N16360 X3.4241 Y9.8496
N16365 X3.4154 Y9.8434
N16370 X3.4069 Y9.8368
N16375 X3.3986 Y9.8299
N16380 X3.3906 Y9.8227
N16385 X3.3875 Y9.8197
N16390 X3.3837 Y9.8162 Z1.3301
N16395 X3.3798 Y9.8129 Z1.3309
N16400 X3.3759 Y9.8099 Z1.3324
N16405 X3.3718 Y9.8071 Z1.3345
N16410 X3.3676 Y9.8046 Z1.3372
N16415 X3.3633 Y9.8024 Z1.3404
N16420 X3.359 Y9.8004 Z1.3437
N16425 X3.3545 Y9.7986 Z1.3474
N16430 X3.3501 Y9.7968 Z1.3512
N16435 X3.3459 Y9.7947 Z1.3543
N16440 X3.3419 Y9.7922 Z1.3569
N16445 X3.3382 Y9.7893 Z1.3591
N16450 X3.3346 Y9.7861 Z1.3607
N16455 X3.3313 Y9.7826 Z1.3618
N16460 X3.3282 Y9.7786 Z1.3625
N16465 X3.3254 Y9.7744 Z1.3628
N16470 X3.3231 Y9.7707
N16475 X3.3176 Y9.7612 Z1.3627
N16480 X3.3125 Y9.7515 Z1.3628
N16485 X3.3078 Y9.7417
N16490 X3.3034 Y9.7319
N16495 X3.2994 Y9.7219 Z1.3627
N16500 X3.2958 Y9.7119 Z1.3628
N16505 X3.2926 Y9.7018
N16510 X3.2897 Y9.6917
N16515 X3.2872 Y9.6816 Z1.3627
N16520 X3.2851 Y9.6716 Z1.3628
N16525 X3.2833 Y9.6615
N16530 X3.2819 Y9.6516
N16535 X3.2807 Y9.6417 Z1.3627
N16540 X3.28 Y9.6318 Z1.3628
N16545 X3.2795 Y9.6221
N16550 X3.2794 Y8.7375 Z1.3627
N16555 X3.2796 Y8.7256 Z1.3628
N16560 X3.2801 Y8.7158
N16565 X3.281 Y8.706
N16570 X3.2822 Y8.6961 Z1.3627
N16575 X3.2837 Y8.6861 Z1.3628
N16580 X3.2856 Y8.6761
N16585 X3.2878 Y8.666 Z1.3627
N16590 X3.2904 Y8.6559
N16595 X3.2933 Y8.6458 Z1.3628
N16600 X3.2966 Y8.6358
N16605 X3.3003 Y8.6257
N16610 X3.3044 Y8.6158 Z1.3627
N16615 X3.3089 Y8.6059 Z1.3628
N16620 X3.3137 Y8.5962
N16625 X3.3189 Y8.5865
N16630 X3.3245 Y8.577 Z1.3627
N16635 X3.3304 Y8.5677 Z1.3628
N16640 X3.3367 Y8.5585
N16645 X3.3433 Y8.5496
N16650 X3.3503 Y8.5409
N16655 X3.3575 Y8.5324 Z1.3627
N16660 X3.3651 Y8.5242 Z1.3628
N16665 X3.373 Y8.5163
N16670 X3.3812 Y8.5086
N16675 X3.3896 Y8.5013
N16680 X3.3983 Y8.4943 Z1.3627
N16685 X3.4072 Y8.4876 Z1.3628
N16690 X3.4164 Y8.4813
N16695 X3.4257 Y8.4753
N16700 X3.4351 Y8.4697 Z1.3627
N16705 X3.4448 Y8.4644
N16710 X3.4545 Y8.4595 Z1.3628
N16715 X3.4644 Y8.455
N16720 X3.4743 Y8.4509
N16725 X3.4843 Y8.4472 Z1.3627
N16730 X3.4944 Y8.4438 Z1.3628
N16735 X3.5045 Y8.4408
N16740 X3.5145 Y8.4381
N16745 X3.5246 Y8.4359 Z1.3627
N16750 X3.5347 Y8.4339 Z1.3628
N16755 X3.5446 Y8.4324
N16760 X3.5546 Y8.4311
N16765 X3.5644 Y8.4302 Z1.3627
N16770 X3.5742 Y8.4297 Z1.3628
N16775 X3.5838 Y8.4294
N16780 X3.5934 Z1.3627
N16785 X3.6031 Y8.4298 Z1.3628
N16790 X3.6129 Y8.4304
N16795 X3.6228 Y8.4314 Z1.3627
N16800 X3.6327 Y8.4327 Z1.3628
N16805 X3.6427 Y8.4344
N16810 X3.6528 Y8.4364
N16815 X3.6629 Y8.4387 Z1.3627
N16820 X3.6729 Y8.4414 Z1.3628
N16825 X3.683 Y8.4445
N16830 X3.6931 Y8.448
N16835 X3.7031 Y8.4519 Z1.3627
N16840 X3.713 Y8.4561 Z1.3628
N16845 X3.7228 Y8.4607
N16850 X3.7325 Y8.4656
N16855 X3.7421 Y8.471 Z1.3627
N16860 X3.7516 Y8.4767 Z1.3628
N16865 X3.7608 Y8.4827
N16870 X3.7699 Y8.4892
N16875 X3.7788 Y8.4959
N16880 X3.7874 Y8.503 Z1.3627
N16885 X3.7958 Y8.5104 Z1.3628
N16890 X3.8039 Y8.5181
N16895 X3.8117 Y8.5261
N16900 X3.8192 Y8.5344
N16905 X3.8264 Y8.5429 Z1.3627
N16910 X3.8333 Y8.5517 Z1.3628
N16915 X3.8399 Y8.5607
N16920 X3.8461 Y8.5699
N16925 X3.8519 Y8.5793
N16930 X3.8574 Y8.5888 Z1.3627
N16935 X3.8625 Y8.5985 Z1.3628
N16940 X3.8672 Y8.6083
N16945 X3.8716 Y8.6181
N16950 X3.8756 Y8.6281 Z1.3627
N16955 X3.8792 Y8.6381 Z1.3628
N16960 X3.8824 Y8.6482
N16965 X3.8853 Y8.6583
N16970 X3.8878 Y8.6684 Z1.3627
N16975 X3.8899 Y8.6784 Z1.3628
N16980 X3.8917 Y8.6885
N16985 X3.8931 Y8.6984
N16990 X3.8943 Y8.7083 Z1.3627
N16995 X3.895 Y8.7182 Z1.3628
N17000 X3.8955 Y8.7279
N17005 X3.8956 Y8.7375 Z1.3627
N17010 Y9.6125
N17015 X3.8954 Y9.6244 Z1.3628
N17020 X3.8949 Y9.6342
N17025 X3.894 Y9.644
N17030 X3.8928 Y9.6539 Z1.3627
N17035 X3.8913 Y9.6639 Z1.3628
N17040 X3.8894 Y9.6739
N17045 X3.8872 Y9.684 Z1.3627
N17050 X3.8846 Y9.6941
N17055 X3.8817 Y9.7042 Z1.3628
N17060 X3.8784 Y9.7142
N17065 X3.8747 Y9.7243
N17070 X3.8706 Y9.7342 Z1.3627
N17075 X3.8661 Y9.7441 Z1.3628
N17080 X3.8613 Y9.7538
N17085 X3.8561 Y9.7635
N17090 X3.8505 Y9.773 Z1.3627
N17095 X3.8446 Y9.7823 Z1.3628
N17100 X3.8383 Y9.7915
N17105 X3.8317 Y9.8004
N17110 X3.8247 Y9.8091
N17115 X3.8175 Y9.8176 Z1.3627
N17120 X3.8099 Y9.8258 Z1.3628
N17125 X3.802 Y9.8337
N17130 X3.7938 Y9.8414
N17135 X3.7854 Y9.8487
N17140 X3.7767 Y9.8557 Z1.3627
N17145 X3.7678 Y9.8624 Z1.3628
N17150 X3.7587 Y9.8687
N17155 X3.7493 Y9.8747
N17160 X3.7399 Y9.8803 Z1.3627
N17165 X3.7302 Y9.8856
N17170 X3.7205 Y9.8905 Z1.3628
N17175 X3.7106 Y9.895
N17180 X3.7007 Y9.8991
N17185 X3.6907 Y9.9028 Z1.3627
N17190 X3.6806 Y9.9062 Z1.3628
N17195 X3.6705 Y9.9092
N17200 X3.6605 Y9.9119
N17205 X3.6504 Y9.9141 Z1.3627
N17210 X3.6403 Y9.9161 Z1.3628
N17215 X3.6304 Y9.9176
N17220 X3.6204 Y9.9189
N17225 X3.6106 Y9.9198 Z1.3627
N17230 X3.6008 Y9.9203 Z1.3628
N17235 X3.5912 Y9.9206
N17240 X3.5816 Z1.3627
N17245 X3.5719 Y9.9202 Z1.3628
N17250 X3.5621 Y9.9196
N17255 X3.5522 Y9.9186 Z1.3627
N17260 X3.5423 Y9.9173 Z1.3628
N17265 X3.5323 Y9.9156
N17270 X3.5222 Y9.9136
N17275 X3.5121 Y9.9113 Z1.3627
N17280 X3.5021 Y9.9086 Z1.3628
N17285 X3.492 Y9.9055
N17290 X3.4819 Y9.902
N17295 X3.4719 Y9.8981 Z1.3627
N17300 X3.462 Y9.8939 Z1.3628
N17305 X3.4522 Y9.8893
N17310 X3.4425 Y9.8844
N17315 X3.4329 Y9.879 Z1.3627
N17320 X3.4234 Y9.8733 Z1.3628
N17325 X3.4142 Y9.8673
N17330 X3.4051 Y9.8608
N17335 X3.3962 Y9.8541
N17340 X3.3876 Y9.847 Z1.3627
N17345 X3.3792 Y9.8396 Z1.3628
N17350 X3.3711 Y9.8319
N17355 X3.3633 Y9.8239
N17360 X3.3558 Y9.8156
N17365 X3.3486 Y9.8071 Z1.3627
N17370 X3.3417 Y9.7983 Z1.3628
N17375 X3.3351 Y9.7893
N17380 X3.3289 Y9.7801
N17385 X3.3254 Y9.7744
N17390 X3.3225 Y9.7701 Z1.363
N17395 X3.3196 Y9.7659 Z1.3637
N17400 X3.3163 Y9.762 Z1.3649
N17405 X3.313 Y9.7584 Z1.3666
N17410 X3.3094 Y9.755 Z1.3687
N17415 X3.3056 Y9.7519 Z1.3713
N17420 X3.3016 Y9.749 Z1.3745
N17425 X3.2973 Y9.7464 Z1.378
N17430 X3.2931 Y9.7437 Z1.3816
N17435 X3.2891 Y9.7409 Z1.3846
N17440 X3.2855 Y9.7376 Z1.3872
N17445 X3.2821 Y9.7342 Z1.3892
N17450 X3.2789 Y9.7304 Z1.3908
N17455 X3.2763 Y9.7262 Z1.392
N17460 X3.2741 Y9.7217 Z1.3927
N17465 X3.2722 Y9.7169 Z1.3929
N17470 X3.2719 Y9.7158
N17475 X3.2686 Y9.7054
N17480 X3.2657 Y9.6949
N17485 X3.2632 Y9.6844
N17490 X3.2611 Y9.6739
N17495 X3.2593 Y9.6635
N17500 X3.2579 Y9.6531
N17505 X3.2568 Y9.6428
N17510 X3.256 Y9.6326
N17515 X3.2555 Y9.6225
N17520 X3.2554 Y8.7375
N17525 X3.2557 Y8.7225
N17530 X3.2563 Y8.7123
N17535 X3.2573 Y8.7021
N17540 X3.2585 Y8.6917
N17545 X3.2602 Y8.6813
N17550 X3.2621 Y8.6709
N17555 X3.2644 Y8.6604
N17560 X3.2671 Y8.6499
N17565 X3.2702 Y8.6394
N17570 X3.2736 Y8.6289
N17575 X3.2774 Y8.6185
N17580 X3.2816 Y8.6081
N17585 X3.2862 Y8.5978
N17590 X3.2911 Y8.5877
N17595 X3.2964 Y8.5776
N17600 X3.3021 Y8.5677
N17605 X3.3081 Y8.5579
N17610 X3.3145 Y8.5483
N17615 X3.3213 Y8.5389
N17620 X3.3284 Y8.5297
N17625 X3.3358 Y8.5208
N17630 X3.3436 Y8.5121
N17635 X3.3516 Y8.5037
N17640 X3.36 Y8.4956
N17645 X3.3686 Y8.4877
N17650 X3.3774 Y8.4802
N17655 X3.3866 Y8.4731
N17660 X3.3959 Y8.4662
N17665 X3.4054 Y8.4597
N17670 X3.4152 Y8.4536
N17675 X3.4251 Y8.4478
N17680 X3.4351 Y8.4424
N17685 X3.4453 Y8.4374
N17690 X3.4555 Y8.4327
N17695 X3.4659 Y8.4284
N17700 X3.4763 Y8.4245
N17705 X3.4868 Y8.421
N17710 X3.4973 Y8.4179
N17715 X3.5077 Y8.4151
N17720 X3.5182 Y8.4127
N17725 X3.5287 Y8.4106
N17730 X3.5391 Y8.4089
N17735 X3.5495 Y8.4076
N17740 X3.5597 Y8.4065
N17745 X3.5699 Y8.4058
N17750 X3.58 Y8.4055
N17755 X3.59 Y8.4054
N17760 X3.6 Y8.4056
N17765 X3.6101 Y8.4061
N17770 X3.6204 Y8.407
N17775 X3.6307 Y8.4082
N17780 X3.6411 Y8.4097
N17785 X3.6515 Y8.4116
N17790 X3.662 Y8.4138
N17795 X3.6725 Y8.4164
N17800 X3.683 Y8.4194
N17805 X3.6935 Y8.4227
N17810 X3.7039 Y8.4264
N17815 X3.7143 Y8.4305
N17820 X3.7246 Y8.435
N17825 X3.7348 Y8.4398
N17830 X3.7449 Y8.445
N17835 X3.7549 Y8.4506
N17840 X3.7647 Y8.4566
N17845 X3.7743 Y8.4629
N17850 X3.7838 Y8.4696
N17855 X3.793 Y8.4766
N17860 X3.802 Y8.4839
N17865 X3.8108 Y8.4916
N17870 X3.8192 Y8.4996
N17875 X3.8274 Y8.5078
N17880 X3.8353 Y8.5164
N17885 X3.8429 Y8.5252
N17890 X3.8502 Y8.5343
N17895 X3.8571 Y8.5436
N17900 X3.8637 Y8.553
N17905 X3.8699 Y8.5627
N17910 X3.8758 Y8.5726
N17915 X3.8813 Y8.5826
N17920 X3.8864 Y8.5927
N17925 X3.8912 Y8.603
N17930 X3.8955 Y8.6133
N17935 X3.8995 Y8.6237
N17940 X3.9031 Y8.6342
N17945 X3.9064 Y8.6446
N17950 X3.9093 Y8.6551
N17955 X3.9118 Y8.6656
N17960 X3.9139 Y8.6761
N17965 X3.9157 Y8.6865
N17970 X3.9171 Y8.6969
N17975 X3.9182 Y8.7072
N17980 X3.919 Y8.7174
N17985 X3.9195 Y8.7275
N17990 X3.9196 Y8.7375
N17995 Y9.6125
N18000 X3.9193 Y9.6275
N18005 X3.9187 Y9.6377
N18010 X3.9177 Y9.6479
N18015 X3.9165 Y9.6583
N18020 X3.9148 Y9.6687
N18025 X3.9129 Y9.6791
N18030 X3.9106 Y9.6896
N18035 X3.9079 Y9.7001
N18040 X3.9048 Y9.7106
N18045 X3.9014 Y9.7211
N18050 X3.8976 Y9.7315
N18055 X3.8934 Y9.7419
N18060 X3.8888 Y9.7522
N18065 X3.8839 Y9.7623
N18070 X3.8786 Y9.7724
N18075 X3.8729 Y9.7823
N18080 X3.8669 Y9.7921
N18085 X3.8605 Y9.8017
N18090 X3.8537 Y9.8111
N18095 X3.8466 Y9.8203
N18100 X3.8392 Y9.8292
N18105 X3.8314 Y9.8379
N18110 X3.8234 Y9.8463
N18115 X3.815 Y9.8544
N18120 X3.8064 Y9.8623
N18125 X3.7976 Y9.8698
N18130 X3.7884 Y9.8769
N18135 X3.7791 Y9.8838
N18140 X3.7696 Y9.8903
N18145 X3.7598 Y9.8964
N18150 X3.7499 Y9.9022
N18155 X3.7399 Y9.9076
N18160 X3.7297 Y9.9126
N18165 X3.7195 Y9.9173
N18170 X3.7091 Y9.9216
N18175 X3.6987 Y9.9255
N18180 X3.6882 Y9.929
N18185 X3.6777 Y9.9321
N18190 X3.6673 Y9.9349
N18195 X3.6568 Y9.9373
N18200 X3.6463 Y9.9394
N18205 X3.6359 Y9.9411
N18210 X3.6255 Y9.9424
N18215 X3.6153 Y9.9435
N18220 X3.6051 Y9.9442
N18225 X3.595 Y9.9445
N18230 X3.585 Y9.9446
N18235 X3.575 Y9.9444
N18240 X3.5649 Y9.9439
N18245 X3.5546 Y9.943
N18250 X3.5443 Y9.9418
N18255 X3.5339 Y9.9403
N18260 X3.5235 Y9.9384
N18265 X3.513 Y9.9362
N18270 X3.5025 Y9.9336
N18275 X3.492 Y9.9306
N18280 X3.4815 Y9.9273
N18285 X3.4711 Y9.9236
N18290 X3.4607 Y9.9195
N18295 X3.4504 Y9.915
N18300 X3.4402 Y9.9102
N18305 X3.4301 Y9.905
N18310 X3.4201 Y9.8994
N18315 X3.4103 Y9.8934
N18320 X3.4007 Y9.8871
N18325 X3.3912 Y9.8804
N18330 X3.382 Y9.8734
N18335 X3.373 Y9.8661
N18340 X3.3642 Y9.8584
N18345 X3.3558 Y9.8504
N18350 X3.3476 Y9.8422
N18355 X3.3397 Y9.8336
N18360 X3.3321 Y9.8248
N18365 X3.3248 Y9.8157
N18370 X3.3179 Y9.8064
N18375 X3.3113 Y9.797
N18380 X3.3051 Y9.7873
N18385 X3.2992 Y9.7774
N18390 X3.2937 Y9.7674
N18395 X3.2886 Y9.7573
N18400 X3.2838 Y9.747
N18405 X3.2795 Y9.7367
N18410 X3.2755 Y9.7263
N18415 X3.2722 Y9.7169
N18420 X3.2704 Y9.7121 Z1.3931
N18425 X3.2682 Y9.7075 Z1.3939
N18430 X3.2657 Y9.703 Z1.395
N18435 X3.2629 Y9.6988 Z1.3968
N18440 X3.2598 Y9.6948 Z1.399
N18445 X3.2564 Y9.691 Z1.4016
N18450 X3.2527 Y9.6874 Z1.4046
N18455 X3.2487 Y9.684 Z1.4078
N18460 X3.2447 Y9.6806 Z1.4107
N18465 X3.2413 Y9.677 Z1.4132
N18470 X3.2382 Y9.6731 Z1.4154
N18475 X3.2356 Y9.669 Z1.4171
N18480 X3.2335 Y9.6646 Z1.4184
N18485 X3.2318 Y9.66 Z1.4193
N18490 X3.2306 Y9.6551 Z1.4199
N18495 X3.2298 Y9.65 Z1.4202
N18500 X3.2292 Y9.6441
N18505 X3.2284 Y9.6334
N18510 X3.228 Y9.6229
N18515 X3.2278 Y8.7375
N18520 X3.2281 Y8.7246
N18525 X3.2286 Y8.714
N18530 X3.2295 Y8.7034
N18535 X3.2306 Y8.6926
N18540 X3.2322 Y8.6818
N18545 X3.234 Y8.671
N18550 X3.2363 Y8.6601
N18555 X3.2389 Y8.6491
N18560 X3.2418 Y8.6382
N18565 X3.2451 Y8.6273
N18570 X3.2488 Y8.6164
N18575 X3.2529 Y8.6055
N18580 X3.2574 Y8.5947
N18585 X3.2622 Y8.584
N18590 X3.2674 Y8.5735
N18595 X3.273 Y8.563
N18600 X3.279 Y8.5527
N18605 X3.2853 Y8.5425
N18610 X3.292 Y8.5325
N18615 X3.299 Y8.5227
N18620 X3.3064 Y8.5131
N18625 X3.3141 Y8.5038
N18630 X3.3221 Y8.4947
N18635 X3.3305 Y8.4859
N18640 X3.3391 Y8.4774
N18645 X3.348 Y8.4692
N18650 X3.3572 Y8.4613
N18655 X3.3666 Y8.4537
N18660 X3.3762 Y8.4464
N18665 X3.3861 Y8.4395
N18670 X3.3961 Y8.433
N18675 X3.4064 Y8.4268
N18680 X3.4168 Y8.4209
N18685 X3.4273 Y8.4155
N18690 X3.4379 Y8.4104
N18695 X3.4486 Y8.4057
N18700 X3.4594 Y8.4014
N18705 X3.4703 Y8.3975
N18710 X3.4812 Y8.3939
N18715 X3.4922 Y8.3907
N18720 X3.5031 Y8.3879
N18725 X3.514 Y8.3854
N18730 X3.5249 Y8.3833
N18735 X3.5357 Y8.3816
N18740 X3.5465 Y8.3802
N18745 X3.5572 Y8.3791
N18750 X3.5678 Y8.3784
N18755 X3.5783 Y8.3779
N18760 X3.5888 Y8.3778
N18765 X3.5992 Y8.378
N18770 X3.6097 Y8.3785
N18775 X3.6204 Y8.3793
N18780 X3.6311 Y8.3805
N18785 X3.6419 Y8.382
N18790 X3.6527 Y8.3838
N18795 X3.6636 Y8.386
N18800 X3.6746 Y8.3885
N18805 X3.6855 Y8.3914
N18810 X3.6964 Y8.3947
N18815 X3.7073 Y8.3984
N18820 X3.7182 Y8.4024
N18825 X3.729 Y8.4068
N18830 X3.7397 Y8.4116
N18835 X3.7503 Y8.4168
N18840 X3.7608 Y8.4223
N18845 X3.7711 Y8.4282
N18850 X3.7813 Y8.4345
N18855 X3.7913 Y8.4411
N18860 X3.8011 Y8.4481
N18865 X3.8107 Y8.4555
N18870 X3.8201 Y8.4631
N18875 X3.8292 Y8.4711
N18880 X3.838 Y8.4794
N18885 X3.8466 Y8.488
N18890 X3.8548 Y8.4969
N18895 X3.8628 Y8.506
N18900 X3.8704 Y8.5154
N18905 X3.8777 Y8.5251
N18910 X3.8847 Y8.5349
N18915 X3.8913 Y8.5449
N18920 X3.8975 Y8.5551
N18925 X3.9034 Y8.5655
N18930 X3.9089 Y8.576
N18935 X3.914 Y8.5866
N18940 X3.9187 Y8.5973
N18945 X3.9231 Y8.6081
N18950 X3.9271 Y8.619
N18955 X3.9307 Y8.6299
N18960 X3.9339 Y8.6408
N18965 X3.9368 Y8.6518
N18970 X3.9393 Y8.6627
N18975 X3.9414 Y8.6736
N18980 X3.9432 Y8.6844
N18985 X3.9447 Y8.6952
N18990 X3.9458 Y8.7059
N18995 X3.9466 Y8.7166
N19000 X3.947 Y8.7271
N19005 X3.9472 Y8.7375
N19010 Y9.6125
N19015 X3.9469 Y9.6254
N19020 X3.9464 Y9.636
N19025 X3.9455 Y9.6466
N19030 X3.9444 Y9.6574
N19035 X3.9428 Y9.6682
N19040 X3.941 Y9.679
N19045 X3.9387 Y9.6899
N19050 X3.9361 Y9.7009
N19055 X3.9332 Y9.7118
N19060 X3.9299 Y9.7227
N19065 X3.9262 Y9.7336
N19070 X3.9221 Y9.7445
N19075 X3.9176 Y9.7553
N19080 X3.9128 Y9.766
N19085 X3.9076 Y9.7765
N19090 X3.902 Y9.787
N19095 X3.896 Y9.7973
N19100 X3.8897 Y9.8075
N19105 X3.883 Y9.8175
N19110 X3.876 Y9.8273
N19115 X3.8686 Y9.8369
N19120 X3.8609 Y9.8462
N19125 X3.8529 Y9.8553
N19130 X3.8445 Y9.8641
N19135 X3.8359 Y9.8726
N19140 X3.827 Y9.8808
N19145 X3.8178 Y9.8887
N19150 X3.8084 Y9.8963
N19155 X3.7988 Y9.9036
N19160 X3.7889 Y9.9105
N19165 X3.7789 Y9.917
N19170 X3.7686 Y9.9232
N19175 X3.7582 Y9.9291
N19180 X3.7477 Y9.9345
N19185 X3.7371 Y9.9396
N19190 X3.7264 Y9.9443
N19195 X3.7155 Y9.9486
N19200 X3.7047 Y9.9525
N19205 X3.6938 Y9.9561
N19210 X3.6828 Y9.9593
N19215 X3.6719 Y9.9621
N19220 X3.661 Y9.9646
N19225 X3.6501 Y9.9667
N19230 X3.6393 Y9.9684
N19235 X3.6285 Y9.9698
N19240 X3.6178 Y9.9709
N19245 X3.6072 Y9.9716
N19250 X3.5967 Y9.972
N19255 X3.5862 Y9.9722
N19260 X3.5758 Y9.972
N19265 X3.5653 Y9.9715
N19270 X3.5546 Y9.9707
N19275 X3.5439 Y9.9695
N19280 X3.5331 Y9.968
N19285 X3.5223 Y9.9662
N19290 X3.5114 Y9.964
N19295 X3.5004 Y9.9615
N19300 X3.4895 Y9.9586
N19305 X3.4786 Y9.9553
N19310 X3.4677 Y9.9516
N19315 X3.4568 Y9.9476
N19320 X3.446 Y9.9432
N19325 X3.4353 Y9.9384
N19330 X3.4247 Y9.9332
N19335 X3.4142 Y9.9277
N19340 X3.4039 Y9.9218
N19345 X3.3937 Y9.9155
N19350 X3.3837 Y9.9089
N19355 X3.3739 Y9.9019
N19360 X3.3643 Y9.8945
N19365 X3.3549 Y9.8869
N19370 X3.3458 Y9.8789
N19375 X3.337 Y9.8706
N19380 X3.3284 Y9.862
N19385 X3.3202 Y9.8531
N19390 X3.3122 Y9.844
N19395 X3.3046 Y9.8346
N19400 X3.2973 Y9.8249
N19405 X3.2903 Y9.8151
N19410 X3.2837 Y9.8051
N19415 X3.2775 Y9.7949
N19420 X3.2716 Y9.7845
N19425 X3.2661 Y9.774
N19430 X3.261 Y9.7634
N19435 X3.2563 Y9.7527
N19440 X3.2519 Y9.7419
N19445 X3.2479 Y9.731
N19450 X3.2443 Y9.7201
N19455 X3.2411 Y9.7092
N19460 X3.2382 Y9.6982
N19465 X3.2357 Y9.6873
N19470 X3.2336 Y9.6764
N19475 X3.2318 Y9.6656
N19480 X3.2303 Y9.6548
N19485 X3.2298 Y9.65
N19490 X3.2291 Y9.6449 Z1.4203
N19495 X3.2279 Y9.6399 Z1.4209
N19500 X3.2264 Y9.635 Z1.4221
N19505 X3.2244 Y9.6303 Z1.4235
N19510 X3.2221 Y9.6257 Z1.4253
N19515 X3.2193 Y9.6213 Z1.4275
N19520 X3.2162 Y9.6171 Z1.4298
N19525 X3.2126 Y9.613 Z1.4325
N19530 X3.209 Y9.6089 Z1.4352
N19535 X3.206 Y9.6046 Z1.4376
N19540 X3.2034 Y9.6002 Z1.4395
N19545 X3.2013 Y9.5957 Z1.4411
N19550 X3.1996 Y9.5909 Z1.4422
N19555 X3.1984 Y9.5861 Z1.4431
N19560 X3.1977 Y9.581 Z1.4437
N19565 X3.1975 Y9.5758 Z1.4438
N19570 X3.1973 Y8.7375
N19575 X3.1976 Y8.7225
N19580 X3.1982 Y8.7115
N19585 X3.1991 Y8.7004
N19590 X3.2003 Y8.6892
N19595 X3.2019 Y8.678
N19600 X3.2038 Y8.6667
N19605 X3.2061 Y8.6553
N19610 X3.2087 Y8.644
N19615 X3.2117 Y8.6326
N19620 X3.2151 Y8.6212
N19625 X3.2188 Y8.6099
N19630 X3.2229 Y8.5985
N19635 X3.2274 Y8.5873
N19640 X3.2323 Y8.5761
N19645 X3.2375 Y8.565
N19650 X3.2432 Y8.5541
N19655 X3.2491 Y8.5432
N19660 X3.2555 Y8.5326
N19665 X3.2622 Y8.522
N19670 X3.2693 Y8.5117
N19675 X3.2767 Y8.5016
N19680 X3.2845 Y8.4917
N19685 X3.2926 Y8.482
N19690 X3.301 Y8.4726
N19695 X3.3097 Y8.4635
N19700 X3.3188 Y8.4547
N19705 X3.328 Y8.4461
N19710 X3.3376 Y8.4379
N19715 X3.3474 Y8.43
N19720 X3.3574 Y8.4224
N19725 X3.3677 Y8.4152
N19730 X3.3781 Y8.4083
N19735 X3.3887 Y8.4018
N19740 X3.3995 Y8.3956
N19745 X3.4104 Y8.3899
N19750 X3.4214 Y8.3845
N19755 X3.4326 Y8.3794
N19760 X3.4438 Y8.3748
N19765 X3.4551 Y8.3705
N19770 X3.4664 Y8.3666
N19775 X3.4778 Y8.3631
N19780 X3.4891 Y8.3599
N19785 X3.5005 Y8.3572
N19790 X3.5119 Y8.3547
N19795 X3.5232 Y8.3527
N19800 X3.5345 Y8.351
N19805 X3.5457 Y8.3496
N19810 X3.5568 Y8.3486
N19815 X3.5678 Y8.3478
N19820 X3.5788 Y8.3474
N19825 X3.5896
N19830 X3.6004 Y8.3476
N19835 X3.6114 Y8.3481
N19840 X3.6225 Y8.3489
N19845 X3.6336 Y8.3501
N19850 X3.6449 Y8.3516
N19855 X3.6562 Y8.3534
N19860 X3.6675 Y8.3556
N19865 X3.6789 Y8.3582
N19870 X3.6902 Y8.3611
N19875 X3.7016 Y8.3644
N19880 X3.713 Y8.3681
N19885 X3.7243 Y8.3721
N19890 X3.7355 Y8.3765
N19895 X3.7467 Y8.3813
N19900 X3.7578 Y8.3865
N19905 X3.7688 Y8.392
N19910 X3.7797 Y8.398
