%
(1001)
(MACHINE)
(  DESCRIPTION CNC ROUTER)
(T2 D=0.25 CR=0. - ZMIN=0.4182 - FLAT END MILL)
N10 G90 G94 G17 (G91.1)
N15 G20
(WHEN USING FUSION 360 FOR PERSONAL USE, THE FEEDRATE OF)
(RAPID MOVES IS REDUCED TO MATCH THE FEEDRATE OF CUTTING)
(MOVES, WHICH CAN INCREASE MACHINING TIME. UNRESTRICTED RAPID)
(MOVES ARE AVAILABLE WITH A FUSION 360 SUBSCRIPTION.)
N20 G53 G0 Z0.
(2D ADAPTIVE3)
N25 T2 M6
N30 S24000 M3
N35 G54
N40 G61.1
N45 G0 X1.1625 Y1.0929
N50 G43 Z1.7 H2
N55 G1 Z1.5205 F80.
N60 Z0.8119 F40.
N65 X1.1629 F72.
N70 X1.1627 Y1.0932
N75 X1.1624 Y1.0933
N80 X1.1621 Y1.093
N85 Y1.0926
N90 X1.1624 Y1.0923
N95 X1.1627 Y1.0922
N100 X1.1631 Y1.0923
N105 X1.1633 Y1.0925
N110 X1.1635 Y1.0929
N115 Y1.0932
N120 X1.1634 Y1.0936
N125 X1.1631 Y1.0939
N130 X1.1628 Y1.094
N135 X1.1624 Y1.0941
N140 X1.162
N145 X1.1617 Y1.0939
N150 X1.1614 Y1.0936
N155 X1.161 Y1.093
N160 Y1.0923
N165 X1.1613 Y1.0916
N170 X1.1618 Y1.091
N175 X1.1625 Y1.0908
N180 X1.1632 Y1.0907
N185 X1.164 Y1.091
N190 X1.1646 Y1.0914
N195 X1.165 Y1.092
N200 X1.1653 Y1.0927
N205 Y1.0934 F80.
N210 X1.1651 Y1.0949 F72.
N215 X1.1641 Y1.0961
N220 X1.1627 Y1.0967 F80.
N225 X1.1612
N230 X1.1598 Y1.0961
N235 X1.1587 Y1.0951
N240 X1.1579 Y1.0936 F72.
N245 X1.1577 Y1.0918
N250 X1.1581 Y1.0901
N255 X1.159 Y1.0886
N260 X1.1604 Y1.0875
N265 X1.162 Y1.087
N270 G3 X1.17 Y1.0952 I0.0013 J0.0067
N275 X1.1572 Y1.1014 I-0.0086 J-0.0015
N280 X1.153 Y1.0848 I0.0047 J-0.01
N285 X1.1728 Y1.0818 I0.0113 J0.0076 F80.
N290 X1.1766 Y1.1045 I-0.0097 J0.0133
N295 X1.1501 Y1.1106 I-0.0164 J-0.0108
N300 X1.139 Y1.0845 I0.011 J-0.0201
N305 X1.1659 Y1.0643 I0.0258 J0.0064
N310 X1.195 Y1.0871 I-0.0004 J0.0305
N315 X1.1796 Y1.1264 I-0.0336 J0.0095
N320 X1.1361 Y1.1257 I-0.0212 J-0.0331
N325 X1.1177 Y1.0781 I0.0244 J-0.0368
N330 X1.1572 Y1.0408 I0.048 J0.0112
N335 X1.2128 Y1.064 I0.0102 J0.0537
N340 X1.2163 Y1.1268 I-0.0494 J0.0343
N345 X1.1572 Y1.1622 I-0.0584 J-0.0305
N350 X1.0931 Y1.123 I0. J-0.0719
N355 X1.0957 Y1.0459 I0.069 J-0.0363
N360 X1.1682 Y1.0051 I0.0722 J0.0434
N365 X1.2429 Y1.0438 I0.0006 J0.0904
N370 X1.2548 Y1.1329 I-0.0789 J0.0559
N375 X1.1907 Y1.1958 I-0.0969 J-0.0346
N380 X1.0963 Y1.1844 I-0.0354 J-0.1032
N385 X1.0433 Y1.0988 I0.0619 J-0.0975
N390 X1.0735 Y1.0045 I0.121 J-0.0133
N395 X1.168 Y0.9613 I0.0959 J0.0847
N400 X1.2619 Y0.9978 I0.0021 J0.1338
N405 X1.3053 Y1.0843 I-0.0954 J0.1019
N410 X1.2814 Y1.182 I-0.1443 J0.0165
N415 X1.241 Y1.2227 I-0.1239 J-0.0827
N420 X1.1376 Y1.2482 I-0.0864 J-0.1276
N425 X1.0462 Y1.2064 I0.0172 J-0.1583
N430 X0.9986 Y1.1258 I0.1117 J-0.1204
N435 X1.0027 Y1.0295 I0.1641 J-0.0412
N440 X1.0515 Y0.956 I0.1643 J0.0562
N445 X1.1208 Y0.9178 I0.1184 J0.1326
N450 X1.2015 Y0.9133 I0.0503 J0.1745
N455 X1.2678 Y0.9382 I-0.0308 J0.1825
N460 X1.3132 Y0.9774 I-0.0986 J0.1602
N465 X1.3396 Y1.0184 I-0.146 J0.1227
N470 G1 X1.3445 Y1.0297
N475 X1.3487 Y1.0413
N480 X1.3522 Y1.0532
N485 X1.3549 Y1.0653
N490 X1.3568 Y1.0776
N495 X1.3579 Y1.09
N500 X1.3583 Y1.1026
N505 X1.3578 Y1.1151
N510 X1.3565 Y1.1276
N515 X1.3545 Y1.1401
N520 X1.3516 Y1.1524
N525 X1.3479 Y1.1646
N530 X1.3435 Y1.1765
N535 X1.3382 Y1.1882
N540 X1.3323 Y1.1995
N545 X1.3256 Y1.2105
N550 X1.3181 Y1.221
N555 X1.31 Y1.2311
N560 X1.3013 Y1.2406
N565 X1.2919 Y1.2496
N570 X1.282 Y1.258
N575 X1.2715 Y1.2658
N580 X1.2605 Y1.2729
N585 X1.249 Y1.2793
N590 X1.2371 Y1.285
N595 X1.2249 Y1.2899
N600 X1.2123 Y1.294
N605 X1.1994 Y1.2974
N610 X1.1864 Y1.2999
N615 X1.1731 Y1.3015
N620 X1.1598 Y1.3024
N625 X1.1463 Y1.3023
N630 X1.1329 Y1.3014
N635 X1.1195 Y1.2997
N640 X1.1063 Y1.297
N645 X1.0932 Y1.2936
N650 X1.0803 Y1.2893
N655 X1.0676 Y1.2841
N660 X1.0553 Y1.2781
N665 X1.0434 Y1.2714
N670 X1.0319 Y1.2639
N675 X1.0209 Y1.2556
N680 X1.0104 Y1.2466
N685 X1.0004 Y1.237
N690 X0.9911 Y1.2267
N695 X0.9824 Y1.2158
N700 X0.9745 Y1.2043
N705 X0.9672 Y1.1923
N710 X0.9607 Y1.1798
N715 X0.9589 Y1.1756
N720 X0.9554 Y1.1659
N725 X0.9532 Y1.1557
N730 X0.9525 Y1.1454
N735 Y1.0854
N740 G3 X0.9534 Y1.0479 I0.534 J-0.0054
N745 G1 X0.9568 Y1.0273
N750 X0.9588 Y1.0165
N755 X0.9616 Y1.0056
N760 X0.9652 Y0.9944
N765 X0.9697 Y0.9831
N770 X0.9751 Y0.9719
N775 X0.9813 Y0.9607
N780 X0.9883 Y0.9498
N785 X0.9961 Y0.9392
N790 X1.0047 Y0.929
N795 X1.014 Y0.9192
N800 X1.0241 Y0.9099
N805 X1.035 Y0.9012
N810 X1.0465 Y0.893
N815 X1.0586 Y0.8856
N820 X1.0713 Y0.8789
N825 X1.0845 Y0.8729
N830 X1.0981 Y0.8678
N835 X1.1122 Y0.8635
N840 X1.1266 Y0.8601
N845 X1.1412 Y0.8576
N850 X1.1561 Y0.8561
N855 X1.1711 Y0.8555
N860 X1.1861 Y0.8559
N865 X1.2012 Y0.8572
N870 G3 X1.2164 Y0.8601 I-0.0133 J0.1102
N875 X1.2325 Y0.8916 Z0.8199 I-0.0077 J0.0238
N880 X1.2232 Y0.9043 I-0.0238 J-0.0077
N885 G1 X0.993 Y1.0687
N890 G3 X0.978 Y1.0733 I-0.0145 J-0.0203
N895 X0.9535 Y1.0479 Z0.8119 I0.0004 J-0.025
N900 X0.9596 Y1.0105 I0.2511 J0.0218
N905 X0.9808 Y0.958 I0.2142 J0.056
N910 X0.9958 Y0.9355 I0.2991 J0.1839
N915 G1 X1.0032 Y0.9266
N920 X1.0083 Y0.9206
N925 G3 X1.0325 Y0.8981 I0.1836 J0.1731
N930 G1 X1.0481 Y0.8868
N935 G3 X1.0706 Y0.8742 I0.1423 J0.2256
N940 G1 X1.0841 Y0.8681
N945 G3 X1.123 Y0.8568 I0.0846 J0.2181
N950 X1.1755 Y0.8532 I0.0412 J0.219
N955 G1 X1.1905 Y0.8547
N960 G3 X1.2429 Y0.869 I-0.032 J0.2216
N965 X1.2729 Y0.8843 I-0.1275 J0.2863
N970 X1.2953 Y0.9007 I-0.1236 J0.1926
N975 X1.323 Y0.928 I-0.0987 J0.1274
N980 G1 X1.3291 Y0.9355
N985 G3 X1.3442 Y0.9581 I-0.1316 J0.1046
N990 G1 X1.3519 Y0.973
N995 G3 X1.3715 Y1.0479 I-0.1937 J0.0905
N1000 X1.3725 Y1.0854 I-0.4509 J0.0307
N1005 G1 Y1.1794
N1010 G3 X1.3646 Y1.2226 I-0.1351 J-0.0024
N1015 G1 X1.3608 Y1.2323
N1020 X1.3563 Y1.242
N1025 X1.351 Y1.2518
N1030 X1.3447 Y1.2618
N1035 X1.3374 Y1.2719
N1040 X1.3292 Y1.2818
N1045 X1.3202 Y1.2914
N1050 X1.3103 Y1.3006
N1055 X1.2995 Y1.3095
N1060 X1.2878 Y1.318
N1065 X1.2753 Y1.3258
N1070 X1.262 Y1.333
N1075 X1.248 Y1.3395
N1080 X1.2335 Y1.3451
N1085 X1.2184 Y1.3498
N1090 X1.2029 Y1.3536
N1095 X1.187 Y1.3565
N1100 X1.1708 Y1.3583
N1105 X1.1544 Y1.3591
N1110 X1.1378 Y1.3588
N1115 X1.1212 Y1.3575
N1120 X1.1045 Y1.3551
N1125 X1.088 Y1.3516
N1130 X1.0716 Y1.347
N1135 X1.0555 Y1.3414
N1140 X1.0397 Y1.3347
N1145 X1.0243 Y1.327
N1150 X1.0094 Y1.3183
N1155 X0.995 Y1.3086
N1160 X0.9812 Y1.298
N1165 X0.978 Y1.2952
N1170 X0.9692 Y1.286
N1175 X0.9621 Y1.2755
N1180 X0.9568 Y1.2639
N1185 X0.9536 Y1.2515
N1190 X0.9525 Y1.2388
N1195 Y1.1454
N1200 G3 X0.9783 Y1.1213 Z0.8199 I0.025 J0.0009
N1205 G1 X0.9798
N1210 X1.3467 Y1.1551
N1215 X1.3498 Y1.1554 Z0.8193
N1220 G3 X1.3725 Y1.1794 Z0.8119 I-0.0023 J0.0249
N1225 G1 Y1.2543
N1230 G3 X1.3663 Y1.2869 I-0.1034 J-0.0029
N1235 X1.3493 Y1.3202 I-0.1364 J-0.0486
N1240 G1 X1.3429 Y1.3291
N1245 X1.3353 Y1.3383
N1250 X1.3267 Y1.3474
N1255 X1.3173 Y1.3562
N1260 X1.3066 Y1.365
N1265 X1.2947 Y1.3735
N1270 X1.2818 Y1.3816
N1275 X1.2681 Y1.3891
N1280 X1.2535 Y1.3958
N1285 X1.2378 Y1.4019
N1290 X1.2212 Y1.4071
N1295 X1.2038 Y1.4114
N1300 X1.1857 Y1.4146
N1305 X1.167 Y1.4167
N1310 X1.148 Y1.4176
N1315 X1.1287 Y1.4173
N1320 X1.1092 Y1.4157
N1325 X1.0896 Y1.4129
N1330 X1.07 Y1.4088
N1335 X1.0505 Y1.4033
N1340 X1.0312 Y1.3966
N1345 X1.0134 Y1.389
N1350 X0.998 Y1.3813
N1355 X0.9856 Y1.3741
N1360 X0.9743 Y1.3648
N1365 X0.9651 Y1.3535
N1370 X0.9582 Y1.3405
N1375 X0.9539 Y1.3265
N1380 X0.9525 Y1.3119
N1385 Y1.2388
N1390 G3 X0.9783 Y1.2147 Z0.8199 I0.025 J0.0009
N1395 G1 X0.9785
N1400 X1.3467 Y1.2301
N1405 X1.3486 Y1.2302 Z0.8196
N1410 G3 X1.3725 Y1.2543 Z0.8119 I-0.001 J0.025
N1415 G1 Y1.3176
N1420 G3 X1.3668 Y1.3471 I-0.0952 J-0.0032
N1425 G1 X1.3639 Y1.3545
N1430 G3 X1.3445 Y1.3872 I-0.1368 J-0.0592
N1435 G1 X1.3373 Y1.396
N1440 X1.3288 Y1.405
N1445 X1.3195 Y1.4136
N1450 X1.3089 Y1.4224
N1455 X1.2969 Y1.4311
N1460 X1.2838 Y1.4392
N1465 X1.2697 Y1.4469
N1470 X1.2542 Y1.454
N1475 X1.2374 Y1.4605
N1480 X1.2194 Y1.4662
N1485 X1.2006 Y1.4708
N1490 X1.1811 Y1.4743
N1495 X1.1607 Y1.4766
N1500 X1.1399 Y1.4776
N1505 X1.119 Y1.4773
N1510 X1.0982 Y1.4757
N1515 X1.0775 Y1.4729
N1520 X1.0571 Y1.4688
N1525 X1.0369 Y1.4636
N1530 X1.021 Y1.4584
N1535 X1.0064 Y1.4526
N1540 X0.9945 Y1.4469
N1545 X0.991 Y1.4449
N1550 X0.98 Y1.4375
N1555 X0.9705 Y1.4282
N1560 X0.9628 Y1.4174
N1565 X0.9572 Y1.4054
N1570 X0.9537 Y1.3926
N1575 X0.9525 Y1.3794
N1580 Y1.3119
N1585 G3 X0.9779 Y1.2878 Z0.8199 I0.025 J0.0009
N1590 G1 X0.9783
N1595 X1.3467 Y1.2934
N1600 X1.3479 Y1.2935 Z0.8197
N1605 G3 X1.3725 Y1.3176 Z0.8119 I-0.0004 J0.025
N1610 G1 Y1.3775
N1615 G3 X1.3669 Y1.406 I-0.0926 J-0.0034
N1620 X1.351 Y1.4372 I-0.1271 J-0.0453
N1625 G1 X1.345 Y1.4455
N1630 X1.3377 Y1.4543
N1635 X1.3292 Y1.4633
N1640 X1.3199 Y1.472
N1645 X1.3091 Y1.481
N1650 X1.2967 Y1.4899
N1655 X1.2835 Y1.4982
N1660 X1.2688 Y1.5061
N1665 X1.2524 Y1.5137
N1670 X1.2347 Y1.5205
N1675 X1.216 Y1.5264
N1680 X1.1961 Y1.5313
N1685 X1.1756 Y1.5349
N1690 X1.1549 Y1.5373
N1695 X1.1341 Y1.5384
N1700 X1.1132
N1705 X1.0924 Y1.5372
N1710 X1.0717 Y1.5348
N1715 X1.0511 Y1.5312
N1720 X1.034 Y1.5271
N1725 X1.0189 Y1.5224
N1730 X1.0057 Y1.5174
N1735 X0.9941 Y1.5121
N1740 X0.992 Y1.5109
N1745 X0.9808 Y1.5035
N1750 X0.971 Y1.4942
N1755 X0.9631 Y1.4833
N1760 X0.9573 Y1.4712
N1765 X0.9537 Y1.4582
N1770 X0.9525 Y1.4448
N1775 Y1.3794
N1780 G3 X0.9774 Y1.3553 Z0.8197 I0.025 J0.0009
N1785 G1 X0.9783 Z0.8199
N1790 X1.3467 Y1.3534
N1795 X1.3474 Z0.8198
N1800 G3 X1.3725 Y1.3775 Z0.8119 I0.0001 J0.025
N1805 G1 Y1.4341
N1810 G3 X1.364 Y1.472 I-0.0984 J-0.0021
N1815 G1 X1.3605 Y1.4797
N1820 X1.3562 Y1.4875
N1825 X1.3508 Y1.496
N1830 X1.3448 Y1.5044
N1835 X1.3374 Y1.5134
N1840 X1.3289 Y1.5225
N1845 X1.3193 Y1.5314
N1850 X1.3081 Y1.5406
N1855 X1.2956 Y1.5496
N1860 X1.2821 Y1.5581
N1865 X1.2667 Y1.5664
N1870 X1.2497 Y1.5743
N1875 X1.2313 Y1.5814
N1880 X1.2116 Y1.5876
N1885 X1.1913 Y1.5925
N1890 X1.1708 Y1.5962
N1895 X1.1501 Y1.5988
N1900 X1.1293 Y1.6001
N1905 X1.1084 Y1.6003
N1910 X1.0876 Y1.5993
N1915 X1.0669 Y1.5971
N1920 X1.0477 Y1.5938
N1925 X1.0312 Y1.59
N1930 X1.0176 Y1.5858
N1935 X1.0046 Y1.5809
N1940 X0.9937 Y1.576
N1945 X0.9924 Y1.5753
N1950 X0.981 Y1.5679
N1955 X0.9712 Y1.5586
N1960 X0.9632 Y1.5477
N1965 X0.9573 Y1.5356
N1970 X0.9537 Y1.5225
N1975 X0.9525 Y1.5091
N1980 Y1.4448
N1985 G3 X0.9768 Y1.4207 Z0.8196 I0.025 J0.0009
N1990 G1 X0.9783 Z0.8199
N1995 X1.3467 Y1.41
N2000 X1.3468
N2005 G3 X1.3725 Y1.4341 Z0.8119 I0.0007 J0.025
N2010 G1 Y1.494
N2015 G3 X1.3668 Y1.5237 I-0.0941 J-0.0025
N2020 G1 X1.364 Y1.5311
N2025 G3 X1.3445 Y1.5639 I-0.1374 J-0.0595
N2030 G1 X1.3369 Y1.5731
N2035 X1.3283 Y1.5822
N2040 X1.3185 Y1.5914
N2045 X1.3069 Y1.601
N2050 X1.2943 Y1.61
N2055 X1.2802 Y1.6189
N2060 X1.2643 Y1.6275
N2065 X1.2467 Y1.6356
N2070 X1.2276 Y1.643
N2075 X1.2077 Y1.6492
N2080 X1.1874 Y1.6542
N2085 X1.1669 Y1.658
N2090 X1.1462 Y1.6607
N2095 X1.1254 Y1.6621
N2100 X1.1046 Y1.6624
N2105 X1.0837 Y1.6615
N2110 X1.063 Y1.6594
N2115 X1.0454 Y1.6564
N2120 X1.0293 Y1.6526
N2125 X1.0164 Y1.6487
N2130 X1.0036 Y1.6439
N2135 X0.9931 Y1.6392
N2140 X0.9924 Y1.6389
N2145 X0.9811 Y1.6315
N2150 X0.9713 Y1.6222
N2155 X0.9633 Y1.6113
N2160 X0.9573 Y1.5991
N2165 X0.9537 Y1.5861
N2170 X0.9525 Y1.5726
N2175 Y1.5091
N2180 G3 X0.9765 Y1.485 Z0.8196 I0.025 J0.0009
N2185 G1 X0.9783 Y1.4849 Z0.8199
N2190 X1.3465 Y1.4699
N2195 X1.3467
N2200 G3 X1.3725 Y1.494 Z0.8119 I0.0009 J0.025
N2205 G1 Y1.5539
N2210 G3 X1.3668 Y1.5832 I-0.0944 J-0.0031
N2215 G1 X1.3639 Y1.5907
N2220 X1.3604 Y1.5984
N2225 X1.3559 Y1.6066
N2230 X1.3504 Y1.6153
N2235 X1.3441 Y1.624
N2240 X1.3363 Y1.6335
N2245 X1.3277 Y1.6426
N2250 X1.3175 Y1.6522
N2255 X1.3057 Y1.6619
N2260 X1.2929 Y1.6711
N2265 X1.2783 Y1.6803
N2270 X1.262 Y1.6891
N2275 X1.2439 Y1.6975
N2280 X1.2245 Y1.705
N2285 X1.2046 Y1.7112
N2290 X1.1843 Y1.7163
N2295 X1.1638 Y1.7201
N2300 X1.1432 Y1.7228
N2305 X1.1224 Y1.7243
N2310 X1.1015 Y1.7246
N2315 X1.0807 Y1.7238
N2320 X1.0602 Y1.7216
N2325 X1.0435 Y1.7188
N2330 X1.0278 Y1.7151
N2335 X1.0153 Y1.7113
N2340 X1.0027 Y1.7066
N2345 X0.9924 Y1.7019
N2350 X0.981 Y1.6945
N2355 X0.9712 Y1.6852
N2360 X0.9632 Y1.6743
N2365 X0.9573 Y1.6622
N2370 X0.9537 Y1.6491
N2375 X0.9525 Y1.6357
N2380 Y1.5726
N2385 G3 X0.9762 Y1.5485 Z0.8195 I0.025 J0.0009
N2390 G1 X0.9783 Y1.5484 Z0.8199
N2395 X1.3463 Y1.5298
N2400 X1.3467
N2405 G3 X1.3725 Y1.5539 Z0.8119 I0.0009 J0.025
N2410 G1 Y1.6097
N2415 G3 X1.3636 Y1.6511 I-0.1041 J-0.0008
N2420 G1 X1.36 Y1.6588
N2425 X1.3555 Y1.6672
N2430 X1.35 Y1.6759
N2435 X1.3435 Y1.6848
N2440 X1.3356 Y1.6944
N2445 X1.3269 Y1.7037
N2450 X1.3164 Y1.7135
N2455 X1.3045 Y1.7233
N2460 X1.2915 Y1.7327
N2465 X1.2766 Y1.742
N2470 X1.2599 Y1.7511
N2475 X1.2416 Y1.7595
N2480 X1.2222 Y1.767
N2485 X1.2023 Y1.7733
N2490 X1.182 Y1.7784
N2495 X1.1616 Y1.7822
N2500 X1.1409 Y1.785
N2505 X1.1201 Y1.7865
N2510 X1.0992 Y1.7869
N2515 X1.0784 Y1.786
N2520 X1.0583 Y1.7839
N2525 X1.0422 Y1.7812
N2530 X1.0268 Y1.7775
N2535 X1.0145 Y1.7738
N2540 X1.002 Y1.7691
N2545 X0.9966 Y1.7666
N2550 X0.9842 Y1.7595
N2555 X0.9734 Y1.7502
N2560 X0.9645 Y1.7389
N2565 X0.9579 Y1.7262
N2570 X0.9539 Y1.7125
N2575 X0.9525 Y1.6983
N2580 Y1.6357
N2585 G3 X0.9757 Y1.6116 Z0.8194 I0.025 J0.0009
N2590 G1 X0.9783 Y1.6114 Z0.8199
N2595 X1.3458 Y1.5857
N2600 X1.3461
N2605 X1.3464 Y1.5856
N2610 X1.3467
N2615 G3 X1.3725 Y1.6097 Z0.8119 I0.0009 J0.025
N2620 G1 Y1.6738
N2625 G3 X1.3667 Y1.7039 I-0.0968 J-0.0031
N2630 G1 X1.3637 Y1.7117
N2635 X1.3601 Y1.7195
N2640 X1.3554 Y1.7281
N2645 X1.3499 Y1.7368
N2650 X1.3433 Y1.746
N2655 X1.3353 Y1.7556
N2660 X1.3264 Y1.7651
N2665 X1.3157 Y1.7751
N2670 X1.3038 Y1.7849
N2675 X1.2905 Y1.7945
N2680 X1.2754 Y1.8039
N2685 X1.2585 Y1.8131
N2690 X1.24 Y1.8216
N2695 X1.2205 Y1.8291
N2700 X1.2006 Y1.8354
N2705 X1.1804 Y1.8405
N2710 X1.1599 Y1.8444
N2715 X1.1393 Y1.8472
N2720 X1.1185 Y1.8487
N2725 X1.0976 Y1.8491
N2730 X1.0768 Y1.8482
N2735 X1.0578 Y1.8462
N2740 X1.0409 Y1.8433
N2745 X1.0268 Y1.84
N2750 X1.0136 Y1.8359
N2755 X1.002 Y1.8315
N2760 X0.9965 Y1.8291
N2765 X0.9841 Y1.822
N2770 X0.9733 Y1.8126
N2775 X0.9645 Y1.8014
N2780 X0.9579 Y1.7887
N2785 X0.9539 Y1.775
N2790 X0.9525 Y1.7608
N2795 Y1.6983
N2800 G3 X0.9758 Y1.6742 Z0.8194 I0.025 J0.0009
N2805 G1 X0.9783 Y1.674 Z0.8199
N2810 X1.3459 Y1.6497
N2815 X1.3463
N2820 X1.3467
N2825 G3 X1.3725 Y1.6738 Z0.8119 I0.0009 J0.025
N2830 G1 Y1.7337
N2835 G3 X1.3666 Y1.7651 I-0.0986 J-0.0024
N2840 G1 X1.3636 Y1.7729
N2845 X1.3599 Y1.7807
N2850 X1.3552 Y1.7895
N2855 X1.3497 Y1.7982
N2860 X1.343 Y1.8075
N2865 X1.335 Y1.8171
N2870 X1.326 Y1.8267
N2875 X1.3152 Y1.8369
N2880 X1.3032 Y1.8467
N2885 X1.2897 Y1.8564
N2890 X1.2745 Y1.866
N2895 X1.2574 Y1.8752
N2900 X1.2388 Y1.8838
N2905 X1.2193 Y1.8913
N2910 X1.1995 Y1.8976
N2915 X1.1792 Y1.9027
N2920 X1.1587 Y1.9066
N2925 X1.1381 Y1.9094
N2930 X1.1173 Y1.9109
N2935 X1.0964 Y1.9113
N2940 X1.0756 Y1.9104
N2945 X1.057 Y1.9084
N2950 X1.0402 Y1.9055
N2955 X1.0263 Y1.9022
N2960 X1.0131 Y1.8981
N2965 X1.0016 Y1.8938
N2970 X0.9964 Y1.8914
N2975 X0.9841 Y1.8843
N2980 X0.9733 Y1.875
N2985 X0.9644 Y1.8637
N2990 X0.9579 Y1.8511
N2995 X0.9539 Y1.8374
N3000 X0.9525 Y1.8231
N3005 Y1.7608
N3010 G3 X0.9757 Y1.7367 Z0.8194 I0.025 J0.0009
N3015 G1 X0.9783 Y1.7365 Z0.8199
N3020 X1.3457 Y1.7097
N3025 X1.346 Y1.7096
N3030 X1.3463
N3035 X1.3467
N3040 G3 X1.3725 Y1.7337 Z0.8119 I0.0009 J0.025
N3045 G1 Y1.7936
N3050 G3 X1.3665 Y1.8265 I-0.1011 J-0.0015
N3055 X1.3495 Y1.8598 I-0.1364 J-0.0487
N3060 G1 X1.3427 Y1.8692
N3065 X1.3347 Y1.8789
N3070 X1.3256 Y1.8886
N3075 X1.3147 Y1.8988
N3080 X1.3027 Y1.9087
N3085 X1.2891 Y1.9184
N3090 X1.2738 Y1.9281
N3095 X1.2567 Y1.9373
N3100 X1.2379 Y1.946
N3105 X1.2185 Y1.9535
N3110 X1.1986 Y1.9598
N3115 X1.1784 Y1.9649
N3120 X1.1579 Y1.9688
N3125 X1.1372 Y1.9716
N3130 X1.1164 Y1.9731
N3135 X1.0956 Y1.9735
N3140 X1.0747 Y1.9726
N3145 X1.0564 Y1.9706
N3150 X1.0396 Y1.9677
N3155 X1.0259 Y1.9644
N3160 X1.0127 Y1.9603
N3165 X1.0013 Y1.9559
N3170 X0.9964 Y1.9537
N3175 X0.984 Y1.9466
N3180 X0.9732 Y1.9372
N3185 X0.9644 Y1.926
N3190 X0.9579 Y1.9133
N3195 X0.9539 Y1.8997
N3200 X0.9525 Y1.8855
N3205 Y1.8231
N3210 G3 X0.9755 Y1.7991 Z0.8194 I0.025 J0.0009
N3215 G1 X0.9783 Y1.7989 Z0.8199
N3220 X1.3455 Y1.7696
N3225 X1.3459
N3230 X1.3463 Y1.7695
N3235 X1.3467
N3240 G3 X1.3725 Y1.7936 Z0.8119 I0.0009 J0.025
N3245 G1 Y1.8569
N3250 G3 X1.3665 Y1.8881 I-0.0989 J-0.0028
N3255 G1 X1.3635 Y1.896
N3260 X1.3598 Y1.9039
N3265 X1.355 Y1.9128
N3270 X1.3495 Y1.9215
N3275 X1.3426 Y1.9311
N3280 X1.3346 Y1.9407
N3285 X1.3254 Y1.9505
N3290 X1.3144 Y1.9608
N3295 X1.3024 Y1.9707
N3300 X1.2888 Y1.9805
N3305 X1.2733 Y1.9902
N3310 X1.2562 Y1.9995
N3315 X1.2374 Y2.0081
N3320 X1.2179 Y2.0157
N3325 X1.198 Y2.0219
N3330 X1.1778 Y2.027
N3335 X1.1573 Y2.031
N3340 X1.1367 Y2.0337
N3345 X1.1159 Y2.0353
N3350 X1.095 Y2.0356
N3355 X1.0742 Y2.0347
N3360 X1.056 Y2.0327
N3365 X1.0393 Y2.0298
N3370 X1.0256 Y2.0265
N3375 X1.0125 Y2.0225
N3380 X1.0012 Y2.0181
N3385 X0.9963 Y2.0159
N3390 X0.984 Y2.0088
N3395 X0.9732 Y1.9995
N3400 X0.9644 Y1.9882
N3405 X0.9579 Y1.9756
N3410 X0.9539 Y1.9619
N3415 X0.9525 Y1.9477
N3420 Y1.8855
N3425 G3 X0.9756 Y1.8614 Z0.8194 I0.025 J0.0009
N3430 G1 X0.9783 Y1.8612 Z0.8199
N3435 X1.3456 Y1.8329
N3440 X1.346
N3445 X1.3463 Y1.8328
N3450 X1.3467
N3455 G3 X1.3725 Y1.8569 Z0.8119 I0.0009 J0.025
N3460 G1 Y1.9169
N3465 G3 X1.3664 Y1.95 I-0.1018 J-0.0015
N3470 G1 X1.3634 Y1.9579
N3475 X1.3597 Y1.9658
N3480 X1.3549 Y1.9747
N3485 X1.3493 Y1.9835
N3490 X1.3424 Y1.993
N3495 X1.3345 Y2.0027
N3500 X1.3252 Y2.0125
N3505 X1.3142 Y2.0228
N3510 X1.3022 Y2.0327
N3515 X1.2885 Y2.0426
N3520 X1.273 Y2.0523
N3525 X1.2558 Y2.0616
N3530 X1.237 Y2.0703
N3535 X1.2175 Y2.0778
N3540 X1.1976 Y2.0841
N3545 X1.1774 Y2.0892
N3550 X1.1569 Y2.0931
N3555 X1.1363 Y2.0959
N3560 X1.1155 Y2.0974
N3565 X1.0946 Y2.0978
N3570 X1.0739 Y2.0969
N3575 X1.0557 Y2.0949
N3580 X1.0391 Y2.092
N3585 X1.0255 Y2.0887
N3590 X1.0124 Y2.0846
N3595 X1.001 Y2.0803
N3600 X0.9963 Y2.0781
N3605 X0.984 Y2.071
N3610 X0.9732 Y2.0617
N3615 X0.9644 Y2.0505
N3620 X0.9579 Y2.0378
N3625 X0.9539 Y2.0241
N3630 X0.9525 Y2.0099
N3635 Y1.9477
N3640 G3 X0.9754 Y1.9237 Z0.8194 I0.025 J0.0009
N3645 G1 X0.9783 Y1.9234 Z0.8199
N3650 X1.3454 Y1.8928
N3655 X1.3458
N3660 X1.3463
N3665 X1.3467
N3670 G3 X1.3725 Y1.9169 Z0.8119 I0.0009 J0.025
N3675 G1 Y1.9809
N3680 G3 X1.3665 Y2.0118 I-0.099 J-0.0032
N3685 G1 X1.3635 Y2.0197
N3690 X1.3598 Y2.0277
N3695 X1.3549 Y2.0366
N3700 X1.3494 Y2.0454
N3705 X1.3424 Y2.055
N3710 X1.3345 Y2.0646
N3715 X1.3252 Y2.0745
N3720 X1.3141 Y2.0849
N3725 X1.3021 Y2.0948
N3730 X1.2884 Y2.1047
N3735 X1.2728 Y2.1144
N3740 X1.2556 Y2.1237
N3745 X1.2368 Y2.1324
N3750 X1.2173 Y2.1399
N3755 X1.1974 Y2.1462
N3760 X1.1772 Y2.1513
N3765 X1.1567 Y2.1553
N3770 X1.1361 Y2.158
N3775 X1.1153 Y2.1596
N3780 X1.0944 Y2.1599
N3785 X1.0737 Y2.159
N3790 X1.0556 Y2.157
N3795 X1.039 Y2.1541
N3800 X1.0254 Y2.1508
N3805 X1.0123 Y2.1468
N3810 X1.001 Y2.1425
N3815 X0.9963 Y2.1403
N3820 X0.984 Y2.1332
N3825 X0.9732 Y2.1238
N3830 X0.9644 Y2.1126
N3835 X0.9579 Y2.1
N3840 X0.9539 Y2.0863
N3845 X0.9525 Y2.0721
N3850 Y2.0099
N3855 G3 X0.9755 Y1.9859 Z0.8194 I0.025 J0.0009
N3860 G1 X0.9783 Y1.9857 Z0.8199
N3865 X1.3456 Y1.9569
N3870 X1.3459 Y1.9568
N3875 X1.3463
N3880 X1.3467
N3885 G3 X1.3725 Y1.9809 Z0.8119 I0.0009 J0.025
N3890 G1 Y2.0408
N3895 G3 X1.3664 Y2.0739 I-0.1018 J-0.0017
N3900 G1 X1.3634 Y2.0818
N3905 X1.3597 Y2.0898
N3910 X1.3548 Y2.0987
N3915 X1.3493 Y2.1075
N3920 X1.3423 Y2.1171
N3925 X1.3343 Y2.1267
N3930 X1.325 Y2.1367
N3935 X1.314 Y2.147
N3940 X1.3019 Y2.1569
N3945 X1.2882 Y2.1668
N3950 X1.2727 Y2.1765
N3955 X1.2554 Y2.1859
N3960 X1.2366 Y2.1946
N3965 X1.2171 Y2.2021
N3970 X1.1972 Y2.2084
N3975 X1.177 Y2.2135
N3980 X1.1565 Y2.2174
N3985 X1.1359 Y2.2202
N3990 X1.1151 Y2.2217
N3995 X1.0942 Y2.2221
N4000 X1.0735 Y2.2212
N4005 X1.0555 Y2.2192
N4010 X1.0389 Y2.2163
N4015 X1.0253 Y2.213
N4020 X1.0122 Y2.2089
N4025 X1.0009 Y2.2046
N4030 X0.9963 Y2.2025
N4035 X0.984 Y2.1953
N4040 X0.9732 Y2.186
N4045 X0.9644 Y2.1748
N4050 X0.9579 Y2.1621
N4055 X0.9539 Y2.1485
N4060 X0.9525 Y2.1343
N4065 Y2.0721
N4070 G3 X0.9754 Y2.0481 Z0.8193 I0.025 J0.0009
N4075 G1 X0.9783 Y2.0478 Z0.8199
N4080 X1.3454 Y2.0168
N4085 X1.3458
N4090 X1.3462
N4095 X1.3467 Y2.0167
N4100 G3 X1.3725 Y2.0408 Z0.8119 I0.0009 J0.025
N4105 G1 Y2.1041
N4110 G3 X1.3665 Y2.1358 I-0.1 J-0.0026
N4115 G1 X1.3634 Y2.1437
N4120 X1.3597 Y2.1518
N4125 X1.3549 Y2.1607
N4130 X1.3493 Y2.1695
N4135 X1.3423 Y2.1792
N4140 X1.3344 Y2.1888
N4145 X1.325 Y2.1987
N4150 X1.314 Y2.2091
N4155 X1.3019 Y2.219
N4160 X1.2882 Y2.2289
N4165 X1.2726 Y2.2387
N4170 X1.2553 Y2.248
N4175 X1.2365 Y2.2567
N4180 X1.217 Y2.2642
N4185 X1.1971 Y2.2705
N4190 X1.1769 Y2.2756
N4195 X1.1564 Y2.2796
N4200 X1.1358 Y2.2823
N4205 X1.115 Y2.2839
N4210 X1.0941 Y2.2842
N4215 X1.0734 Y2.2833
N4220 X1.0554 Y2.2813
N4225 X1.0388 Y2.2784
N4230 X1.0253 Y2.2751
N4235 X1.0122 Y2.2711
N4240 X1.0009 Y2.2668
N4245 X0.9963 Y2.2646
N4250 X0.9839 Y2.2575
N4255 X0.9732 Y2.2482
N4260 X0.9644 Y2.237
N4265 X0.9579 Y2.2243
N4270 X0.9539 Y2.2106
N4275 X0.9525 Y2.1964
N4280 Y2.1343
N4285 G3 X0.9755 Y2.1102 Z0.8194 I0.025 J0.0009
N4290 G1 X0.9783 Y2.11 Z0.8199
N4295 X1.3455 Y2.0801
N4300 X1.3459
N4305 X1.3463
N4310 X1.3467 Y2.08
N4315 G3 X1.3725 Y2.1041 Z0.8119 I0.0009 J0.025
N4320 G1 Y2.1641
N4325 G3 X1.3664 Y2.198 I-0.1033 J-0.0012
N4330 G1 X1.3633 Y2.2059
N4335 X1.3596 Y2.2139
N4340 X1.3547 Y2.2228
N4345 X1.3492 Y2.2316
N4350 X1.3422 Y2.2413
N4355 X1.3343 Y2.2509
N4360 X1.3249 Y2.2609
N4365 X1.3139 Y2.2712
N4370 X1.3018 Y2.2811
N4375 X1.2881 Y2.291
N4380 X1.2725 Y2.3008
N4385 X1.2552 Y2.3102
N4390 X1.2364 Y2.3189
N4395 X1.2169 Y2.3264
N4400 X1.197 Y2.3327
N4405 X1.1768 Y2.3378
N4410 X1.1563 Y2.3417
N4415 X1.1357 Y2.3444
N4420 X1.1149 Y2.346
N4425 X1.094 Y2.3464
N4430 X1.0734 Y2.3454
N4435 X1.0553 Y2.3434
N4440 X1.0388 Y2.3405
N4445 X1.0252 Y2.3373
N4450 X1.0121 Y2.3332
N4455 X1.0009 Y2.3289
N4460 X0.9963 Y2.3268
N4465 X0.9839 Y2.3196
N4470 X0.9732 Y2.3103
N4475 X0.9644 Y2.2991
N4480 X0.9579 Y2.2864
N4485 X0.9539 Y2.2728
N4490 X0.9525 Y2.2586
N4495 Y2.1964
N4500 G3 X0.9753 Y2.1724 Z0.8193 I0.025 J0.0009
N4505 G1 X0.9783 Y2.1721 Z0.8199
N4510 X1.3453 Y2.14
N4515 X1.3458
N4520 X1.3462
N4525 X1.3467
N4530 G3 X1.3725 Y2.1641 Z0.8119 I0.0009 J0.025
N4535 G1 Y2.2281
N4540 G3 X1.3665 Y2.26 I-0.1002 J-0.0025
N4545 G1 X1.3634 Y2.2679
N4550 X1.3597 Y2.2759
N4555 X1.3548 Y2.2849
N4560 X1.3493 Y2.2937
N4565 X1.3423 Y2.3034
N4570 X1.3343 Y2.313
N4575 X1.3249 Y2.3229
N4580 X1.3139 Y2.3333
N4585 X1.3018 Y2.3432
N4590 X1.2881 Y2.3532
N4595 X1.2725 Y2.3629
N4600 X1.2552 Y2.3723
N4605 X1.2363 Y2.381
N4610 X1.2169 Y2.3885
N4615 X1.197 Y2.3948
N4620 X1.1768 Y2.3999
N4625 X1.1563 Y2.4038
N4630 X1.1356 Y2.4066
N4635 X1.1148 Y2.4082
N4640 X1.094 Y2.4085
N4645 X1.0733 Y2.4076
N4650 X1.0553 Y2.4056
N4655 X1.0388 Y2.4027
N4660 X1.0252 Y2.3994
N4665 X1.0121 Y2.3953
N4670 X1.0009 Y2.391
N4675 X0.9963 Y2.3889
N4680 X0.9839 Y2.3818
N4685 X0.9732 Y2.3725
N4690 X0.9644 Y2.3613
N4695 X0.9579 Y2.3486
N4700 X0.9539 Y2.3349
N4705 X0.9525 Y2.3207
N4710 Y2.2586
N4715 G3 X0.9754 Y2.2345 Z0.8194 I0.025 J0.0009
N4720 G1 X0.9783 Y2.2343 Z0.8199
N4725 X1.3455 Y2.2041
N4730 X1.3459
N4735 X1.3463 Y2.204
N4740 X1.3467
N4745 G3 X1.3725 Y2.2281 Z0.8119 I0.0009 J0.025
N4750 G1 Y2.2914
N4755 G3 X1.3665 Y2.322 I-0.099 J-0.0035
N4760 G1 X1.3635 Y2.33
N4765 X1.3597 Y2.338
N4770 X1.3549 Y2.3469
N4775 X1.3493 Y2.3558
N4780 X1.3423 Y2.3655
N4785 X1.3343 Y2.3751
N4790 X1.325 Y2.3851
N4795 X1.3139 Y2.3954
N4800 X1.3018 Y2.4054
N4805 X1.2881 Y2.4153
N4810 X1.2725 Y2.4251
N4815 X1.2552 Y2.4344
N4820 X1.2363 Y2.4431
N4825 X1.2169 Y2.4506
N4830 X1.197 Y2.4569
N4835 X1.1768 Y2.462
N4840 X1.1563 Y2.466
N4845 X1.1356 Y2.4687
N4850 X1.1148 Y2.4703
N4855 X1.094 Y2.4706
N4860 X1.0733 Y2.4697
N4865 X1.0553 Y2.4677
N4870 X1.0388 Y2.4648
N4875 X1.0252 Y2.4616
N4880 X1.0121 Y2.4575
N4885 X1.0009 Y2.4532
N4890 X0.9963 Y2.4511
N4895 X0.9839 Y2.4439
N4900 X0.9732 Y2.4346
N4905 X0.9644 Y2.4234
N4910 X0.9579 Y2.4107
N4915 X0.9539 Y2.3971
N4920 X0.9525 Y2.3829
N4925 Y2.3207
N4930 G3 X0.9755 Y2.2967 Z0.8194 I0.025 J0.0009
N4935 G1 X0.9783 Y2.2965 Z0.8199
N4940 X1.3455 Y2.2674
N4945 X1.3459 Y2.2673
N4950 X1.3463
N4955 X1.3467
N4960 G3 X1.3725 Y2.2914 Z0.8119 I0.0009 J0.025
N4965 G1 Y2.3514
N4970 G3 X1.3664 Y2.3843 I-0.1017 J-0.0018
N4975 G1 X1.3634 Y2.3922
N4980 X1.3596 Y2.4002
N4985 X1.3548 Y2.4091
N4990 X1.3492 Y2.4179
N4995 X1.3422 Y2.4276
N5000 X1.3343 Y2.4373
N5005 X1.3249 Y2.4472
N5010 X1.3138 Y2.4576
N5015 X1.3018 Y2.4675
N5020 X1.288 Y2.4774
N5025 X1.2724 Y2.4872
N5030 X1.2551 Y2.4966
N5035 X1.2363 Y2.5053
N5040 X1.2168 Y2.5128
N5045 X1.1969 Y2.5191
N5050 X1.1767 Y2.5242
N5055 X1.1562 Y2.5281
N5060 X1.1356 Y2.5309
N5065 X1.1148 Y2.5324
N5070 X1.0939 Y2.5328
N5075 X1.0733 Y2.5318
N5080 X1.0553 Y2.5299
N5085 X1.0387 Y2.527
N5090 X1.0252 Y2.5237
N5095 X1.0121 Y2.5196
N5100 X1.0009 Y2.5153
N5105 X0.9963 Y2.5132
N5110 X0.9839 Y2.5061
N5115 X0.9732 Y2.4967
N5120 X0.9644 Y2.4855
N5125 X0.9579 Y2.4729
N5130 X0.9539 Y2.4592
N5135 X0.9525 Y2.445
N5140 Y2.3829
N5145 G3 X0.9754 Y2.3588 Z0.8193 I0.025 J0.0009
N5150 G1 X0.9783 Y2.3586 Z0.8199
N5155 X1.3454 Y2.3273
N5160 X1.3458
N5165 X1.3462
N5170 X1.3467 Y2.3272
N5175 G3 X1.3725 Y2.3514 Z0.8119 I0.0009 J0.025
N5180 G1 Y2.4154
N5185 G3 X1.3665 Y2.4463 I-0.0993 J-0.0033
N5190 G1 X1.3635 Y2.4542
N5195 X1.3597 Y2.4623
N5200 X1.3549 Y2.4712
N5205 X1.3493 Y2.48
N5210 X1.3423 Y2.4897
N5215 X1.3343 Y2.4993
N5220 X1.325 Y2.5093
N5225 X1.3139 Y2.5197
N5230 X1.3018 Y2.5296
N5235 X1.288 Y2.5395
N5240 X1.2725 Y2.5493
N5245 X1.2551 Y2.5587
N5250 X1.2363 Y2.5674
N5255 X1.2168 Y2.5749
N5260 X1.1969 Y2.5812
N5265 X1.1767 Y2.5863
N5270 X1.1562 Y2.5902
N5275 X1.1356 Y2.593
N5280 X1.1148 Y2.5946
N5285 X1.0939 Y2.5949
N5290 X1.0733 Y2.594
N5295 X1.0553 Y2.592
N5300 X1.0387 Y2.5891
N5305 X1.0252 Y2.5858
N5310 X1.0121 Y2.5818
N5315 X1.0009 Y2.5775
N5320 X0.9963 Y2.5753
N5325 X0.9839 Y2.5682
N5330 X0.9732 Y2.5589
N5335 X0.9644 Y2.5477
N5340 X0.9579 Y2.535
N5345 X0.9539 Y2.5213
N5350 X0.9525 Y2.5072
N5355 Y2.445
N5360 G3 X0.9755 Y2.421 Z0.8194 I0.025 J0.0009
N5365 G1 X0.9783 Y2.4207 Z0.8199
N5370 X1.3455 Y2.3914
N5375 X1.3459 Y2.3913
N5380 X1.3463
N5385 X1.3467
N5390 G3 X1.3725 Y2.4154 Z0.8119 I0.0009 J0.025
N5395 G1 Y2.4753
N5400 G3 X1.3664 Y2.5085 I-0.1021 J-0.0016
N5405 G1 X1.3633 Y2.5164
N5410 X1.3596 Y2.5245
N5415 X1.3548 Y2.5334
N5420 X1.3492 Y2.5422
N5425 X1.3422 Y2.5519
N5430 X1.3342 Y2.5615
N5435 X1.3249 Y2.5715
N5440 X1.3138 Y2.5818
N5445 X1.3018 Y2.5918
N5450 X1.288 Y2.6017
N5455 X1.2724 Y2.6115
N5460 X1.2551 Y2.6208
N5465 X1.2362 Y2.6295
N5470 X1.2168 Y2.6371
N5475 X1.1969 Y2.6433
N5480 X1.1767 Y2.6485
N5485 X1.1562 Y2.6524
N5490 X1.1355 Y2.6551
N5495 X1.1147 Y2.6567
N5500 X1.0939 Y2.657
N5505 X1.0733 Y2.6561
N5510 X1.0553 Y2.6541
N5515 X1.0387 Y2.6512
N5520 X1.0252 Y2.648
N5525 X1.0121 Y2.6439
N5530 X1.0009 Y2.6396
N5535 X0.9963 Y2.6375
N5540 X0.9839 Y2.6304
N5545 X0.9732 Y2.621
N5550 X0.9644 Y2.6098
N5555 X0.9579 Y2.5971
N5560 X0.9539 Y2.5835
N5565 X0.9525 Y2.5693
N5570 Y2.5072
N5575 G3 X0.9753 Y2.4831 Z0.8193 I0.025 J0.0009
N5580 G1 X0.9783 Y2.4829 Z0.8199
N5585 X1.3454 Y2.4513
N5590 X1.3458
N5595 X1.3462 Y2.4512
N5600 X1.3467
N5605 G3 X1.3725 Y2.4753 Z0.8119 I0.0009 J0.025
N5610 G1 Y2.5386
N5615 G3 X1.3664 Y2.5706 I-0.1004 J-0.0025
N5620 G1 X1.3634 Y2.5785
N5625 X1.3597 Y2.5865
N5630 X1.3548 Y2.5955
N5635 X1.3492 Y2.6043
N5640 X1.3422 Y2.614
N5645 X1.3343 Y2.6236
N5650 X1.3249 Y2.6336
N5655 X1.3138 Y2.644
N5660 X1.3018 Y2.6539
N5665 X1.288 Y2.6638
N5670 X1.2724 Y2.6736
N5675 X1.2551 Y2.683
N5680 X1.2362 Y2.6917
N5685 X1.2168 Y2.6992
N5690 X1.1969 Y2.7055
N5695 X1.1767 Y2.7106
N5700 X1.1562 Y2.7145
N5705 X1.1355 Y2.7173
N5710 X1.1147 Y2.7188
N5715 X1.0939 Y2.7192
N5720 X1.0733 Y2.7182
N5725 X1.0553 Y2.7163
N5730 X1.0387 Y2.7134
N5735 X1.0252 Y2.7101
N5740 X1.0121 Y2.706
N5745 X1.0009 Y2.7017
N5750 X0.9963 Y2.6996
N5755 X0.9839 Y2.6925
N5760 X0.9732 Y2.6831
N5765 X0.9644 Y2.6719
N5770 X0.9579 Y2.6593
N5775 X0.9539 Y2.6456
N5780 X0.9525 Y2.6314
N5785 Y2.5693
N5790 G3 X0.9754 Y2.5453 Z0.8194 I0.025 J0.0009
N5795 G1 X0.9783 Y2.545 Z0.8199
N5800 X1.3455 Y2.5146
N5805 X1.3459
N5810 X1.3463 Y2.5145
N5815 X1.3467
N5820 G3 X1.3725 Y2.5386 Z0.8119 I0.0009 J0.025
N5825 G1 Y2.5986
N5830 G3 X1.3663 Y2.6328 I-0.104 J-0.001
N5835 G1 X1.3633 Y2.6407
N5840 X1.3596 Y2.6487
N5845 X1.3547 Y2.6577
N5850 X1.3492 Y2.6665
N5855 X1.3422 Y2.6762
N5860 X1.3342 Y2.6858
N5865 X1.3248 Y2.6958
N5870 X1.3138 Y2.7061
N5875 X1.3017 Y2.716
N5880 X1.2879 Y2.726
N5885 X1.2724 Y2.7357
N5890 X1.2551 Y2.7451
N5895 X1.2362 Y2.7538
N5900 X1.2167 Y2.7613
N5905 X1.1969 Y2.7676
N5910 X1.1766 Y2.7727
N5915 X1.1562 Y2.7766
N5920 X1.1355 Y2.7794
N5925 X1.1147 Y2.781
N5930 X1.0938 Y2.7813
N5935 X1.0732 Y2.7804
N5940 X1.0552 Y2.7784
N5945 X1.0387 Y2.7755
N5950 X1.0252 Y2.7722
N5955 X1.0121 Y2.7682
N5960 X1.0008 Y2.7638
N5965 X0.9963 Y2.7618
N5970 X0.9839 Y2.7546
N5975 X0.9732 Y2.7453
N5980 X0.9644 Y2.7341
N5985 X0.9579 Y2.7214
N5990 X0.9539 Y2.7077
N5995 X0.9525 Y2.6936
N6000 Y2.6314
N6005 G3 X0.9753 Y2.6074 Z0.8193 I0.025 J0.0009
N6010 G1 X0.9783 Y2.6071 Z0.8199
N6015 X1.3453 Y2.5745
N6020 X1.3467 Y2.5744
N6025 G3 X1.3725 Y2.5986 Z0.8119 I0.0009 J0.025
N6030 G1 Y2.6626
N6035 G3 X1.3664 Y2.6948 I-0.1008 J-0.0023
N6040 G1 X1.3634 Y2.7027
N6045 X1.3597 Y2.7108
N6050 X1.3548 Y2.7197
N6055 X1.3492 Y2.7286
N6060 X1.3422 Y2.7383
N6065 X1.3343 Y2.7479
N6070 X1.3249 Y2.7579
N6075 X1.3138 Y2.7682
N6080 X1.3017 Y2.7782
N6085 X1.288 Y2.7881
N6090 X1.2724 Y2.7979
N6095 X1.2551 Y2.8072
N6100 X1.2362 Y2.8159
N6105 X1.2168 Y2.8235
N6110 X1.1969 Y2.8298
N6115 X1.1767 Y2.8349
N6120 X1.1562 Y2.8388
N6125 X1.1355 Y2.8415
N6130 X1.1147 Y2.8431
N6135 X1.0939 Y2.8434
N6140 X1.0732 Y2.8425
N6145 X1.0552 Y2.8405
N6150 X1.0387 Y2.8376
N6155 X1.0252 Y2.8344
N6160 X1.0121 Y2.8303
N6165 X1.0008 Y2.826
N6170 X0.9963 Y2.8239
N6175 X0.9839 Y2.8168
N6180 X0.9732 Y2.8074
N6185 X0.9644 Y2.7962
N6190 X0.9579 Y2.7836
N6195 X0.9539 Y2.7699
N6200 X0.9525 Y2.7557
N6205 Y2.6936
N6210 G3 X0.9754 Y2.6695 Z0.8193 I0.025 J0.0009
N6215 G1 X0.9783 Y2.6693 Z0.8199
N6220 X1.3454 Y2.6386
N6225 X1.3458 Y2.6385
N6230 X1.3463
N6235 X1.3467
N6240 G3 X1.3725 Y2.6626 Z0.8119 I0.0009 J0.025
N6245 G1 Y2.7259
N6250 G3 X1.3665 Y2.7569 I-0.0994 J-0.0032
N6255 G1 X1.3634 Y2.7648
N6260 X1.3597 Y2.7729
N6265 X1.3548 Y2.7818
N6270 X1.3493 Y2.7907
N6275 X1.3423 Y2.8004
N6280 X1.3343 Y2.81
N6285 X1.3249 Y2.82
N6290 X1.3139 Y2.8303
N6295 X1.3018 Y2.8403
N6300 X1.288 Y2.8502
N6305 X1.2724 Y2.86
N6310 X1.2551 Y2.8694
N6315 X1.2362 Y2.8781
N6320 X1.2168 Y2.8856
N6325 X1.1969 Y2.8919
N6330 X1.1767 Y2.897
N6335 X1.1562 Y2.9009
N6340 X1.1355 Y2.9037
N6345 X1.1147 Y2.9052
N6350 X1.0939 Y2.9056
N6355 X1.0733 Y2.9046
N6360 X1.0553 Y2.9027
N6365 X1.0387 Y2.8998
N6370 X1.0252 Y2.8965
N6375 X1.0121 Y2.8924
N6380 X1.0009 Y2.8881
N6385 X0.9963 Y2.886
N6390 X0.9839 Y2.8789
N6395 X0.9732 Y2.8696
N6400 X0.9644 Y2.8584
N6405 X0.9579 Y2.8457
N6410 X0.9539 Y2.832
N6415 X0.9525 Y2.8178
N6420 Y2.7557
N6425 G3 X0.9755 Y2.7317 Z0.8194 I0.025 J0.0009
N6430 G1 X0.9783 Y2.7314 Z0.8199
N6435 X1.3455 Y2.7019
N6440 X1.3459 Y2.7018
N6445 X1.3463
N6450 X1.3467
N6455 G3 X1.3725 Y2.7259 Z0.8119 I0.0009 J0.025
N6460 G1 Y2.7858
N6465 G3 X1.3664 Y2.8192 I-0.1024 J-0.0015
N6470 G1 X1.3633 Y2.8271
N6475 X1.3596 Y2.8351
N6480 X1.3548 Y2.844
N6485 X1.3492 Y2.8529
N6490 X1.3422 Y2.8625
N6495 X1.3342 Y2.8722
N6500 X1.3249 Y2.8821
N6505 X1.3138 Y2.8925
N6510 X1.3017 Y2.9024
N6515 X1.288 Y2.9124
N6520 X1.2724 Y2.9221
N6525 X1.2551 Y2.9315
N6530 X1.2362 Y2.9402
N6535 X1.2168 Y2.9477
N6540 X1.1969 Y2.954
N6545 X1.1767 Y2.9591
N6550 X1.1562 Y2.963
N6555 X1.1355 Y2.9658
N6560 X1.1147 Y2.9674
N6565 X1.0939 Y2.9677
N6570 X1.0732 Y2.9668
N6575 X1.0552 Y2.9648
N6580 X1.0387 Y2.9619
N6585 X1.0252 Y2.9586
N6590 X1.0121 Y2.9546
N6595 X1.0008 Y2.9503
N6600 X0.9963 Y2.9482
N6605 X0.9839 Y2.941
N6610 X0.9732 Y2.9317
N6615 X0.9644 Y2.9205
N6620 X0.9579 Y2.9078
N6625 X0.9539 Y2.8942
N6630 X0.9525 Y2.88
N6635 Y2.8178
N6640 G3 X0.9753 Y2.7938 Z0.8193 I0.025 J0.0009
N6645 G1 X0.9783 Y2.7935 Z0.8199
N6650 X1.3454 Y2.7618
N6655 X1.3458
N6660 X1.3462 Y2.7617
N6665 X1.3467
N6670 G3 X1.3725 Y2.7858 Z0.8119 I0.0009 J0.025
N6675 G1 Y2.8499
N6680 G3 X1.3665 Y2.8812 I-0.0997 J-0.0029
N6685 G1 X1.3634 Y2.8891
N6690 X1.3597 Y2.8972
N6695 X1.3548 Y2.9061
N6700 X1.3493 Y2.9149
N6705 X1.3423 Y2.9246
N6710 X1.3343 Y2.9343
N6715 X1.3249 Y2.9443
N6720 X1.3139 Y2.9546
N6725 X1.3018 Y2.9646
N6730 X1.288 Y2.9745
N6735 X1.2724 Y2.9843
N6740 X1.2551 Y2.9936
N6745 X1.2362 Y3.0023
N6750 X1.2168 Y3.0099
N6755 X1.1969 Y3.0162
N6760 X1.1767 Y3.0213
N6765 X1.1562 Y3.0252
N6770 X1.1355 Y3.0279
N6775 X1.1147 Y3.0295
N6780 X1.0939 Y3.0299
N6785 X1.0732 Y3.0289
N6790 X1.0553 Y3.0269
N6795 X1.0387 Y3.024
N6800 X1.0252 Y3.0208
N6805 X1.0121 Y3.0167
N6810 X1.0009 Y3.0124
N6815 X0.9963 Y3.0103
N6820 X0.9839 Y3.0032
N6825 X0.9732 Y2.9938
N6830 X0.9644 Y2.9826
N6835 X0.9579 Y2.97
N6840 X0.9539 Y2.9563
N6845 X0.9525 Y2.9421
N6850 Y2.88
N6855 G3 X0.9755 Y2.8559 Z0.8194 I0.025 J0.0009
N6860 G1 X0.9783 Y2.8557 Z0.8199
N6865 X1.3455 Y2.8258
N6870 X1.3459
N6875 X1.3463
N6880 X1.3467
N6885 G3 X1.3725 Y2.8499 Z0.8119 I0.0009 J0.025
N6890 G1 Y2.9132
N6895 G3 X1.3665 Y2.9433 I-0.0988 J-0.0039
N6900 G1 X1.3635 Y2.9512
N6905 X1.3598 Y2.9593
N6910 X1.3549 Y2.9682
N6915 X1.3493 Y2.9771
N6920 X1.3423 Y2.9868
N6925 X1.3343 Y2.9964
N6930 X1.325 Y3.0064
N6935 X1.3139 Y3.0167
N6940 X1.3018 Y3.0267
N6945 X1.288 Y3.0366
N6950 X1.2724 Y3.0464
N6955 X1.2551 Y3.0558
N6960 X1.2363 Y3.0645
N6965 X1.2168 Y3.072
N6970 X1.1969 Y3.0783
N6975 X1.1767 Y3.0834
N6980 X1.1562 Y3.0873
N6985 X1.1356 Y3.0901
N6990 X1.1148 Y3.0916
N6995 X1.0939 Y3.092
N7000 X1.0733 Y3.0911
N7005 X1.0553 Y3.0891
N7010 X1.0387 Y3.0862
N7015 X1.0252 Y3.0829
N7020 X1.0121 Y3.0788
N7025 X1.0009 Y3.0745
N7030 X0.9963 Y3.0724
N7035 X0.9839 Y3.0653
N7040 X0.9732 Y3.056
N7045 X0.9644 Y3.0448
N7050 X0.9579 Y3.0321
N7055 X0.9539 Y3.0184
N7060 X0.9525 Y3.0042
N7065 Y2.9421
N7070 G3 X0.9755 Y2.9181 Z0.8194 I0.025 J0.0009
N7075 G1 X0.9783 Y2.9178 Z0.8199
N7080 X1.3456 Y2.8891
N7085 X1.3459
N7090 X1.3463
N7095 X1.3467
N7100 G3 X1.3725 Y2.9132 Z0.8119 I0.0009 J0.025
N7105 G1 Y2.9731
N7110 G3 X1.3664 Y3.0056 I-0.101 J-0.0021
N7115 G1 X1.3634 Y3.0135
N7120 X1.3597 Y3.0215
N7125 X1.3548 Y3.0304
N7130 X1.3492 Y3.0393
N7135 X1.3422 Y3.0489
N7140 X1.3343 Y3.0586
N7145 X1.3249 Y3.0685
N7150 X1.3138 Y3.0789
N7155 X1.3018 Y3.0888
N7160 X1.288 Y3.0988
N7165 X1.2724 Y3.1085
N7170 X1.2551 Y3.1179
N7175 X1.2362 Y3.1266
N7180 X1.2168 Y3.1341
N7185 X1.1969 Y3.1404
N7190 X1.1767 Y3.1455
N7195 X1.1562 Y3.1495
N7200 X1.1355 Y3.1522
N7205 X1.1147 Y3.1538
N7210 X1.0939 Y3.1541
N7215 X1.0733 Y3.1532
N7220 X1.0553 Y3.1512
N7225 X1.0387 Y3.1483
N7230 X1.0252 Y3.145
N7235 X1.0121 Y3.141
N7240 X1.0009 Y3.1367
N7245 X0.9963 Y3.1346
N7250 X0.9839 Y3.1274
N7255 X0.9732 Y3.1181
N7260 X0.9644 Y3.1069
N7265 X0.9579 Y3.0942
N7270 X0.9539 Y3.0806
N7275 X0.9525 Y3.0664
N7280 Y3.0042
N7285 G3 X0.9754 Y2.9802 Z0.8193 I0.025 J0.0009
N7290 G1 X0.9783 Y2.98 Z0.8199
N7295 X1.3454 Y2.9491
N7300 X1.3458 Y2.949
N7305 X1.3462
N7310 X1.3467
N7315 G3 X1.3725 Y2.9731 Z0.8119 I0.0009 J0.025
N7320 G1 Y3.033
N7325 G3 X1.3632 Y3.0756 I-0.1077 J-0.0011
N7330 G1 X1.3595 Y3.0837
N7335 X1.3547 Y3.0926
N7340 X1.3491 Y3.1014
N7345 X1.3421 Y3.1111
N7350 X1.3342 Y3.1208
N7355 X1.3248 Y3.1307
N7360 X1.3138 Y3.1411
N7365 X1.3017 Y3.151
N7370 X1.2879 Y3.1609
N7375 X1.2723 Y3.1707
N7380 X1.2551 Y3.1801
N7385 X1.2362 Y3.1888
N7390 X1.2167 Y3.1963
N7395 X1.1969 Y3.2026
N7400 X1.1766 Y3.2077
N7405 X1.1562 Y3.2116
N7410 X1.1355 Y3.2143
N7415 X1.1147 Y3.2159
N7420 X1.0938 Y3.2163
N7425 X1.0732 Y3.2153
N7430 X1.0552 Y3.2133
N7435 X1.0387 Y3.2104
N7440 X1.0252 Y3.2072
N7445 X1.0121 Y3.2031
N7450 X1.0008 Y3.1988
N7455 X0.9963 Y3.1967
N7460 X0.9839 Y3.1896
N7465 X0.9732 Y3.1802
N7470 X0.9644 Y3.169
N7475 X0.9579 Y3.1564
N7480 X0.9539 Y3.1427
N7485 X0.9525 Y3.1285
N7490 Y3.0664
N7495 G3 X0.9752 Y3.0424 Z0.8193 I0.025 J0.0009
N7500 G1 X0.9783 Y3.0421 Z0.8199
N7505 X1.3453 Y3.009
N7510 X1.3467 Y3.0089
N7515 G3 X1.3725 Y3.033 Z0.8119 I0.0009 J0.025
N7520 G1 Y3.0971
N7525 G3 X1.3664 Y3.1298 I-0.1014 J-0.002
N7530 G1 X1.3634 Y3.1377
N7535 X1.3596 Y3.1458
N7540 X1.3548 Y3.1547
N7545 X1.3492 Y3.1635
N7550 X1.3422 Y3.1732
N7555 X1.3342 Y3.1828
N7560 X1.3249 Y3.1928
N7565 X1.3138 Y3.2032
N7570 X1.3017 Y3.2131
N7575 X1.288 Y3.223
N7580 X1.2724 Y3.2328
N7585 X1.2551 Y3.2422
N7590 X1.2362 Y3.2509
N7595 X1.2167 Y3.2584
N7600 X1.1969 Y3.2647
N7605 X1.1766 Y3.2698
N7610 X1.1562 Y3.2737
N7615 X1.1355 Y3.2765
N7620 X1.1147 Y3.278
N7625 X1.0938 Y3.2784
N7630 X1.0732 Y3.2775
N7635 X1.0552 Y3.2755
N7640 X1.0387 Y3.2726
N7645 X1.0252 Y3.2693
N7650 X1.0121 Y3.2652
N7655 X1.0008 Y3.2609
N7660 X0.9963 Y3.2588
N7665 X0.9839 Y3.2517
N7670 X0.9732 Y3.2424
N7675 X0.9644 Y3.2312
N7680 X0.9579 Y3.2185
N7685 X0.9539 Y3.2048
N7690 X0.9525 Y3.1906
N7695 Y3.1285
N7700 G3 X0.9754 Y3.1045 Z0.8193 I0.025 J0.0009
N7705 G1 X0.9783 Y3.1042 Z0.8199
N7710 X1.3454 Y3.073
N7715 X1.3458
N7720 X1.3462
N7725 X1.3467
N7730 G3 X1.3725 Y3.0971 Z0.8119 I0.0009 J0.025
N7735 G1 Y3.1604
N7740 G3 X1.3665 Y3.1919 I-0.0999 J-0.0028
N7745 G1 X1.3634 Y3.1998
N7750 X1.3597 Y3.2079
N7755 X1.3548 Y3.2168
N7760 X1.3493 Y3.2256
N7765 X1.3422 Y3.2353
N7770 X1.3343 Y3.245
N7775 X1.3249 Y3.2549
N7780 X1.3138 Y3.2653
N7785 X1.3018 Y3.2752
N7790 X1.288 Y3.2852
N7795 X1.2724 Y3.2949
N7800 X1.2551 Y3.3043
N7805 X1.2362 Y3.313
N7810 X1.2168 Y3.3205
N7815 X1.1969 Y3.3268
N7820 X1.1767 Y3.3319
N7825 X1.1562 Y3.3359
N7830 X1.1355 Y3.3386
N7835 X1.1147 Y3.3402
N7840 X1.0939 Y3.3405
N7845 X1.0732 Y3.3396
N7850 X1.0552 Y3.3376
N7855 X1.0387 Y3.3347
N7860 X1.0252 Y3.3314
N7865 X1.0121 Y3.3274
N7870 X1.0008 Y3.3231
N7875 X0.9963 Y3.321
N7880 X0.9839 Y3.3138
N7885 X0.9732 Y3.3045
N7890 X0.9644 Y3.2933
N7895 X0.9579 Y3.2806
N7900 X0.9539 Y3.267
N7905 X0.9525 Y3.2528
N7910 Y3.1906
N7915 G3 X0.9754 Y3.1666 Z0.8194 I0.025 J0.0009
N7920 G1 X0.9783 Y3.1664 Z0.8199
N7925 X1.3455 Y3.1363
N7930 X1.3459
N7935 X1.3463
N7940 X1.3467
N7945 G3 X1.3725 Y3.1604 Z0.8119 I0.0009 J0.025
N7950 G1 Y3.2203
N7955 G3 X1.3664 Y3.2541 I-0.1032 J-0.0013
N7960 G1 X1.3633 Y3.262
N7965 X1.3596 Y3.2701
N7970 X1.3547 Y3.279
N7975 X1.3492 Y3.2878
N7980 X1.3422 Y3.2975
N7985 X1.3342 Y3.3071
N7990 X1.3248 Y3.3171
N7995 X1.3138 Y3.3275
N8000 X1.3017 Y3.3374
N8005 X1.2879 Y3.3473
N8010 X1.2724 Y3.3571
N8015 X1.2551 Y3.3665
N8020 X1.2362 Y3.3752
N8025 X1.2167 Y3.3827
N8030 X1.1969 Y3.389
N8035 X1.1766 Y3.3941
N8040 X1.1562 Y3.398
N8045 X1.1355 Y3.4007
N8050 X1.1147 Y3.4023
N8055 X1.0938 Y3.4027
N8060 X1.0732 Y3.4017
N8065 X1.0552 Y3.3997
N8070 X1.0387 Y3.3968
N8075 X1.0252 Y3.3936
N8080 X1.0121 Y3.3895
N8085 X1.0008 Y3.3852
N8090 X0.9963 Y3.3831
N8095 X0.9839 Y3.376
N8100 X0.9732 Y3.3666
N8105 X0.9644 Y3.3554
N8110 X0.9579 Y3.3428
N8115 X0.9539 Y3.3291
N8120 X0.9525 Y3.3149
N8125 Y3.2528
N8130 G3 X0.9753 Y3.2288 Z0.8193 I0.025 J0.0009
N8135 G1 X0.9783 Y3.2285 Z0.8199
N8140 X1.3453 Y3.1963
N8145 X1.3458 Y3.1962
N8150 X1.3462
N8155 X1.3467
N8160 G3 X1.3725 Y3.2203 Z0.8119 I0.0009 J0.025
N8165 G1 Y3.2844
N8170 G3 X1.3665 Y3.3162 I-0.1002 J-0.0026
N8175 G1 X1.3634 Y3.3241
N8180 X1.3597 Y3.3321
N8185 X1.3548 Y3.3411
N8190 X1.3492 Y3.3499
N8195 X1.3422 Y3.3596
N8200 X1.3343 Y3.3692
N8205 X1.3249 Y3.3792
N8210 X1.3138 Y3.3896
N8215 X1.3018 Y3.3995
N8220 X1.288 Y3.4094
N8225 X1.2724 Y3.4192
N8230 X1.2551 Y3.4286
N8235 X1.2362 Y3.4373
N8240 X1.2168 Y3.4448
N8245 X1.1969 Y3.4511
N8250 X1.1767 Y3.4562
N8255 X1.1562 Y3.4601
N8260 X1.1355 Y3.4629
N8265 X1.1147 Y3.4644
N8270 X1.0939 Y3.4648
N8275 X1.0732 Y3.4639
N8280 X1.0552 Y3.4619
N8285 X1.0387 Y3.459
N8290 X1.0252 Y3.4557
N8295 X1.0121 Y3.4516
N8300 X1.0008 Y3.4473
N8305 X0.9963 Y3.4452
N8310 X0.9839 Y3.4381
N8315 X0.9732 Y3.4288
N8320 X0.9644 Y3.4176
N8325 X0.9579 Y3.4049
N8330 X0.9539 Y3.3912
N8335 X0.9525 Y3.3771
N8340 Y3.3149
N8345 G3 X0.9754 Y3.2909 Z0.8194 I0.025 J0.0009
N8350 G1 X0.9783 Y3.2906 Z0.8199
N8355 X1.3455 Y3.2603
N8360 X1.3459
N8365 X1.3463
N8370 X1.3467 Y3.2602
N8375 G3 X1.3725 Y3.2844 Z0.8119 I0.0009 J0.025
N8380 G1 Y3.3477
N8385 G3 X1.3665 Y3.3783 I-0.0991 J-0.0035
N8390 G1 X1.3635 Y3.3862
N8395 X1.3597 Y3.3942
N8400 X1.3549 Y3.4032
N8405 X1.3493 Y3.412
N8410 X1.3423 Y3.4217
N8415 X1.3343 Y3.4313
N8420 X1.325 Y3.4413
N8425 X1.3139 Y3.4517
N8430 X1.3018 Y3.4616
N8435 X1.288 Y3.4715
N8440 X1.2724 Y3.4813
N8445 X1.2551 Y3.4907
N8450 X1.2362 Y3.4994
N8455 X1.2168 Y3.5069
N8460 X1.1969 Y3.5132
N8465 X1.1767 Y3.5183
N8470 X1.1562 Y3.5223
N8475 X1.1355 Y3.525
N8480 X1.1147 Y3.5266
N8485 X1.0939 Y3.5269
N8490 X1.0733 Y3.526
N8495 X1.0553 Y3.524
N8500 X1.0387 Y3.5211
N8505 X1.0252 Y3.5178
N8510 X1.0121 Y3.5138
N8515 X1.0009 Y3.5095
N8520 X0.9963 Y3.5074
N8525 X0.9839 Y3.5002
N8530 X0.9732 Y3.4909
N8535 X0.9644 Y3.4797
N8540 X0.9579 Y3.467
N8545 X0.9539 Y3.4534
N8550 X0.9525 Y3.4392
N8555 Y3.3771
N8560 G3 X0.9755 Y3.353 Z0.8194 I0.025 J0.0009
N8565 G1 X0.9783 Y3.3528 Z0.8199
N8570 X1.3455 Y3.3236
N8575 X1.3459
N8580 X1.3463
N8585 X1.3467 Y3.3235
N8590 G3 X1.3725 Y3.3477 Z0.8119 I0.0009 J0.025
N8595 G1 Y3.4076
N8600 G3 X1.3664 Y3.4405 I-0.1017 J-0.0018
N8605 G1 X1.3634 Y3.4484
N8610 X1.3596 Y3.4564
N8615 X1.3548 Y3.4654
N8620 X1.3492 Y3.4742
N8625 X1.3422 Y3.4839
N8630 X1.3342 Y3.4935
N8635 X1.3249 Y3.5035
N8640 X1.3138 Y3.5138
N8645 X1.3017 Y3.5238
N8650 X1.288 Y3.5337
N8655 X1.2724 Y3.5435
N8660 X1.2551 Y3.5529
N8665 X1.2362 Y3.5616
N8670 X1.2168 Y3.5691
N8675 X1.1969 Y3.5754
N8680 X1.1767 Y3.5805
N8685 X1.1562 Y3.5844
N8690 X1.1355 Y3.5872
N8695 X1.1147 Y3.5887
N8700 X1.0939 Y3.5891
N8705 X1.0732 Y3.5881
N8710 X1.0553 Y3.5862
N8715 X1.0387 Y3.5833
N8720 X1.0252 Y3.58
N8725 X1.0121 Y3.5759
N8730 X1.0008 Y3.5716
N8735 X0.9963 Y3.5695
N8740 X0.9839 Y3.5624
N8745 X0.9732 Y3.553
N8750 X0.9644 Y3.5418
N8755 X0.9579 Y3.5292
N8760 X0.9539 Y3.5155
N8765 X0.9525 Y3.5013
N8770 Y3.4392
N8775 G3 X0.9754 Y3.4151 Z0.8193 I0.025 J0.0009
N8780 G1 X0.9783 Y3.4149 Z0.8199
N8785 X1.3454 Y3.3836
N8790 X1.3458 Y3.3835
N8795 X1.3462
N8800 X1.3467
N8805 G3 X1.3725 Y3.4076 Z0.8119 I0.0009 J0.025
N8810 G1 Y3.4716
N8815 G3 X1.3665 Y3.5026 I-0.0993 J-0.0032
N8820 G1 X1.3634 Y3.5105
N8825 X1.3597 Y3.5185
N8830 X1.3549 Y3.5275
N8835 X1.3493 Y3.5363
N8840 X1.3423 Y3.546
N8845 X1.3343 Y3.5556
N8850 X1.3249 Y3.5656
N8855 X1.3139 Y3.576
N8860 X1.3018 Y3.5859
N8865 X1.288 Y3.5958
N8870 X1.2724 Y3.6056
N8875 X1.2551 Y3.615
N8880 X1.2362 Y3.6237
N8885 X1.2168 Y3.6312
N8890 X1.1969 Y3.6375
N8895 X1.1767 Y3.6426
N8900 X1.1562 Y3.6465
N8905 X1.1355 Y3.6493
N8910 X1.1147 Y3.6509
N8915 X1.0939 Y3.6512
N8920 X1.0733 Y3.6503
N8925 X1.0553 Y3.6483
N8930 X1.0387 Y3.6454
N8935 X1.0252 Y3.6421
N8940 X1.0121 Y3.6381
N8945 X1.0009 Y3.6337
N8950 X0.9963 Y3.6316
N8955 X0.9839 Y3.6245
N8960 X0.9732 Y3.6152
N8965 X0.9644 Y3.604
N8970 X0.9579 Y3.5913
N8975 X0.9539 Y3.5776
N8980 X0.9525 Y3.5635
N8985 Y3.5013
N8990 G3 X0.9755 Y3.4773 Z0.8194 I0.025 J0.0009
N8995 G1 X0.9783 Y3.477 Z0.8199
N9000 X1.3455 Y3.4476
N9005 X1.3459
N9010 X1.3463 Y3.4475
N9015 X1.3467
N9020 G3 X1.3725 Y3.4716 Z0.8119 I0.0009 J0.025
N9025 G1 Y3.5316
N9030 G3 X1.3664 Y3.5648 I-0.1022 J-0.0016
N9035 G1 X1.3633 Y3.5727
N9040 X1.3596 Y3.5807
N9045 X1.3548 Y3.5897
N9050 X1.3492 Y3.5985
N9055 X1.3422 Y3.6082
N9060 X1.3342 Y3.6178
N9065 X1.3249 Y3.6278
N9070 X1.3138 Y3.6381
N9075 X1.3017 Y3.6481
N9080 X1.288 Y3.658
N9085 X1.2724 Y3.6678
N9090 X1.2551 Y3.6771
N9095 X1.2362 Y3.6858
N9100 X1.2168 Y3.6933
N9105 X1.1969 Y3.6996
N9110 X1.1767 Y3.7047
N9115 X1.1562 Y3.7087
N9120 X1.1355 Y3.7114
N9125 X1.1147 Y3.713
N9130 X1.0939 Y3.7133
N9135 X1.0732 Y3.7124
N9140 X1.0552 Y3.7104
N9145 X1.0387 Y3.7075
N9150 X1.0252 Y3.7042
N9155 X1.0121 Y3.7002
N9160 X1.0008 Y3.6959
N9165 X0.9963 Y3.6938
N9170 X0.9839 Y3.6866
N9175 X0.9732 Y3.6773
N9180 X0.9644 Y3.6661
N9185 X0.9579 Y3.6534
N9190 X0.9539 Y3.6398
N9195 X0.9525 Y3.6256
N9200 Y3.5635
N9205 G3 X0.9753 Y3.5394 Z0.8193 I0.025 J0.0009
N9210 G1 X0.9783 Y3.5392 Z0.8199
N9215 X1.3454 Y3.5075
N9220 X1.3458
N9225 X1.3462
N9230 X1.3467
N9235 G3 X1.3725 Y3.5316 Z0.8119 I0.0009 J0.025
N9240 G1 Y3.5949
N9245 G3 X1.3664 Y3.6269 I-0.1004 J-0.0024
N9250 G1 X1.3634 Y3.6348
N9255 X1.3597 Y3.6428
N9260 X1.3548 Y3.6517
N9265 X1.3492 Y3.6606
N9270 X1.3422 Y3.6703
N9275 X1.3343 Y3.6799
N9280 X1.3249 Y3.6899
N9285 X1.3138 Y3.7002
N9290 X1.3018 Y3.7102
N9295 X1.288 Y3.7201
N9300 X1.2724 Y3.7299
N9305 X1.2551 Y3.7393
N9310 X1.2362 Y3.748
N9315 X1.2168 Y3.7555
N9320 X1.1969 Y3.7618
N9325 X1.1767 Y3.7669
N9330 X1.1562 Y3.7708
N9335 X1.1355 Y3.7736
N9340 X1.1147 Y3.7751
N9345 X1.0939 Y3.7755
N9350 X1.0732 Y3.7745
N9355 X1.0553 Y3.7726
N9360 X1.0387 Y3.7697
N9365 X1.0252 Y3.7664
N9370 X1.0121 Y3.7623
N9375 X1.0008 Y3.758
N9380 X0.9963 Y3.7559
N9385 X0.9839 Y3.7488
N9390 X0.9732 Y3.7394
N9395 X0.9644 Y3.7282
N9400 X0.9579 Y3.7156
N9405 X0.9539 Y3.7019
N9410 X0.9525 Y3.6877
N9415 Y3.6256
N9420 G3 X0.9754 Y3.6015 Z0.8194 I0.025 J0.0009
N9425 G1 X0.9783 Y3.6013 Z0.8199
N9430 X1.3454 Y3.5708
N9435 X1.3459
N9440 X1.3463
N9445 X1.3467
N9450 G3 X1.3725 Y3.5949 Z0.8119 I0.0009 J0.025
N9455 G1 Y3.6548
N9460 G3 X1.3663 Y3.6891 I-0.1041 J-0.001
N9465 X1.3491 Y3.7228 I-0.1387 J-0.0496
N9470 G1 X1.3421 Y3.7324
N9475 X1.3342 Y3.7421
N9480 X1.3248 Y3.752
N9485 X1.3138 Y3.7624
N9490 X1.3017 Y3.7723
N9495 X1.2879 Y3.7823
N9500 X1.2724 Y3.792
N9505 X1.2551 Y3.8014
N9510 X1.2362 Y3.8101
N9515 X1.2167 Y3.8176
N9520 X1.1968 Y3.8239
N9525 X1.1766 Y3.829
N9530 X1.1562 Y3.8329
N9535 X1.1355 Y3.8357
N9540 X1.1147 Y3.8373
N9545 X1.0938 Y3.8376
N9550 X1.0732 Y3.8367
N9555 X1.0552 Y3.8347
N9560 X1.0387 Y3.8318
N9565 X1.0252 Y3.8285
N9570 X1.0121 Y3.8244
N9575 X1.0008 Y3.8201
N9580 X0.9963 Y3.818
N9585 X0.9839 Y3.8109
N9590 X0.9732 Y3.8016
N9595 X0.9644 Y3.7904
N9600 X0.9579 Y3.7777
N9605 X0.9539 Y3.764
N9610 X0.9525 Y3.7499
N9615 Y3.6877
N9620 G3 X0.9753 Y3.6637 Z0.8193 I0.025 J0.0009
N9625 G1 X0.9783 Y3.6634 Z0.8199
N9630 X1.3453 Y3.6308
N9635 X1.3467 Y3.6307
N9640 G3 X1.3725 Y3.6548 Z0.8119 I0.0009 J0.025
N9645 G1 Y3.7188
N9650 G3 X1.3664 Y3.7511 I-0.1008 J-0.0022
N9655 G1 X1.3634 Y3.759
N9660 X1.3596 Y3.7671
N9665 X1.3548 Y3.776
N9670 X1.3492 Y3.7848
N9675 X1.3422 Y3.7945
N9680 X1.3343 Y3.8042
N9685 X1.3249 Y3.8141
N9690 X1.3138 Y3.8245
N9695 X1.3017 Y3.8344
N9700 X1.288 Y3.8444
N9705 X1.2724 Y3.8542
N9710 X1.2551 Y3.8635
N9715 X1.2362 Y3.8722
N9720 X1.2167 Y3.8797
N9725 X1.1969 Y3.886
N9730 X1.1766 Y3.8911
N9735 X1.1562 Y3.8951
N9740 X1.1355 Y3.8978
N9745 X1.1147 Y3.8994
N9750 X1.0939 Y3.8997
N9755 X1.0732 Y3.8988
N9760 X1.0552 Y3.8968
N9765 X1.0387 Y3.8939
N9770 X1.0252 Y3.8906
N9775 X1.0121 Y3.8866
N9780 X1.0008 Y3.8823
N9785 X0.9966 Y3.8803
N9790 X0.9847 Y3.8735
N9795 X0.9744 Y3.8648
N9800 X0.9657 Y3.8542
N9805 X0.9591 Y3.8423
N9810 X0.9548 Y3.8294
N9815 X0.9529 Y3.8159
N9820 G3 X0.9525 Y3.7896 I0.5627 J-0.0211
N9825 G1 Y3.7499
N9830 G3 X0.9754 Y3.7258 Z0.8193 I0.025 J0.0009
N9835 G1 X0.9783 Y3.7256 Z0.8199
N9840 X1.3454 Y3.6948
N9845 X1.3458
N9850 X1.3463 Y3.6947
N9855 X1.3467
N9860 G3 X1.3725 Y3.7188 Z0.8119 I0.0009 J0.025
N9865 G1 Y3.7821
N9870 G3 X1.3665 Y3.8132 I-0.0995 J-0.0031
N9875 G1 X1.3634 Y3.8211
N9880 X1.3597 Y3.8292
N9885 X1.3548 Y3.8381
N9890 X1.3493 Y3.847
N9895 X1.3423 Y3.8567
N9900 X1.3343 Y3.8663
N9905 X1.3249 Y3.8763
N9910 X1.3139 Y3.8866
N9915 X1.3018 Y3.8966
N9920 X1.288 Y3.9065
N9925 X1.2724 Y3.9163
N9930 X1.2551 Y3.9257
N9935 X1.2362 Y3.9344
N9940 X1.2168 Y3.9419
N9945 X1.1969 Y3.9482
N9950 X1.1767 Y3.9533
N9955 X1.1562 Y3.9572
N9960 X1.1355 Y3.96
N9965 X1.1147 Y3.9615
N9970 X1.0939 Y3.9619
N9975 X1.0732 Y3.9609
N9980 X1.0553 Y3.959
N9985 X1.0388 Y3.9561
N9990 X1.0254 Y3.9528
N9995 X1.0245 Y3.9525
N10000 X1.0123 Y3.9476
N10005 X1.0012 Y3.9405
N10010 X0.9915 Y3.9317
N10015 X0.9835 Y3.9213
N10020 G3 X0.9698 Y3.8945 I0.131 J-0.0839
N10025 X0.9535 Y3.8271 I0.1929 J-0.0822
N10030 G1 X0.9529 Y3.8159
N10035 G3 X0.9757 Y3.7906 Z0.8196 I0.025 J-0.0004
N10040 G1 X0.9775 Y3.7905 Z0.8199
N10045 X1.3453 Y3.7581
N10050 X1.3458
N10055 X1.3462 Y3.758
N10060 X1.3467
N10065 G3 X1.3725 Y3.7821 Z0.8119 I0.0009 J0.025
N10070 X1.3716 Y3.8271 I-0.6698 J0.0087
N10075 X1.3654 Y3.8645 I-0.259 J-0.0233
N10080 G1 X1.3585 Y3.8841
N10085 X1.3554 Y3.8914
N10090 X1.3512 Y3.8997
N10095 X1.3463 Y3.908
N10100 X1.3401 Y3.9171
N10105 X1.3331 Y3.9261
N10110 X1.3246 Y3.9358
N10115 X1.3147 Y3.9456
N10120 X1.3037 Y3.9552
N10125 X1.2909 Y3.9651
N10130 X1.2763 Y3.9748
N10135 X1.2605 Y3.984
N10140 X1.243 Y3.9927
N10145 X1.2239 Y4.0008
N10150 X1.2042 Y4.0076
N10155 X1.1841 Y4.0132
N10160 X1.1637 Y4.0177
N10165 X1.1535 Y4.0193
N10170 X1.1457 Y4.0201
N10175 X1.1378
N10180 X1.13 Y4.0193
N10185 G3 X1.1102 Y3.99 Z0.8199 I0.0048 J-0.0245
N10190 X1.1211 Y3.9738 I0.0245 J0.0048
N10195 G1 X1.3272 Y3.8392
N10200 G3 X1.3453 Y3.8355 I0.0137 J0.0209
N10205 X1.3654 Y3.8645 Z0.8119 I-0.0044 J0.0246
N10210 G1 X1.361 Y3.8795
N10215 X1.3582 Y3.887
N10220 X1.3553 Y3.8945
N10225 X1.3519 Y3.902
N10230 X1.3442 Y3.917
N10235 G3 X1.323 Y3.9469 I-0.1648 J-0.0943
N10240 X1.2878 Y3.9801 I-0.1361 J-0.1092
N10245 X1.2579 Y3.9988 I-0.091 J-0.112
N10250 X1.2279 Y4.0116 I-0.0865 J-0.1617
N10255 G1 X1.2129 Y4.0158
N10260 X1.2055 Y4.0175
N10265 X1.198 Y4.019
N10270 X1.1905 Y4.0203
N10275 X1.1755 Y4.0218
N10280 G3 X1.138 Y4.0206 I-0.0107 J-0.2486
N10285 G1 X1.123 Y4.0182
N10290 G3 X1.0841 Y4.0069 I0.0466 J-0.2323
N10295 G1 X1.0706 Y4.0008
N10300 X1.0675 Y3.9994
N10305 X1.0631 Y3.9969
N10310 X1.0543 Y3.9919
N10315 X1.0481 Y3.9882
N10320 X1.0325 Y3.9769
N10325 G3 X1.0083 Y3.9544 I0.1621 J-0.1984
N10330 G1 X1.0032 Y3.9484
N10335 G3 X0.9836 Y3.9212 I0.1335 J-0.1172
N10340 G1 X0.9819 Y3.9178
N10345 X0.9807 Y3.9141
N10350 X0.9801 Y3.9103
N10355 X0.9802 Y3.9064
N10360 X0.9808 Y3.9026
N10365 X0.982 Y3.8989
N10370 X0.9837 Y3.8955
N10375 X0.986 Y3.8924
N10380 X0.9885 Y3.8894 Z0.8123
N10385 X0.991 Y3.8865 Z0.8132
N10390 X0.9933 Y3.8837 Z0.8147
N10395 X0.9955 Y3.8812 Z0.8167
N10400 X0.9974 Y3.8789 Z0.8193
N10405 X0.9991 Y3.877 Z0.8223
N10410 X1.0004 Y3.8754 Z0.8256
N10415 X1.0014 Y3.8743 Z0.8292
N10420 X1.002 Y3.8736 Z0.833
N10425 X1.0022 Y3.8733 Z0.8369
N10430 Z1.7
N10435 X4.4625 Y1.0929
N10440 Z1.5205
N10445 Z0.6151 F40.
N10450 X4.4629 F72.
N10455 X4.4627 Y1.0932
N10460 X4.4624 Y1.0933
N10465 X4.4621 Y1.093
N10470 Y1.0926
N10475 X4.4624 Y1.0923
N10480 X4.4627 Y1.0922
N10485 X4.4631 Y1.0923
N10490 X4.4634 Y1.0925
N10495 X4.4635 Y1.0929
N10500 Y1.0932
N10505 X4.4634 Y1.0936
N10510 X4.4631 Y1.0939
N10515 X4.4628 Y1.094
N10520 X4.4624 Y1.0941
N10525 X4.4621
N10530 X4.4617 Y1.0939
N10535 X4.4614 Y1.0936
N10540 X4.461 Y1.093
N10545 Y1.0923
N10550 X4.4613 Y1.0916
N10555 X4.4618 Y1.091
N10560 X4.4625 Y1.0908
N10565 X4.4633 Y1.0907
N10570 X4.464 Y1.091
N10575 X4.4646 Y1.0914
N10580 X4.465 Y1.092
N10585 X4.4653 Y1.0927
N10590 X4.4654 Y1.0934 F80.
N10595 X4.4651 Y1.0949 F72.
N10600 X4.4641 Y1.0961
N10605 X4.4627 Y1.0967 F80.
N10610 X4.4612
N10615 X4.4598 Y1.0961
N10620 X4.4587 Y1.0951
N10625 X4.4579 Y1.0936 F72.
N10630 X4.4577 Y1.0918
N10635 X4.4581 Y1.0901
N10640 X4.459 Y1.0886
N10645 X4.4604 Y1.0875
N10650 X4.462 Y1.087
N10655 G3 X4.47 Y1.0952 I0.0013 J0.0067
N10660 X4.4573 Y1.1014 I-0.0086 J-0.0015
N10665 X4.453 Y1.0848 I0.0047 J-0.01
N10670 X4.4728 Y1.0818 I0.0113 J0.0076 F80.
N10675 X4.4766 Y1.1045 I-0.0097 J0.0133
N10680 X4.4501 Y1.1106 I-0.0164 J-0.0108
N10685 X4.4391 Y1.0845 I0.011 J-0.0201
N10690 X4.4659 Y1.0643 I0.0258 J0.0064
N10695 X4.495 Y1.0871 I-0.0004 J0.0305
N10700 X4.4796 Y1.1264 I-0.0336 J0.0095
N10705 X4.4362 Y1.1257 I-0.0212 J-0.0331
N10710 X4.4177 Y1.0781 I0.0244 J-0.0368
N10715 X4.4572 Y1.0408 I0.048 J0.0112
N10720 X4.5128 Y1.064 I0.0102 J0.0537
N10725 X4.5163 Y1.1268 I-0.0494 J0.0343
N10730 X4.4572 Y1.1622 I-0.0584 J-0.0305
N10735 X4.3931 Y1.123 I0. J-0.0719
N10740 X4.3957 Y1.0459 I0.069 J-0.0363
N10745 X4.4682 Y1.0051 I0.0722 J0.0434
N10750 X4.5429 Y1.0438 I0.0006 J0.0904
N10755 X4.5548 Y1.1329 I-0.0789 J0.0559
N10760 X4.4907 Y1.1958 I-0.0969 J-0.0346
N10765 X4.3963 Y1.1844 I-0.0354 J-0.1032
N10770 X4.3433 Y1.0988 I0.0619 J-0.0975
N10775 X4.3735 Y1.0045 I0.121 J-0.0133
N10780 X4.468 Y0.9613 I0.0959 J0.0847
N10785 X4.562 Y0.9978 I0.0021 J0.1338
N10790 X4.6053 Y1.0843 I-0.0954 J0.1019
N10795 X4.5814 Y1.182 I-0.1443 J0.0165
N10800 X4.541 Y1.2227 I-0.1239 J-0.0827
N10805 X4.4376 Y1.2482 I-0.0864 J-0.1276
N10810 X4.3462 Y1.2064 I0.0172 J-0.1583
N10815 X4.2986 Y1.1258 I0.1117 J-0.1204
N10820 X4.3027 Y1.0295 I0.1641 J-0.0412
N10825 X4.3516 Y0.956 I0.1643 J0.0562
N10830 X4.4209 Y0.9178 I0.1184 J0.1326
N10835 X4.5016 Y0.9133 I0.0503 J0.1745
N10840 X4.5678 Y0.9382 I-0.0308 J0.1825
N10845 X4.6133 Y0.9774 I-0.0986 J0.1602
N10850 X4.6396 Y1.0184 I-0.146 J0.1227
N10855 G1 X4.6445 Y1.0297
N10860 X4.6487 Y1.0413
N10865 X4.6522 Y1.0532
N10870 X4.6549 Y1.0653
N10875 X4.6568 Y1.0776
N10880 X4.6579 Y1.09
N10885 X4.6583 Y1.1026
N10890 X4.6578 Y1.1151
N10895 X4.6565 Y1.1276
N10900 X4.6545 Y1.1401
N10905 X4.6516 Y1.1524
N10910 X4.6479 Y1.1646
N10915 X4.6435 Y1.1765
N10920 X4.6383 Y1.1882
N10925 X4.6323 Y1.1995
N10930 X4.6256 Y1.2105
N10935 X4.6182 Y1.221
N10940 X4.6101 Y1.2311
N10945 X4.6013 Y1.2406
N10950 X4.5919 Y1.2496
N10955 X4.582 Y1.258
N10960 X4.5715 Y1.2658
N10965 X4.5605 Y1.2729
N10970 X4.549 Y1.2793
N10975 X4.5371 Y1.285
N10980 X4.5249 Y1.2899
N10985 X4.5123 Y1.294
N10990 X4.4995 Y1.2974
N10995 X4.4864 Y1.2999
N11000 X4.4731 Y1.3015
N11005 X4.4598 Y1.3024
N11010 X4.4464 Y1.3023
N11015 X4.4329 Y1.3014
N11020 X4.4196 Y1.2997
N11025 X4.4063 Y1.297
N11030 X4.3932 Y1.2936
N11035 X4.3803 Y1.2893
N11040 X4.3677 Y1.2841
N11045 X4.3554 Y1.2781
N11050 X4.3434 Y1.2714
N11055 X4.3319 Y1.2639
N11060 X4.3209 Y1.2556
N11065 X4.3104 Y1.2466
N11070 X4.3004 Y1.237
N11075 X4.2911 Y1.2267
N11080 X4.2825 Y1.2158
N11085 X4.2745 Y1.2043
N11090 X4.2672 Y1.1923
N11095 X4.2608 Y1.1798
N11100 X4.2589 Y1.1756
N11105 X4.2554 Y1.1659
N11110 X4.2532 Y1.1557
N11115 X4.2525 Y1.1454
N11120 Y1.0854
N11125 G3 X4.2534 Y1.0479 I0.5423 J-0.0055
N11130 G1 X4.2567 Y1.0273
N11135 X4.2588 Y1.0165
N11140 X4.2616 Y1.0055
N11145 X4.2652 Y0.9944
N11150 X4.2697 Y0.9831
N11155 X4.2751 Y0.9718
N11160 X4.2813 Y0.9607
N11165 X4.2883 Y0.9498
N11170 X4.2961 Y0.9392
N11175 X4.3047 Y0.9289
N11180 X4.3141 Y0.9192
N11185 X4.3242 Y0.9099
N11190 X4.335 Y0.9011
N11195 X4.3465 Y0.893
N11200 X4.3587 Y0.8855
N11205 X4.3713 Y0.8788
N11210 X4.3846 Y0.8729
N11215 X4.3982 Y0.8677
N11220 X4.4123 Y0.8635
N11225 X4.4267 Y0.8601
N11230 X4.4413 Y0.8576
N11235 X4.4562 Y0.8561
N11240 X4.4712 Y0.8555
N11245 X4.4863 Y0.8559
N11250 X4.5013 Y0.8572
N11255 G3 X4.5129 Y0.8593 I-0.0153 J0.1185
N11260 X4.5301 Y0.8902 Z0.6231 I-0.0068 J0.0241
N11265 X4.5207 Y0.9036 I-0.0241 J-0.0068
N11270 G1 X4.2931 Y1.0685
N11275 G3 X4.2781 Y1.0733 I-0.0147 J-0.0202
N11280 X4.2535 Y1.0479 Z0.6151 I0.0004 J-0.025
N11285 X4.2596 Y1.0105 I0.2491 J0.0214
N11290 G1 X4.264 Y0.9955
N11295 X4.2668 Y0.988
N11300 X4.2697 Y0.9805
N11305 X4.2731 Y0.973
N11310 X4.2808 Y0.958
N11315 G3 X4.302 Y0.9281 I0.1662 J0.0953
N11320 X4.3297 Y0.9007 I0.1254 J0.0991
N11325 G1 X4.3371 Y0.8949
N11330 G3 X4.3671 Y0.8762 I0.0948 J0.1186
N11335 X4.3971 Y0.8634 I0.0874 J0.164
N11340 G1 X4.4121 Y0.8591
N11345 X4.4195 Y0.8575
N11350 X4.427 Y0.856
N11355 X4.4345 Y0.8547
N11360 X4.4495 Y0.8532
N11365 G3 X4.487 Y0.8544 I0.0108 J0.2467
N11370 G1 X4.502 Y0.8568
N11375 G3 X4.5409 Y0.8681 I-0.0462 J0.2309
N11380 G1 X4.5544 Y0.8742
N11385 X4.5575 Y0.8756
N11390 X4.5619 Y0.8781
N11395 X4.5707 Y0.8831
N11400 X4.5769 Y0.8868
N11405 X4.5925 Y0.8981
N11410 G3 X4.6167 Y0.9206 I-0.1615 J0.1978
N11415 G1 X4.6218 Y0.9266
N11420 G3 X4.6394 Y0.9505 I-0.1259 J0.1111
N11425 X4.6552 Y0.9805 I-0.1312 J0.0882
N11430 X4.6715 Y1.0479 I-0.1928 J0.0822
N11435 X4.6725 Y1.0854 I-0.4421 J0.0307
N11440 G1 Y1.1794
N11445 G3 X4.6646 Y1.2226 I-0.1351 J-0.0024
N11450 G1 X4.6608 Y1.2323
N11455 X4.6563 Y1.242
N11460 X4.651 Y1.2518
N11465 X4.6447 Y1.2618
N11470 X4.6374 Y1.2719
N11475 X4.6292 Y1.2818
N11480 X4.6202 Y1.2914
N11485 X4.6103 Y1.3006
N11490 X4.5995 Y1.3095
N11495 X4.5878 Y1.318
N11500 X4.5753 Y1.3258
N11505 X4.562 Y1.333
N11510 X4.5481 Y1.3395
N11515 X4.5335 Y1.3451
N11520 X4.5184 Y1.3498
N11525 X4.5029 Y1.3536
N11530 X4.487 Y1.3565
N11535 X4.4708 Y1.3583
N11540 X4.4544 Y1.3591
N11545 X4.4378 Y1.3588
N11550 X4.4212 Y1.3575
N11555 X4.4046 Y1.3551
N11560 X4.388 Y1.3516
N11565 X4.3717 Y1.347
N11570 X4.3555 Y1.3414
N11575 X4.3397 Y1.3347
N11580 X4.3243 Y1.327
N11585 X4.3094 Y1.3183
N11590 X4.295 Y1.3086
N11595 X4.2812 Y1.298
N11600 X4.2781 Y1.2952
N11605 X4.2692 Y1.286
N11610 X4.2621 Y1.2755
N11615 X4.2568 Y1.2639
N11620 X4.2536 Y1.2515
N11625 X4.2525 Y1.2388
N11630 Y1.1454
N11635 G3 X4.2784 Y1.1213 Z0.6231 I0.025 J0.0009
N11640 G1 X4.2798
N11645 X4.6467 Y1.1551
N11650 X4.6498 Y1.1554 Z0.6225
N11655 G3 X4.6725 Y1.1794 Z0.6151 I-0.0023 J0.0249
N11660 G1 Y1.2543
N11665 G3 X4.6663 Y1.2869 I-0.1034 J-0.0029
N11670 X4.6493 Y1.3202 I-0.1364 J-0.0486
N11675 G1 X4.6429 Y1.3291
N11680 X4.6353 Y1.3383
N11685 X4.6267 Y1.3474
N11690 X4.6173 Y1.3562
N11695 X4.6067 Y1.365
N11700 X4.5948 Y1.3735
N11705 X4.5818 Y1.3816
N11710 X4.5681 Y1.3891
N11715 X4.5535 Y1.3958
N11720 X4.5378 Y1.4019
N11725 X4.5212 Y1.4071
N11730 X4.5038 Y1.4114
N11735 X4.4857 Y1.4146
N11740 X4.4671 Y1.4167
N11745 X4.448 Y1.4176
N11750 X4.4287 Y1.4173
N11755 X4.4092 Y1.4157
N11760 X4.3896 Y1.4129
N11765 X4.37 Y1.4088
N11770 X4.3505 Y1.4033
N11775 X4.3312 Y1.3966
N11780 X4.3134 Y1.389
N11785 X4.298 Y1.3813
N11790 X4.2857 Y1.3741
N11795 X4.2744 Y1.3648
N11800 X4.2651 Y1.3535
N11805 X4.2582 Y1.3405
N11810 X4.254 Y1.3265
N11815 X4.2525 Y1.3119
N11820 Y1.2388
N11825 G3 X4.2784 Y1.2147 Z0.6231 I0.025 J0.0009
N11830 G1 X4.2785
N11835 X4.6467 Y1.2301
N11840 X4.6486 Y1.2302 Z0.6227
N11845 G3 X4.6725 Y1.2543 Z0.6151 I-0.001 J0.025
N11850 G1 Y1.3176
N11855 G3 X4.6668 Y1.3471 I-0.0952 J-0.0032
N11860 G1 X4.6639 Y1.3545
N11865 G3 X4.6445 Y1.3872 I-0.1368 J-0.0592
N11870 G1 X4.6373 Y1.396
N11875 X4.6288 Y1.405
N11880 X4.6196 Y1.4136
N11885 X4.6089 Y1.4224
N11890 X4.5969 Y1.4311
N11895 X4.5838 Y1.4392
N11900 X4.5698 Y1.4469
N11905 X4.5543 Y1.454
N11910 X4.5374 Y1.4605
N11915 X4.5194 Y1.4662
N11920 X4.5006 Y1.4708
N11925 X4.4811 Y1.4743
N11930 X4.4607 Y1.4766
N11935 X4.4399 Y1.4776
N11940 X4.419 Y1.4773
N11945 X4.3982 Y1.4757
N11950 X4.3776 Y1.4729
N11955 X4.3571 Y1.4688
N11960 X4.3369 Y1.4636
N11965 X4.321 Y1.4584
N11970 X4.3064 Y1.4526
N11975 X4.2945 Y1.4469
N11980 X4.291 Y1.4449
N11985 X4.28 Y1.4375
N11990 X4.2706 Y1.4282
N11995 X4.2629 Y1.4174
N12000 X4.2572 Y1.4054
N12005 X4.2537 Y1.3926
N12010 X4.2525 Y1.3794
N12015 Y1.3119
N12020 G3 X4.2779 Y1.2878 Z0.623 I0.025 J0.0009
N12025 G1 X4.2784 Z0.6231
N12030 X4.6467 Y1.2934
N12035 X4.6479 Y1.2935 Z0.6228
N12040 G3 X4.6725 Y1.3176 Z0.6151 I-0.0004 J0.025
N12045 G1 Y1.3775
N12050 G3 X4.6669 Y1.406 I-0.0926 J-0.0034
N12055 X4.651 Y1.4372 I-0.127 J-0.0453
N12060 G1 X4.645 Y1.4455
N12065 X4.6378 Y1.4543
N12070 X4.6292 Y1.4633
N12075 X4.6199 Y1.472
N12080 X4.6091 Y1.481
N12085 X4.5967 Y1.4899
N12090 X4.5835 Y1.4982
N12095 X4.5688 Y1.5061
N12100 X4.5525 Y1.5137
N12105 X4.5347 Y1.5205
N12110 X4.516 Y1.5264
N12115 X4.4962 Y1.5313
N12120 X4.4756 Y1.5349
N12125 X4.4549 Y1.5373
N12130 X4.4341 Y1.5384
N12135 X4.4132
N12140 X4.3924 Y1.5372
N12145 X4.3717 Y1.5348
N12150 X4.3512 Y1.5312
N12155 X4.334 Y1.5271
N12160 X4.3189 Y1.5224
N12165 X4.3058 Y1.5174
N12170 X4.2942 Y1.5121
N12175 X4.292 Y1.5109
N12180 X4.2808 Y1.5035
N12185 X4.2711 Y1.4942
N12190 X4.2632 Y1.4833
N12195 X4.2573 Y1.4712
N12200 X4.2537 Y1.4582
N12205 X4.2525 Y1.4448
N12210 Y1.3794
N12215 G3 X4.2774 Y1.3553 Z0.6229 I0.025 J0.0009
N12220 G1 X4.2784 Z0.6231
N12225 X4.6467 Y1.3534
N12230 X4.6474 Z0.623
N12235 G3 X4.6725 Y1.3775 Z0.6151 I0.0001 J0.025
N12240 G1 Y1.4341
N12245 G3 X4.664 Y1.472 I-0.0984 J-0.0021
N12250 G1 X4.6605 Y1.4797
N12255 X4.6562 Y1.4875
N12260 X4.6509 Y1.496
N12265 X4.6448 Y1.5044
N12270 X4.6374 Y1.5134
N12275 X4.6289 Y1.5225
N12280 X4.6193 Y1.5314
N12285 X4.6081 Y1.5406
N12290 X4.5956 Y1.5496
N12295 X4.5821 Y1.5581
N12300 X4.5667 Y1.5664
N12305 X4.5497 Y1.5743
N12310 X4.5313 Y1.5814
N12315 X4.5116 Y1.5876
N12320 X4.4913 Y1.5925
N12325 X4.4708 Y1.5962
N12330 X4.4501 Y1.5988
N12335 X4.4293 Y1.6001
N12340 X4.4084 Y1.6003
N12345 X4.3876 Y1.5993
N12350 X4.3669 Y1.5971
N12355 X4.3477 Y1.5938
N12360 X4.3312 Y1.59
N12365 X4.3176 Y1.5858
N12370 X4.3046 Y1.5809
N12375 X4.2937 Y1.576
N12380 X4.2924 Y1.5753
N12385 X4.2811 Y1.5679
N12390 X4.2712 Y1.5586
N12395 X4.2633 Y1.5477
N12400 X4.2574 Y1.5356
N12405 X4.2537 Y1.5225
N12410 X4.2525 Y1.5091
N12415 Y1.4448
N12420 G3 X4.2768 Y1.4207 Z0.6228 I0.025 J0.0009
N12425 G1 X4.2784 Z0.6231
N12430 X4.6467 Y1.41
N12435 X4.6468
N12440 G3 X4.6725 Y1.4341 Z0.6151 I0.0007 J0.025
N12445 G1 Y1.494
N12450 G3 X4.6669 Y1.5237 I-0.0941 J-0.0025
N12455 G1 X4.664 Y1.5311
N12460 G3 X4.6445 Y1.5639 I-0.1374 J-0.0595
N12465 G1 X4.6369 Y1.5731
N12470 X4.6284 Y1.5822
N12475 X4.6185 Y1.5914
N12480 X4.6069 Y1.601
N12485 X4.5944 Y1.61
N12490 X4.5802 Y1.6189
N12495 X4.5643 Y1.6275
N12500 X4.5467 Y1.6356
N12505 X4.5276 Y1.643
N12510 X4.5077 Y1.6492
N12515 X4.4874 Y1.6542
N12520 X4.4669 Y1.658
N12525 X4.4463 Y1.6607
N12530 X4.4255 Y1.6621
N12535 X4.4046 Y1.6624
N12540 X4.3838 Y1.6615
N12545 X4.363 Y1.6594
N12550 X4.3454 Y1.6564
N12555 X4.3293 Y1.6526
N12560 X4.3164 Y1.6487
N12565 X4.3036 Y1.6439
N12570 X4.2931 Y1.6392
N12575 X4.2925 Y1.6389
N12580 X4.2811 Y1.6315
N12585 X4.2713 Y1.6222
N12590 X4.2633 Y1.6113
N12595 X4.2574 Y1.5991
N12600 X4.2537 Y1.5861
N12605 X4.2525 Y1.5726
N12610 Y1.5091
N12615 G3 X4.2765 Y1.485 Z0.6227 I0.025 J0.0009
N12620 G1 X4.2784 Y1.4849 Z0.6231
N12625 X4.6465 Y1.4699
N12630 X4.6467
N12635 G3 X4.6725 Y1.494 Z0.6151 I0.0009 J0.025
N12640 G1 Y1.5539
N12645 G3 X4.6668 Y1.5832 I-0.0944 J-0.0031
N12650 G1 X4.6639 Y1.5907
N12655 X4.6604 Y1.5984
N12660 X4.6559 Y1.6066
N12665 X4.6504 Y1.6153
N12670 X4.6441 Y1.624
N12675 X4.6363 Y1.6335
N12680 X4.6277 Y1.6426
N12685 X4.6175 Y1.6522
N12690 X4.6057 Y1.6619
N12695 X4.5929 Y1.6711
N12700 X4.5783 Y1.6803
N12705 X4.562 Y1.6891
N12710 X4.5439 Y1.6975
N12715 X4.5245 Y1.705
N12720 X4.5046 Y1.7112
N12725 X4.4843 Y1.7163
N12730 X4.4639 Y1.7201
N12735 X4.4432 Y1.7228
N12740 X4.4224 Y1.7243
N12745 X4.4015 Y1.7246
N12750 X4.3807 Y1.7238
N12755 X4.3602 Y1.7216
N12760 X4.3435 Y1.7188
N12765 X4.3278 Y1.7151
N12770 X4.3153 Y1.7113
N12775 X4.3027 Y1.7066
N12780 X4.2924 Y1.7019
N12785 X4.2811 Y1.6945
N12790 X4.2712 Y1.6852
N12795 X4.2633 Y1.6743
N12800 X4.2574 Y1.6622
N12805 X4.2537 Y1.6491
N12810 X4.2525 Y1.6357
N12815 Y1.5726
N12820 G3 X4.2762 Y1.5485 Z0.6227 I0.025 J0.0009
N12825 G1 X4.2784 Y1.5484 Z0.6231
N12830 X4.6463 Y1.5298
N12835 X4.6467
N12840 G3 X4.6725 Y1.5539 Z0.6151 I0.0009 J0.025
N12845 G1 Y1.6097
N12850 G3 X4.6636 Y1.6511 I-0.1041 J-0.0008
N12855 G1 X4.6601 Y1.6588
N12860 X4.6555 Y1.6672
N12865 X4.65 Y1.6759
N12870 X4.6435 Y1.6848
N12875 X4.6356 Y1.6944
N12880 X4.6269 Y1.7037
N12885 X4.6164 Y1.7135
N12890 X4.6045 Y1.7233
N12895 X4.5915 Y1.7327
N12900 X4.5766 Y1.742
N12905 X4.56 Y1.7511
N12910 X4.5416 Y1.7595
N12915 X4.5222 Y1.767
N12920 X4.5023 Y1.7733
N12925 X4.4821 Y1.7784
N12930 X4.4616 Y1.7822
N12935 X4.4409 Y1.785
N12940 X4.4201 Y1.7865
N12945 X4.3993 Y1.7869
N12950 X4.3784 Y1.786
N12955 X4.3583 Y1.7839
N12960 X4.3422 Y1.7812
N12965 X4.3268 Y1.7775
N12970 X4.3145 Y1.7738
N12975 X4.3021 Y1.7691
N12980 X4.2966 Y1.7666
N12985 X4.2842 Y1.7595
N12990 X4.2734 Y1.7502
N12995 X4.2645 Y1.7389
N13000 X4.2579 Y1.7262
N13005 X4.2539 Y1.7125
N13010 X4.2525 Y1.6983
N13015 Y1.6357
N13020 G3 X4.2758 Y1.6116 Z0.6226 I0.025 J0.0009
N13025 G1 X4.2784 Y1.6114 Z0.6231
N13030 X4.6458 Y1.5857
N13035 X4.6461
N13040 X4.6464 Y1.5856
N13045 X4.6467
N13050 G3 X4.6725 Y1.6097 Z0.6151 I0.0009 J0.025
N13055 G1 Y1.6738
N13060 G3 X4.6667 Y1.7039 I-0.0968 J-0.0031
N13065 G1 X4.6637 Y1.7117
N13070 X4.6601 Y1.7195
N13075 X4.6554 Y1.7281
N13080 X4.6499 Y1.7368
N13085 X4.6433 Y1.746
N13090 X4.6353 Y1.7556
N13095 X4.6265 Y1.7651
N13100 X4.6158 Y1.7751
N13105 X4.6038 Y1.7849
N13110 X4.5905 Y1.7945
N13115 X4.5754 Y1.8039
N13120 X4.5585 Y1.8131
N13125 X4.54 Y1.8216
N13130 X4.5205 Y1.8291
N13135 X4.5007 Y1.8354
N13140 X4.4804 Y1.8405
N13145 X4.46 Y1.8444
N13150 X4.4393 Y1.8472
N13155 X4.4185 Y1.8487
N13160 X4.3976 Y1.8491
N13165 X4.3768 Y1.8482
N13170 X4.3578 Y1.8462
N13175 X4.3409 Y1.8433
N13180 X4.3268 Y1.84
N13185 X4.3136 Y1.8359
N13190 X4.302 Y1.8315
N13195 X4.2966 Y1.8291
N13200 X4.2842 Y1.822
N13205 X4.2733 Y1.8126
N13210 X4.2645 Y1.8014
N13215 X4.2579 Y1.7887
N13220 X4.2539 Y1.775
N13225 X4.2525 Y1.7608
N13230 Y1.6983
N13235 G3 X4.2759 Y1.6742 Z0.6226 I0.025 J0.0009
N13240 G1 X4.2784 Y1.674 Z0.6231
N13245 X4.6459 Y1.6497
N13250 X4.6463
N13255 X4.6467
N13260 G3 X4.6725 Y1.6738 Z0.6151 I0.0009 J0.025
N13265 G1 Y1.7337
N13270 G3 X4.6666 Y1.7651 I-0.0986 J-0.0024
N13275 G1 X4.6636 Y1.7729
N13280 X4.66 Y1.7807
N13285 X4.6552 Y1.7895
N13290 X4.6497 Y1.7982
N13295 X4.643 Y1.8075
N13300 X4.635 Y1.8171
N13305 X4.626 Y1.8267
N13310 X4.6152 Y1.8369
N13315 X4.6032 Y1.8467
N13320 X4.5898 Y1.8564
N13325 X4.5745 Y1.866
N13330 X4.5575 Y1.8752
N13335 X4.5388 Y1.8838
N13340 X4.5194 Y1.8913
N13345 X4.4995 Y1.8976
N13350 X4.4793 Y1.9027
N13355 X4.4588 Y1.9066
N13360 X4.4381 Y1.9094
N13365 X4.4173 Y1.9109
N13370 X4.3965 Y1.9113
N13375 X4.3756 Y1.9104
N13380 X4.357 Y1.9084
N13385 X4.3402 Y1.9055
N13390 X4.3263 Y1.9022
N13395 X4.3131 Y1.8981
N13400 X4.3016 Y1.8938
N13405 X4.2965 Y1.8914
N13410 X4.2841 Y1.8843
N13415 X4.2733 Y1.875
N13420 X4.2645 Y1.8637
N13425 X4.2579 Y1.8511
N13430 X4.2539 Y1.8374
N13435 X4.2525 Y1.8231
N13440 Y1.7608
N13445 G3 X4.2757 Y1.7367 Z0.6226 I0.025 J0.0009
N13450 G1 X4.2784 Y1.7365 Z0.6231
N13455 X4.6457 Y1.7097
N13460 X4.646 Y1.7096
N13465 X4.6464
N13470 X4.6467
N13475 G3 X4.6725 Y1.7337 Z0.6151 I0.0009 J0.025
N13480 G1 Y1.7936
N13485 G3 X4.6665 Y1.8265 I-0.1011 J-0.0015
N13490 X4.6495 Y1.8598 I-0.1364 J-0.0487
N13495 G1 X4.6427 Y1.8692
N13500 X4.6347 Y1.8789
N13505 X4.6256 Y1.8886
N13510 X4.6147 Y1.8988
N13515 X4.6027 Y1.9087
N13520 X4.5892 Y1.9184
N13525 X4.5738 Y1.9281
N13530 X4.5567 Y1.9373
N13535 X4.5379 Y1.946
N13540 X4.5185 Y1.9535
N13545 X4.4986 Y1.9598
N13550 X4.4784 Y1.9649
N13555 X4.4579 Y1.9688
N13560 X4.4372 Y1.9716
N13565 X4.4164 Y1.9731
N13570 X4.3956 Y1.9735
N13575 X4.3748 Y1.9726
N13580 X4.3564 Y1.9706
N13585 X4.3397 Y1.9677
N13590 X4.3259 Y1.9644
N13595 X4.3127 Y1.9603
N13600 X4.3013 Y1.9559
N13605 X4.2964 Y1.9537
N13610 X4.284 Y1.9466
N13615 X4.2733 Y1.9372
N13620 X4.2644 Y1.926
N13625 X4.2579 Y1.9133
N13630 X4.2539 Y1.8997
N13635 X4.2525 Y1.8855
N13640 Y1.8231
N13645 G3 X4.2755 Y1.7991 Z0.6225 I0.025 J0.0009
N13650 G1 X4.2784 Y1.7989 Z0.6231
N13655 X4.6455 Y1.7696
N13660 X4.6459
N13665 X4.6463 Y1.7695
N13670 X4.6467
N13675 G3 X4.6725 Y1.7936 Z0.6151 I0.0009 J0.025
N13680 G1 Y1.8569
N13685 G3 X4.6666 Y1.8881 I-0.0989 J-0.0028
N13690 G1 X4.6635 Y1.896
N13695 X4.6598 Y1.9039
N13700 X4.655 Y1.9128
N13705 X4.6495 Y1.9215
N13710 X4.6426 Y1.9311
N13715 X4.6347 Y1.9407
N13720 X4.6254 Y1.9505
N13725 X4.6145 Y1.9608
N13730 X4.6024 Y1.9707
N13735 X4.5888 Y1.9805
N13740 X4.5734 Y1.9902
N13745 X4.5562 Y1.9995
N13750 X4.5374 Y2.0081
N13755 X4.5179 Y2.0157
N13760 X4.4981 Y2.0219
N13765 X4.4778 Y2.027
N13770 X4.4574 Y2.031
N13775 X4.4367 Y2.0337
N13780 X4.4159 Y2.0353
N13785 X4.395 Y2.0356
N13790 X4.3743 Y2.0347
N13795 X4.356 Y2.0327
N13800 X4.3394 Y2.0298
N13805 X4.3256 Y2.0265
N13810 X4.3125 Y2.0225
N13815 X4.3012 Y2.0181
N13820 X4.2964 Y2.0159
N13825 X4.284 Y2.0088
N13830 X4.2732 Y1.9995
N13835 X4.2644 Y1.9882
N13840 X4.2579 Y1.9756
N13845 X4.2539 Y1.9619
N13850 X4.2525 Y1.9477
N13855 Y1.8855
N13860 G3 X4.2756 Y1.8614 Z0.6225 I0.025 J0.0009
N13865 G1 X4.2784 Y1.8612 Z0.6231
N13870 X4.6456 Y1.8329
N13875 X4.646
N13880 X4.6463 Y1.8328
N13885 X4.6467
N13890 G3 X4.6725 Y1.8569 Z0.6151 I0.0009 J0.025
N13895 G1 Y1.9169
N13900 G3 X4.6665 Y1.95 I-0.1018 J-0.0015
N13905 G1 X4.6634 Y1.9579
N13910 X4.6597 Y1.9658
N13915 X4.6549 Y1.9747
N13920 X4.6494 Y1.9835
N13925 X4.6424 Y1.993
N13930 X4.6345 Y2.0027
N13935 X4.6252 Y2.0125
N13940 X4.6142 Y2.0228
N13945 X4.6022 Y2.0327
N13950 X4.5885 Y2.0426
N13955 X4.573 Y2.0523
N13960 X4.5558 Y2.0616
N13965 X4.537 Y2.0703
N13970 X4.5175 Y2.0778
N13975 X4.4977 Y2.0841
N13980 X4.4774 Y2.0892
N13985 X4.457 Y2.0931
N13990 X4.4363 Y2.0959
N13995 X4.4155 Y2.0974
N14000 X4.3947 Y2.0978
N14005 X4.3739 Y2.0969
N14010 X4.3558 Y2.0949
N14015 X4.3391 Y2.092
N14020 X4.3255 Y2.0887
N14025 X4.3124 Y2.0846
N14030 X4.3011 Y2.0803
N14035 X4.2963 Y2.0781
N14040 X4.284 Y2.071
N14045 X4.2732 Y2.0617
N14050 X4.2644 Y2.0505
N14055 X4.2579 Y2.0378
N14060 X4.2539 Y2.0241
N14065 X4.2525 Y2.0099
N14070 Y1.9477
N14075 G3 X4.2754 Y1.9237 Z0.6225 I0.025 J0.0009
N14080 G1 X4.2783 Y1.9234 Z0.6231
N14085 X4.6455 Y1.8928
N14090 X4.6459
N14095 X4.6463
N14100 X4.6467
N14105 G3 X4.6725 Y1.9169 Z0.6151 I0.0009 J0.025
N14110 G1 Y1.9809
N14115 G3 X4.6665 Y2.0118 I-0.099 J-0.0032
N14120 G1 X4.6635 Y2.0197
N14125 X4.6598 Y2.0277
N14130 X4.6549 Y2.0366
N14135 X4.6494 Y2.0454
N14140 X4.6424 Y2.055
N14145 X4.6345 Y2.0646
N14150 X4.6252 Y2.0745
N14155 X4.6142 Y2.0849
N14160 X4.6021 Y2.0948
N14165 X4.5884 Y2.1047
N14170 X4.5729 Y2.1144
N14175 X4.5556 Y2.1237
N14180 X4.5368 Y2.1324
N14185 X4.5173 Y2.1399
N14190 X4.4974 Y2.1462
N14195 X4.4772 Y2.1513
N14200 X4.4567 Y2.1553
N14205 X4.4361 Y2.158
N14210 X4.4153 Y2.1596
N14215 X4.3944 Y2.1599
N14220 X4.3737 Y2.159
N14225 X4.3556 Y2.157
N14230 X4.339 Y2.1541
N14235 X4.3254 Y2.1508
N14240 X4.3123 Y2.1468
N14245 X4.301 Y2.1425
N14250 X4.2963 Y2.1403
N14255 X4.284 Y2.1332
N14260 X4.2732 Y2.1238
N14265 X4.2644 Y2.1126
N14270 X4.2579 Y2.1
N14275 X4.2539 Y2.0863
N14280 X4.2525 Y2.0721
N14285 Y2.0099
N14290 G3 X4.2756 Y1.9859 Z0.6225 I0.025 J0.0009
N14295 G1 X4.2784 Y1.9857 Z0.6231
N14300 X4.6456 Y1.9569
N14305 X4.6459 Y1.9568
N14310 X4.6463
N14315 X4.6467
N14320 G3 X4.6725 Y1.9809 Z0.6151 I0.0009 J0.025
N14325 G1 Y2.0408
N14330 G3 X4.6664 Y2.0739 I-0.1017 J-0.0017
N14335 G1 X4.6634 Y2.0818
N14340 X4.6597 Y2.0898
N14345 X4.6548 Y2.0987
N14350 X4.6493 Y2.1075
N14355 X4.6423 Y2.1171
N14360 X4.6344 Y2.1267
N14365 X4.625 Y2.1367
N14370 X4.614 Y2.147
N14375 X4.602 Y2.1569
N14380 X4.5882 Y2.1668
N14385 X4.5727 Y2.1765
N14390 X4.5554 Y2.1859
N14395 X4.5366 Y2.1946
N14400 X4.5171 Y2.2021
N14405 X4.4973 Y2.2084
N14410 X4.477 Y2.2135
N14415 X4.4566 Y2.2174
N14420 X4.4359 Y2.2202
N14425 X4.4151 Y2.2217
N14430 X4.3942 Y2.2221
N14435 X4.3736 Y2.2212
N14440 X4.3555 Y2.2192
N14445 X4.3389 Y2.2163
N14450 X4.3253 Y2.213
N14455 X4.3122 Y2.2089
N14460 X4.301 Y2.2046
N14465 X4.2963 Y2.2025
N14470 X4.284 Y2.1953
N14475 X4.2732 Y2.186
N14480 X4.2644 Y2.1748
N14485 X4.2579 Y2.1621
N14490 X4.2539 Y2.1485
N14495 X4.2525 Y2.1343
N14500 Y2.0721
N14505 G3 X4.2754 Y2.0481 Z0.6225 I0.025 J0.0009
N14510 G1 X4.2783 Y2.0478 Z0.6231
N14515 X4.6454 Y2.0168
N14520 X4.6458
N14525 X4.6463
N14530 X4.6467 Y2.0167
N14535 G3 X4.6725 Y2.0408 Z0.6151 I0.0009 J0.025
N14540 G1 Y2.1041
N14545 G3 X4.6665 Y2.1358 I-0.1 J-0.0026
N14550 G1 X4.6634 Y2.1437
N14555 X4.6597 Y2.1518
N14560 X4.6549 Y2.1607
N14565 X4.6493 Y2.1695
N14570 X4.6423 Y2.1792
N14575 X4.6344 Y2.1888
N14580 X4.625 Y2.1987
N14585 X4.614 Y2.2091
N14590 X4.6019 Y2.219
N14595 X4.5882 Y2.2289
N14600 X4.5726 Y2.2387
N14605 X4.5553 Y2.248
N14610 X4.5365 Y2.2567
N14615 X4.517 Y2.2642
N14620 X4.4971 Y2.2705
N14625 X4.4769 Y2.2756
N14630 X4.4564 Y2.2796
N14635 X4.4358 Y2.2823
N14640 X4.415 Y2.2839
N14645 X4.3941 Y2.2842
N14650 X4.3735 Y2.2833
N14655 X4.3554 Y2.2813
N14660 X4.3389 Y2.2784
N14665 X4.3253 Y2.2751
N14670 X4.3122 Y2.2711
N14675 X4.3009 Y2.2668
N14680 X4.2963 Y2.2646
N14685 X4.284 Y2.2575
N14690 X4.2732 Y2.2482
N14695 X4.2644 Y2.237
N14700 X4.2579 Y2.2243
N14705 X4.2539 Y2.2106
N14710 X4.2525 Y2.1964
N14715 Y2.1343
N14720 G3 X4.2755 Y2.1102 Z0.6225 I0.025 J0.0009
N14725 G1 X4.2783 Y2.11 Z0.6231
N14730 X4.6455 Y2.0801
N14735 X4.6459
N14740 X4.6463
N14745 X4.6467 Y2.08
N14750 G3 X4.6725 Y2.1041 Z0.6151 I0.0009 J0.025
N14755 G1 Y2.1641
N14760 G3 X4.6664 Y2.198 I-0.1033 J-0.0012
N14765 G1 X4.6633 Y2.2059
N14770 X4.6596 Y2.2139
N14775 X4.6548 Y2.2228
N14780 X4.6492 Y2.2316
N14785 X4.6422 Y2.2413
N14790 X4.6343 Y2.2509
N14795 X4.6249 Y2.2609
N14800 X4.6139 Y2.2712
N14805 X4.6018 Y2.2811
N14810 X4.5881 Y2.291
N14815 X4.5725 Y2.3008
N14820 X4.5552 Y2.3102
N14825 X4.5364 Y2.3189
N14830 X4.5169 Y2.3264
N14835 X4.497 Y2.3327
N14840 X4.4768 Y2.3378
N14845 X4.4563 Y2.3417
N14850 X4.4357 Y2.3444
N14855 X4.4149 Y2.346
N14860 X4.394 Y2.3464
N14865 X4.3734 Y2.3454
N14870 X4.3554 Y2.3434
N14875 X4.3388 Y2.3405
N14880 X4.3252 Y2.3373
N14885 X4.3122 Y2.3332
N14890 X4.3009 Y2.3289
N14895 X4.2963 Y2.3268
N14900 X4.284 Y2.3196
N14905 X4.2732 Y2.3103
N14910 X4.2644 Y2.2991
N14915 X4.2579 Y2.2864
N14920 X4.2539 Y2.2728
N14925 X4.2525 Y2.2586
N14930 Y2.1964
N14935 G3 X4.2753 Y2.1724 Z0.6225 I0.025 J0.0009
N14940 G1 X4.2783 Y2.1721 Z0.6231
N14945 X4.6454 Y2.14
N14950 X4.6458
N14955 X4.6462
N14960 X4.6467
N14965 G3 X4.6725 Y2.1641 Z0.6151 I0.0009 J0.025
N14970 G1 Y2.2281
N14975 G3 X4.6665 Y2.26 I-0.1002 J-0.0025
N14980 G1 X4.6634 Y2.2679
N14985 X4.6597 Y2.2759
N14990 X4.6548 Y2.2849
N14995 X4.6493 Y2.2937
N15000 X4.6423 Y2.3034
N15005 X4.6343 Y2.313
N15010 X4.625 Y2.3229
N15015 X4.6139 Y2.3333
N15020 X4.6018 Y2.3432
N15025 X4.5881 Y2.3532
N15030 X4.5725 Y2.3629
N15035 X4.5552 Y2.3723
N15040 X4.5363 Y2.381
N15045 X4.5169 Y2.3885
N15050 X4.497 Y2.3948
N15055 X4.4768 Y2.3999
N15060 X4.4563 Y2.4038
N15065 X4.4356 Y2.4066
N15070 X4.4148 Y2.4082
N15075 X4.394 Y2.4085
N15080 X4.3733 Y2.4076
N15085 X4.3553 Y2.4056
N15090 X4.3388 Y2.4027
N15095 X4.3252 Y2.3994
N15100 X4.3122 Y2.3953
N15105 X4.3009 Y2.391
N15110 X4.2963 Y2.3889
N15115 X4.284 Y2.3818
N15120 X4.2732 Y2.3725
N15125 X4.2644 Y2.3613
N15130 X4.2579 Y2.3486
N15135 X4.2539 Y2.3349
N15140 X4.2525 Y2.3207
N15145 Y2.2586
N15150 G3 X4.2755 Y2.2345 Z0.6225 I0.025 J0.0009
N15155 G1 X4.2783 Y2.2343 Z0.6231
N15160 X4.6455 Y2.2041
N15165 X4.6459
N15170 X4.6463 Y2.204
N15175 X4.6467
N15180 G3 X4.6725 Y2.2281 Z0.6151 I0.0009 J0.025
N15185 G1 Y2.2914
N15190 G3 X4.6665 Y2.322 I-0.099 J-0.0035
N15195 G1 X4.6635 Y2.33
N15200 X4.6598 Y2.338
N15205 X4.6549 Y2.3469
N15210 X4.6493 Y2.3558
N15215 X4.6423 Y2.3655
N15220 X4.6344 Y2.3751
N15225 X4.625 Y2.3851
N15230 X4.6139 Y2.3954
N15235 X4.6019 Y2.4054
N15240 X4.5881 Y2.4153
N15245 X4.5725 Y2.4251
N15250 X4.5552 Y2.4344
N15255 X4.5363 Y2.4431
N15260 X4.5169 Y2.4506
N15265 X4.497 Y2.4569
N15270 X4.4768 Y2.462
N15275 X4.4563 Y2.466
N15280 X4.4356 Y2.4687
N15285 X4.4148 Y2.4703
N15290 X4.394 Y2.4706
N15295 X4.3733 Y2.4697
N15300 X4.3553 Y2.4677
N15305 X4.3388 Y2.4648
N15310 X4.3252 Y2.4616
N15315 X4.3122 Y2.4575
N15320 X4.3009 Y2.4532
N15325 X4.2963 Y2.4511
N15330 X4.284 Y2.4439
N15335 X4.2732 Y2.4346
N15340 X4.2644 Y2.4234
N15345 X4.2579 Y2.4107
N15350 X4.2539 Y2.3971
N15355 X4.2525 Y2.3829
N15360 Y2.3207
N15365 G3 X4.2755 Y2.2967 Z0.6225 I0.025 J0.0009
N15370 G1 X4.2784 Y2.2965 Z0.6231
N15375 X4.6456 Y2.2674
N15380 X4.6459 Y2.2673
N15385 X4.6463
N15390 X4.6467
N15395 G3 X4.6725 Y2.2914 Z0.6151 I0.0009 J0.025
N15400 G1 Y2.3514
N15405 G3 X4.6664 Y2.3843 I-0.1017 J-0.0018
N15410 G1 X4.6634 Y2.3922
N15415 X4.6597 Y2.4002
N15420 X4.6548 Y2.4091
N15425 X4.6492 Y2.4179
N15430 X4.6422 Y2.4276
N15435 X4.6343 Y2.4373
N15440 X4.6249 Y2.4472
N15445 X4.6139 Y2.4576
N15450 X4.6018 Y2.4675
N15455 X4.588 Y2.4774
N15460 X4.5725 Y2.4872
N15465 X4.5552 Y2.4966
N15470 X4.5363 Y2.5053
N15475 X4.5168 Y2.5128
N15480 X4.497 Y2.5191
N15485 X4.4767 Y2.5242
N15490 X4.4563 Y2.5281
N15495 X4.4356 Y2.5309
N15500 X4.4148 Y2.5324
N15505 X4.3939 Y2.5328
N15510 X4.3733 Y2.5318
N15515 X4.3553 Y2.5299
N15520 X4.3388 Y2.527
N15525 X4.3252 Y2.5237
N15530 X4.3121 Y2.5196
N15535 X4.3009 Y2.5153
N15540 X4.2963 Y2.5132
N15545 X4.284 Y2.5061
N15550 X4.2732 Y2.4967
N15555 X4.2644 Y2.4855
N15560 X4.2579 Y2.4729
N15565 X4.2539 Y2.4592
N15570 X4.2525 Y2.445
N15575 Y2.3829
N15580 G3 X4.2754 Y2.3588 Z0.6225 I0.025 J0.0009
N15585 G1 X4.2783 Y2.3586 Z0.6231
N15590 X4.6454 Y2.3273
N15595 X4.6458
N15600 X4.6463
N15605 X4.6467 Y2.3272
N15610 G3 X4.6725 Y2.3514 Z0.6151 I0.0009 J0.025
N15615 G1 Y2.4154
N15620 G3 X4.6665 Y2.4463 I-0.0993 J-0.0033
N15625 G1 X4.6635 Y2.4542
N15630 X4.6597 Y2.4623
N15635 X4.6549 Y2.4712
N15640 X4.6493 Y2.48
N15645 X4.6423 Y2.4897
N15650 X4.6343 Y2.4993
N15655 X4.625 Y2.5093
N15660 X4.6139 Y2.5197
N15665 X4.6018 Y2.5296
N15670 X4.5881 Y2.5395
N15675 X4.5725 Y2.5493
N15680 X4.5552 Y2.5587
N15685 X4.5363 Y2.5674
N15690 X4.5168 Y2.5749
N15695 X4.497 Y2.5812
N15700 X4.4767 Y2.5863
N15705 X4.4563 Y2.5902
N15710 X4.4356 Y2.593
N15715 X4.4148 Y2.5946
N15720 X4.3939 Y2.5949
N15725 X4.3733 Y2.594
N15730 X4.3553 Y2.592
N15735 X4.3388 Y2.5891
N15740 X4.3252 Y2.5858
N15745 X4.3121 Y2.5818
N15750 X4.3009 Y2.5775
N15755 X4.2963 Y2.5753
N15760 X4.284 Y2.5682
N15765 X4.2732 Y2.5589
N15770 X4.2644 Y2.5477
N15775 X4.2579 Y2.535
N15780 X4.2539 Y2.5213
N15785 X4.2525 Y2.5072
N15790 Y2.445
N15795 G3 X4.2755 Y2.421 Z0.6225 I0.025 J0.0009
N15800 G1 X4.2784 Y2.4207 Z0.6231
N15805 X4.6455 Y2.3914
N15810 X4.6459 Y2.3913
N15815 X4.6463
N15820 X4.6467
N15825 G3 X4.6725 Y2.4154 Z0.6151 I0.0009 J0.025
N15830 G1 Y2.4753
N15835 G3 X4.6664 Y2.5085 I-0.1021 J-0.0016
N15840 G1 X4.6634 Y2.5164
N15845 X4.6596 Y2.5245
N15850 X4.6548 Y2.5334
N15855 X4.6492 Y2.5422
N15860 X4.6422 Y2.5519
N15865 X4.6343 Y2.5615
N15870 X4.6249 Y2.5715
N15875 X4.6138 Y2.5818
N15880 X4.6018 Y2.5918
N15885 X4.588 Y2.6017
N15890 X4.5724 Y2.6115
N15895 X4.5551 Y2.6208
N15900 X4.5363 Y2.6295
N15905 X4.5168 Y2.6371
N15910 X4.4969 Y2.6433
N15915 X4.4767 Y2.6485
N15920 X4.4562 Y2.6524
N15925 X4.4356 Y2.6551
N15930 X4.4148 Y2.6567
N15935 X4.3939 Y2.657
N15940 X4.3733 Y2.6561
N15945 X4.3553 Y2.6541
N15950 X4.3387 Y2.6512
N15955 X4.3252 Y2.648
N15960 X4.3121 Y2.6439
N15965 X4.3009 Y2.6396
N15970 X4.2963 Y2.6375
N15975 X4.284 Y2.6304
N15980 X4.2732 Y2.621
N15985 X4.2644 Y2.6098
N15990 X4.2579 Y2.5971
N15995 X4.2539 Y2.5835
N16000 X4.2525 Y2.5693
N16005 Y2.5072
N16010 G3 X4.2754 Y2.4831 Z0.6225 I0.025 J0.0009
N16015 G1 X4.2783 Y2.4829 Z0.6231
N16020 X4.6454 Y2.4513
N16025 X4.6458
N16030 X4.6463 Y2.4512
N16035 X4.6467
N16040 G3 X4.6725 Y2.4753 Z0.6151 I0.0009 J0.025
N16045 G1 Y2.5386
N16050 G3 X4.6665 Y2.5706 I-0.1004 J-0.0025
N16055 G1 X4.6634 Y2.5785
N16060 X4.6597 Y2.5865
N16065 X4.6548 Y2.5955
N16070 X4.6493 Y2.6043
N16075 X4.6423 Y2.614
N16080 X4.6343 Y2.6236
N16085 X4.6249 Y2.6336
N16090 X4.6139 Y2.644
N16095 X4.6018 Y2.6539
N16100 X4.588 Y2.6638
N16105 X4.5724 Y2.6736
N16110 X4.5551 Y2.683
N16115 X4.5363 Y2.6917
N16120 X4.5168 Y2.6992
N16125 X4.4969 Y2.7055
N16130 X4.4767 Y2.7106
N16135 X4.4562 Y2.7145
N16140 X4.4356 Y2.7173
N16145 X4.4148 Y2.7188
N16150 X4.3939 Y2.7192
N16155 X4.3733 Y2.7182
N16160 X4.3553 Y2.7163
N16165 X4.3387 Y2.7134
N16170 X4.3252 Y2.7101
N16175 X4.3121 Y2.706
N16180 X4.3009 Y2.7017
N16185 X4.2963 Y2.6996
N16190 X4.284 Y2.6925
N16195 X4.2732 Y2.6831
N16200 X4.2644 Y2.6719
N16205 X4.2579 Y2.6593
N16210 X4.2539 Y2.6456
N16215 X4.2525 Y2.6314
N16220 Y2.5693
N16225 G3 X4.2754 Y2.5453 Z0.6225 I0.025 J0.0009
N16230 G1 X4.2783 Y2.545 Z0.6231
N16235 X4.6455 Y2.5146
N16240 X4.6459
N16245 X4.6463 Y2.5145
N16250 X4.6467
N16255 G3 X4.6725 Y2.5386 Z0.6151 I0.0009 J0.025
N16260 G1 Y2.5986
N16265 G3 X4.6664 Y2.6328 I-0.104 J-0.001
N16270 X4.6492 Y2.6665 I-0.1387 J-0.0496
N16275 G1 X4.6422 Y2.6762
N16280 X4.6342 Y2.6858
N16285 X4.6249 Y2.6958
N16290 X4.6138 Y2.7061
N16295 X4.6017 Y2.716
N16300 X4.588 Y2.726
N16305 X4.5724 Y2.7357
N16310 X4.5551 Y2.7451
N16315 X4.5362 Y2.7538
N16320 X4.5168 Y2.7613
N16325 X4.4969 Y2.7676
N16330 X4.4767 Y2.7727
N16335 X4.4562 Y2.7766
N16340 X4.4355 Y2.7794
N16345 X4.4147 Y2.781
N16350 X4.3939 Y2.7813
N16355 X4.3732 Y2.7804
N16360 X4.3553 Y2.7784
N16365 X4.3387 Y2.7755
N16370 X4.3252 Y2.7722
N16375 X4.3121 Y2.7682
N16380 X4.3009 Y2.7638
N16385 X4.2963 Y2.7618
N16390 X4.284 Y2.7546
N16395 X4.2732 Y2.7453
N16400 X4.2644 Y2.7341
N16405 X4.2579 Y2.7214
N16410 X4.2539 Y2.7077
N16415 X4.2525 Y2.6936
N16420 Y2.6314
N16425 G3 X4.2753 Y2.6074 Z0.6225 I0.025 J0.0009
N16430 G1 X4.2783 Y2.6071 Z0.6231
N16435 X4.6453 Y2.5745
N16440 X4.6467 Y2.5744
N16445 G3 X4.6725 Y2.5986 Z0.6151 I0.0009 J0.025
N16450 G1 Y2.6626
N16455 G3 X4.6665 Y2.6948 I-0.1008 J-0.0023
N16460 G1 X4.6634 Y2.7027
N16465 X4.6597 Y2.7108
N16470 X4.6548 Y2.7197
N16475 X4.6492 Y2.7286
N16480 X4.6422 Y2.7383
N16485 X4.6343 Y2.7479
N16490 X4.6249 Y2.7579
N16495 X4.6138 Y2.7682
N16500 X4.6018 Y2.7782
N16505 X4.588 Y2.7881
N16510 X4.5724 Y2.7979
N16515 X4.5551 Y2.8072
N16520 X4.5362 Y2.8159
N16525 X4.5168 Y2.8235
N16530 X4.4969 Y2.8298
N16535 X4.4767 Y2.8349
N16540 X4.4562 Y2.8388
N16545 X4.4355 Y2.8415
N16550 X4.4147 Y2.8431
N16555 X4.3939 Y2.8434
N16560 X4.3732 Y2.8425
N16565 X4.3553 Y2.8405
N16570 X4.3387 Y2.8376
N16575 X4.3252 Y2.8344
N16580 X4.3121 Y2.8303
N16585 X4.3009 Y2.826
N16590 X4.2963 Y2.8239
N16595 X4.284 Y2.8168
N16600 X4.2732 Y2.8074
N16605 X4.2644 Y2.7962
N16610 X4.2579 Y2.7836
N16615 X4.2539 Y2.7699
N16620 X4.2525 Y2.7557
N16625 Y2.6936
N16630 G3 X4.2754 Y2.6695 Z0.6225 I0.025 J0.0009
N16635 G1 X4.2783 Y2.6693 Z0.6231
N16640 X4.6455 Y2.6386
N16645 X4.6459 Y2.6385
N16650 X4.6463
N16655 X4.6467
N16660 G3 X4.6725 Y2.6626 Z0.6151 I0.0009 J0.025
N16665 G1 Y2.7259
N16670 G3 X4.6665 Y2.7569 I-0.0994 J-0.0032
N16675 G1 X4.6635 Y2.7648
N16680 X4.6597 Y2.7729
N16685 X4.6549 Y2.7818
N16690 X4.6493 Y2.7907
N16695 X4.6423 Y2.8004
N16700 X4.6343 Y2.81
N16705 X4.625 Y2.82
N16710 X4.6139 Y2.8303
N16715 X4.6018 Y2.8403
N16720 X4.588 Y2.8502
N16725 X4.5724 Y2.86
N16730 X4.5551 Y2.8694
N16735 X4.5363 Y2.8781
N16740 X4.5168 Y2.8856
N16745 X4.4969 Y2.8919
N16750 X4.4767 Y2.897
N16755 X4.4562 Y2.9009
N16760 X4.4355 Y2.9037
N16765 X4.4148 Y2.9052
N16770 X4.3939 Y2.9056
N16775 X4.3733 Y2.9046
N16780 X4.3553 Y2.9027
N16785 X4.3387 Y2.8998
N16790 X4.3252 Y2.8965
N16795 X4.3121 Y2.8924
N16800 X4.3009 Y2.8881
N16805 X4.2963 Y2.886
N16810 X4.284 Y2.8789
N16815 X4.2732 Y2.8696
N16820 X4.2644 Y2.8584
N16825 X4.2579 Y2.8457
N16830 X4.2539 Y2.832
N16835 X4.2525 Y2.8178
N16840 Y2.7557
N16845 G3 X4.2755 Y2.7317 Z0.6225 I0.025 J0.0009
N16850 G1 X4.2783 Y2.7314 Z0.6231
N16855 X4.6455 Y2.7019
N16860 X4.6459 Y2.7018
N16865 X4.6463
N16870 X4.6467
N16875 G3 X4.6725 Y2.7259 Z0.6151 I0.0009 J0.025
N16880 G1 Y2.7858
N16885 G3 X4.6664 Y2.8192 I-0.1024 J-0.0015
N16890 G1 X4.6634 Y2.8271
N16895 X4.6596 Y2.8351
N16900 X4.6548 Y2.844
N16905 X4.6492 Y2.8529
N16910 X4.6422 Y2.8625
N16915 X4.6343 Y2.8722
N16920 X4.6249 Y2.8821
N16925 X4.6138 Y2.8925
N16930 X4.6018 Y2.9024
N16935 X4.588 Y2.9124
N16940 X4.5724 Y2.9221
N16945 X4.5551 Y2.9315
N16950 X4.5362 Y2.9402
N16955 X4.5168 Y2.9477
N16960 X4.4969 Y2.954
N16965 X4.4767 Y2.9591
N16970 X4.4562 Y2.963
N16975 X4.4355 Y2.9658
N16980 X4.4147 Y2.9674
N16985 X4.3939 Y2.9677
N16990 X4.3732 Y2.9668
N16995 X4.3553 Y2.9648
N17000 X4.3387 Y2.9619
N17005 X4.3252 Y2.9586
N17010 X4.3121 Y2.9546
N17015 X4.3009 Y2.9503
N17020 X4.2963 Y2.9482
N17025 X4.284 Y2.941
N17030 X4.2732 Y2.9317
N17035 X4.2644 Y2.9205
N17040 X4.2579 Y2.9078
N17045 X4.2539 Y2.8942
N17050 X4.2525 Y2.88
N17055 Y2.8178
N17060 G3 X4.2754 Y2.7938 Z0.6225 I0.025 J0.0009
N17065 G1 X4.2783 Y2.7935 Z0.6231
N17070 X4.6454 Y2.7618
N17075 X4.6458
N17080 X4.6462 Y2.7617
N17085 X4.6467
N17090 G3 X4.6725 Y2.7858 Z0.6151 I0.0009 J0.025
N17095 G1 Y2.8499
N17100 G3 X4.6665 Y2.8812 I-0.0997 J-0.0029
N17105 G1 X4.6634 Y2.8891
N17110 X4.6597 Y2.8972
N17115 X4.6549 Y2.9061
N17120 X4.6493 Y2.9149
N17125 X4.6423 Y2.9246
N17130 X4.6343 Y2.9343
N17135 X4.6249 Y2.9443
N17140 X4.6139 Y2.9546
N17145 X4.6018 Y2.9646
N17150 X4.588 Y2.9745
N17155 X4.5724 Y2.9843
N17160 X4.5551 Y2.9936
N17165 X4.5362 Y3.0023
N17170 X4.5168 Y3.0099
N17175 X4.4969 Y3.0162
N17180 X4.4767 Y3.0213
N17185 X4.4562 Y3.0252
N17190 X4.4355 Y3.0279
N17195 X4.4148 Y3.0295
N17200 X4.3939 Y3.0299
N17205 X4.3733 Y3.0289
N17210 X4.3553 Y3.0269
N17215 X4.3387 Y3.024
N17220 X4.3252 Y3.0208
N17225 X4.3121 Y3.0167
N17230 X4.3009 Y3.0124
N17235 X4.2963 Y3.0103
N17240 X4.284 Y3.0032
N17245 X4.2732 Y2.9938
N17250 X4.2644 Y2.9826
N17255 X4.2579 Y2.97
N17260 X4.2539 Y2.9563
N17265 X4.2525 Y2.9421
N17270 Y2.88
N17275 G3 X4.2755 Y2.8559 Z0.6225 I0.025 J0.0009
N17280 G1 X4.2783 Y2.8557 Z0.6231
N17285 X4.6455 Y2.8258
N17290 X4.6459
N17295 X4.6463
N17300 X4.6467
N17305 G3 X4.6725 Y2.8499 Z0.6151 I0.0009 J0.025
N17310 G1 Y2.9132
N17315 G3 X4.6666 Y2.9433 I-0.0988 J-0.0039
N17320 G1 X4.6635 Y2.9512
N17325 X4.6598 Y2.9593
N17330 X4.6549 Y2.9682
N17335 X4.6493 Y2.9771
N17340 X4.6423 Y2.9868
N17345 X4.6344 Y2.9964
N17350 X4.625 Y3.0064
N17355 X4.6139 Y3.0167
N17360 X4.6018 Y3.0267
N17365 X4.5881 Y3.0366
N17370 X4.5725 Y3.0464
N17375 X4.5552 Y3.0558
N17380 X4.5363 Y3.0645
N17385 X4.5168 Y3.072
N17390 X4.4969 Y3.0783
N17395 X4.4767 Y3.0834
N17400 X4.4562 Y3.0873
N17405 X4.4356 Y3.0901
N17410 X4.4148 Y3.0916
N17415 X4.3939 Y3.092
N17420 X4.3733 Y3.0911
N17425 X4.3553 Y3.0891
N17430 X4.3388 Y3.0862
N17435 X4.3252 Y3.0829
N17440 X4.3121 Y3.0788
N17445 X4.3009 Y3.0745
N17450 X4.2963 Y3.0724
N17455 X4.284 Y3.0653
N17460 X4.2732 Y3.056
N17465 X4.2644 Y3.0448
N17470 X4.2579 Y3.0321
N17475 X4.2539 Y3.0184
N17480 X4.2525 Y3.0042
N17485 Y2.9421
N17490 G3 X4.2756 Y2.9181 Z0.6225 I0.025 J0.0009
N17495 G1 X4.2784 Y2.9178 Z0.6231
N17500 X4.6456 Y2.8891
N17505 X4.646
N17510 X4.6463
N17515 X4.6467
N17520 G3 X4.6725 Y2.9132 Z0.6151 I0.0009 J0.025
N17525 G1 Y2.9731
N17530 G3 X4.6665 Y3.0056 I-0.101 J-0.0021
N17535 G1 X4.6634 Y3.0135
N17540 X4.6597 Y3.0215
N17545 X4.6548 Y3.0304
N17550 X4.6493 Y3.0393
N17555 X4.6422 Y3.0489
N17560 X4.6343 Y3.0586
N17565 X4.6249 Y3.0685
N17570 X4.6139 Y3.0789
N17575 X4.6018 Y3.0888
N17580 X4.588 Y3.0988
N17585 X4.5724 Y3.1085
N17590 X4.5551 Y3.1179
N17595 X4.5363 Y3.1266
N17600 X4.5168 Y3.1341
N17605 X4.4969 Y3.1404
N17610 X4.4767 Y3.1455
N17615 X4.4562 Y3.1495
N17620 X4.4356 Y3.1522
N17625 X4.4148 Y3.1538
N17630 X4.3939 Y3.1541
N17635 X4.3733 Y3.1532
N17640 X4.3553 Y3.1512
N17645 X4.3387 Y3.1483
N17650 X4.3252 Y3.145
N17655 X4.3121 Y3.141
N17660 X4.3009 Y3.1367
N17665 X4.2963 Y3.1346
N17670 X4.284 Y3.1274
N17675 X4.2732 Y3.1181
N17680 X4.2644 Y3.1069
N17685 X4.2579 Y3.0942
N17690 X4.2539 Y3.0806
N17695 X4.2525 Y3.0664
N17700 Y3.0042
N17705 G3 X4.2754 Y2.9802 Z0.6225 I0.025 J0.0009
N17710 G1 X4.2783 Y2.98 Z0.6231
N17715 X4.6454 Y2.9491
N17720 X4.6459 Y2.949
N17725 X4.6463
N17730 X4.6467
N17735 G3 X4.6725 Y2.9731 Z0.6151 I0.0009 J0.025
N17740 G1 Y3.033
N17745 G3 X4.6633 Y3.0756 I-0.1077 J-0.0011
N17750 G1 X4.6596 Y3.0837
N17755 X4.6547 Y3.0926
N17760 X4.6492 Y3.1014
N17765 X4.6422 Y3.1111
N17770 X4.6342 Y3.1208
N17775 X4.6248 Y3.1307
N17780 X4.6138 Y3.1411
N17785 X4.6017 Y3.151
N17790 X4.5879 Y3.1609
N17795 X4.5724 Y3.1707
N17800 X4.5551 Y3.1801
N17805 X4.5362 Y3.1888
N17810 X4.5167 Y3.1963
N17815 X4.4969 Y3.2026
N17820 X4.4767 Y3.2077
N17825 X4.4562 Y3.2116
N17830 X4.4355 Y3.2143
N17835 X4.4147 Y3.2159
N17840 X4.3939 Y3.2163
N17845 X4.3732 Y3.2153
N17850 X4.3552 Y3.2133
N17855 X4.3387 Y3.2104
N17860 X4.3252 Y3.2072
N17865 X4.3121 Y3.2031
N17870 X4.3009 Y3.1988
N17875 X4.2963 Y3.1967
N17880 X4.284 Y3.1896
N17885 X4.2732 Y3.1802
N17890 X4.2644 Y3.169
N17895 X4.2579 Y3.1564
N17900 X4.2539 Y3.1427
N17905 X4.2525 Y3.1285
N17910 Y3.0664
N17915 G3 X4.2753 Y3.0424 Z0.6225 I0.025 J0.0009
N17920 G1 X4.2783 Y3.0421 Z0.6231
N17925 X4.6453 Y3.009
N17930 X4.6467 Y3.0089
N17935 G3 X4.6725 Y3.033 Z0.6151 I0.0009 J0.025
N17940 G1 Y3.0971
N17945 G3 X4.6664 Y3.1298 I-0.1014 J-0.002
N17950 G1 X4.6634 Y3.1377
N17955 X4.6596 Y3.1458
N17960 X4.6548 Y3.1547
N17965 X4.6492 Y3.1635
N17970 X4.6422 Y3.1732
N17975 X4.6343 Y3.1828
N17980 X4.6249 Y3.1928
N17985 X4.6138 Y3.2032
N17990 X4.6017 Y3.2131
N17995 X4.588 Y3.223
N18000 X4.5724 Y3.2328
N18005 X4.5551 Y3.2422
N18010 X4.5362 Y3.2509
N18015 X4.5168 Y3.2584
N18020 X4.4969 Y3.2647
N18025 X4.4767 Y3.2698
N18030 X4.4562 Y3.2737
N18035 X4.4355 Y3.2765
N18040 X4.4147 Y3.278
N18045 X4.3939 Y3.2784
N18050 X4.3732 Y3.2775
N18055 X4.3553 Y3.2755
N18060 X4.3387 Y3.2726
N18065 X4.3252 Y3.2693
N18070 X4.3121 Y3.2652
N18075 X4.3009 Y3.2609
N18080 X4.2963 Y3.2588
N18085 X4.284 Y3.2517
N18090 X4.2732 Y3.2424
N18095 X4.2644 Y3.2312
N18100 X4.2579 Y3.2185
N18105 X4.2539 Y3.2048
N18110 X4.2525 Y3.1906
N18115 Y3.1285
N18120 G3 X4.2754 Y3.1045 Z0.6225 I0.025 J0.0009
N18125 G1 X4.2783 Y3.1042 Z0.6231
N18130 X4.6454 Y3.073
N18135 X4.6458
N18140 X4.6463
N18145 X4.6467
N18150 G3 X4.6725 Y3.0971 Z0.6151 I0.0009 J0.025
N18155 G1 Y3.1604
N18160 G3 X4.6665 Y3.1919 I-0.0999 J-0.0028
N18165 G1 X4.6634 Y3.1998
N18170 X4.6597 Y3.2079
N18175 X4.6548 Y3.2168
N18180 X4.6493 Y3.2256
N18185 X4.6423 Y3.2353
N18190 X4.6343 Y3.245
N18195 X4.6249 Y3.2549
N18200 X4.6139 Y3.2653
N18205 X4.6018 Y3.2752
N18210 X4.588 Y3.2852
N18215 X4.5724 Y3.2949
N18220 X4.5551 Y3.3043
N18225 X4.5362 Y3.313
N18230 X4.5168 Y3.3205
N18235 X4.4969 Y3.3268
N18240 X4.4767 Y3.3319
N18245 X4.4562 Y3.3359
N18250 X4.4355 Y3.3386
N18255 X4.4147 Y3.3402
N18260 X4.3939 Y3.3405
N18265 X4.3733 Y3.3396
N18270 X4.3553 Y3.3376
N18275 X4.3387 Y3.3347
N18280 X4.3252 Y3.3314
N18285 X4.3121 Y3.3274
N18290 X4.3009 Y3.3231
N18295 X4.2963 Y3.321
N18300 X4.284 Y3.3138
N18305 X4.2732 Y3.3045
N18310 X4.2644 Y3.2933
N18315 X4.2579 Y3.2806
N18320 X4.2539 Y3.267
N18325 X4.2525 Y3.2528
N18330 Y3.1906
N18335 G3 X4.2755 Y3.1666 Z0.6225 I0.025 J0.0009
N18340 G1 X4.2783 Y3.1664 Z0.6231
N18345 X4.6455 Y3.1363
N18350 X4.6459
N18355 X4.6463
N18360 X4.6467
N18365 G3 X4.6725 Y3.1604 Z0.6151 I0.0009 J0.025
N18370 G1 Y3.2203
N18375 G3 X4.6664 Y3.2541 I-0.1032 J-0.0013
N18380 G1 X4.6633 Y3.262
N18385 X4.6596 Y3.2701
N18390 X4.6547 Y3.279
N18395 X4.6492 Y3.2878
N18400 X4.6422 Y3.2975
N18405 X4.6342 Y3.3071
N18410 X4.6249 Y3.3171
N18415 X4.6138 Y3.3275
N18420 X4.6017 Y3.3374
N18425 X4.588 Y3.3473
N18430 X4.5724 Y3.3571
N18435 X4.5551 Y3.3665
N18440 X4.5362 Y3.3752
N18445 X4.5168 Y3.3827
N18450 X4.4969 Y3.389
N18455 X4.4767 Y3.3941
N18460 X4.4562 Y3.398
N18465 X4.4355 Y3.4007
N18470 X4.4147 Y3.4023
N18475 X4.3939 Y3.4027
N18480 X4.3732 Y3.4017
N18485 X4.3553 Y3.3997
N18490 X4.3387 Y3.3968
N18495 X4.3252 Y3.3936
N18500 X4.3121 Y3.3895
N18505 X4.3009 Y3.3852
N18510 X4.2963 Y3.3831
N18515 X4.284 Y3.376
N18520 X4.2732 Y3.3666
N18525 X4.2644 Y3.3554
N18530 X4.2579 Y3.3428
N18535 X4.2539 Y3.3291
N18540 X4.2525 Y3.3149
N18545 Y3.2528
N18550 G3 X4.2753 Y3.2288 Z0.6225 I0.025 J0.0009
N18555 G1 X4.2783 Y3.2285 Z0.6231
N18560 X4.6453 Y3.1963
N18565 X4.6458 Y3.1962
N18570 X4.6462
N18575 X4.6467
N18580 G3 X4.6725 Y3.2203 Z0.6151 I0.0009 J0.025
N18585 G1 Y3.2844
N18590 G3 X4.6665 Y3.3162 I-0.1002 J-0.0026
N18595 G1 X4.6634 Y3.3241
N18600 X4.6597 Y3.3321
N18605 X4.6548 Y3.3411
N18610 X4.6493 Y3.3499
N18615 X4.6423 Y3.3596
N18620 X4.6343 Y3.3692
N18625 X4.6249 Y3.3792
N18630 X4.6139 Y3.3896
N18635 X4.6018 Y3.3995
N18640 X4.588 Y3.4094
N18645 X4.5724 Y3.4192
N18650 X4.5551 Y3.4286
N18655 X4.5362 Y3.4373
N18660 X4.5168 Y3.4448
N18665 X4.4969 Y3.4511
N18670 X4.4767 Y3.4562
N18675 X4.4562 Y3.4601
N18680 X4.4355 Y3.4629
N18685 X4.4147 Y3.4644
N18690 X4.3939 Y3.4648
N18695 X4.3732 Y3.4639
N18700 X4.3553 Y3.4619
N18705 X4.3387 Y3.459
N18710 X4.3252 Y3.4557
N18715 X4.3121 Y3.4516
N18720 X4.3009 Y3.4473
N18725 X4.2963 Y3.4452
N18730 X4.284 Y3.4381
N18735 X4.2732 Y3.4288
N18740 X4.2644 Y3.4176
N18745 X4.2579 Y3.4049
N18750 X4.2539 Y3.3912
N18755 X4.2525 Y3.3771
N18760 Y3.3149
N18765 G3 X4.2754 Y3.2909 Z0.6225 I0.025 J0.0009
N18770 G1 X4.2783 Y3.2906 Z0.6231
N18775 X4.6455 Y3.2603
N18780 X4.6459
N18785 X4.6463
N18790 X4.6467 Y3.2602
N18795 G3 X4.6725 Y3.2844 Z0.6151 I0.0009 J0.025
N18800 G1 Y3.3477
N18805 G3 X4.6665 Y3.3783 I-0.0991 J-0.0035
N18810 G1 X4.6635 Y3.3862
N18815 X4.6597 Y3.3942
N18820 X4.6549 Y3.4032
N18825 X4.6493 Y3.412
N18830 X4.6423 Y3.4217
N18835 X4.6343 Y3.4313
N18840 X4.625 Y3.4413
N18845 X4.6139 Y3.4517
N18850 X4.6018 Y3.4616
N18855 X4.588 Y3.4715
N18860 X4.5724 Y3.4813
N18865 X4.5551 Y3.4907
N18870 X4.5363 Y3.4994
N18875 X4.5168 Y3.5069
N18880 X4.4969 Y3.5132
N18885 X4.4767 Y3.5183
N18890 X4.4562 Y3.5223
N18895 X4.4356 Y3.525
N18900 X4.4148 Y3.5266
N18905 X4.3939 Y3.5269
N18910 X4.3733 Y3.526
N18915 X4.3553 Y3.524
N18920 X4.3387 Y3.5211
N18925 X4.3252 Y3.5178
N18930 X4.3121 Y3.5138
N18935 X4.3009 Y3.5095
N18940 X4.2963 Y3.5074
N18945 X4.284 Y3.5002
N18950 X4.2732 Y3.4909
N18955 X4.2644 Y3.4797
N18960 X4.2579 Y3.467
N18965 X4.2539 Y3.4534
N18970 X4.2525 Y3.4392
N18975 Y3.3771
N18980 G3 X4.2755 Y3.353 Z0.6225 I0.025 J0.0009
N18985 G1 X4.2784 Y3.3528 Z0.6231
N18990 X4.6456 Y3.3236
N18995 X4.6459
N19000 X4.6463
N19005 X4.6467 Y3.3235
N19010 G3 X4.6725 Y3.3477 Z0.6151 I0.0009 J0.025
N19015 G1 Y3.4076
N19020 G3 X4.6664 Y3.4405 I-0.1017 J-0.0018
N19025 G1 X4.6634 Y3.4484
N19030 X4.6596 Y3.4564
N19035 X4.6548 Y3.4654
N19040 X4.6492 Y3.4742
N19045 X4.6422 Y3.4839
N19050 X4.6343 Y3.4935
N19055 X4.6249 Y3.5035
N19060 X4.6138 Y3.5138
N19065 X4.6018 Y3.5238
N19070 X4.588 Y3.5337
N19075 X4.5724 Y3.5435
N19080 X4.5551 Y3.5529
N19085 X4.5362 Y3.5616
N19090 X4.5168 Y3.5691
N19095 X4.4969 Y3.5754
N19100 X4.4767 Y3.5805
N19105 X4.4562 Y3.5844
N19110 X4.4355 Y3.5872
N19115 X4.4147 Y3.5887
N19120 X4.3939 Y3.5891
N19125 X4.3733 Y3.5881
N19130 X4.3553 Y3.5862
N19135 X4.3387 Y3.5833
N19140 X4.3252 Y3.58
N19145 X4.3121 Y3.5759
N19150 X4.3009 Y3.5716
N19155 X4.2963 Y3.5695
N19160 X4.284 Y3.5624
N19165 X4.2732 Y3.553
N19170 X4.2644 Y3.5418
N19175 X4.2579 Y3.5292
N19180 X4.2539 Y3.5155
N19185 X4.2525 Y3.5013
N19190 Y3.4392
N19195 G3 X4.2754 Y3.4151 Z0.6225 I0.025 J0.0009
N19200 G1 X4.2783 Y3.4149 Z0.6231
N19205 X4.6454 Y3.3836
N19210 X4.6458 Y3.3835
N19215 X4.6463
N19220 X4.6467
N19225 G3 X4.6725 Y3.4076 Z0.6151 I0.0009 J0.025
N19230 G1 Y3.4716
N19235 G3 X4.6665 Y3.5026 I-0.0993 J-0.0032
N19240 G1 X4.6635 Y3.5105
N19245 X4.6597 Y3.5185
N19250 X4.6549 Y3.5275
N19255 X4.6493 Y3.5363
N19260 X4.6423 Y3.546
N19265 X4.6343 Y3.5556
N19270 X4.625 Y3.5656
N19275 X4.6139 Y3.576
N19280 X4.6018 Y3.5859
N19285 X4.588 Y3.5958
N19290 X4.5724 Y3.6056
N19295 X4.5551 Y3.615
N19300 X4.5363 Y3.6237
N19305 X4.5168 Y3.6312
N19310 X4.4969 Y3.6375
N19315 X4.4767 Y3.6426
N19320 X4.4562 Y3.6465
N19325 X4.4356 Y3.6493
N19330 X4.4148 Y3.6509
N19335 X4.3939 Y3.6512
N19340 X4.3733 Y3.6503
N19345 X4.3553 Y3.6483
N19350 X4.3387 Y3.6454
N19355 X4.3252 Y3.6421
N19360 X4.3121 Y3.6381
N19365 X4.3009 Y3.6337
N19370 X4.2963 Y3.6316
N19375 X4.284 Y3.6245
N19380 X4.2732 Y3.6152
N19385 X4.2644 Y3.604
N19390 X4.2579 Y3.5913
N19395 X4.2539 Y3.5776
N19400 X4.2525 Y3.5635
N19405 Y3.5013
N19410 G3 X4.2755 Y3.4773 Z0.6225 I0.025 J0.0009
N19415 G1 X4.2784 Y3.477 Z0.6231
N19420 X4.6455 Y3.4476
N19425 X4.6459
N19430 X4.6463 Y3.4475
N19435 X4.6467
N19440 G3 X4.6725 Y3.4716 Z0.6151 I0.0009 J0.025
N19445 G1 Y3.5316
N19450 G3 X4.6664 Y3.5648 I-0.1022 J-0.0016
N19455 G1 X4.6634 Y3.5727
N19460 X4.6596 Y3.5807
N19465 X4.6548 Y3.5897
N19470 X4.6492 Y3.5985
N19475 X4.6422 Y3.6082
N19480 X4.6343 Y3.6178
N19485 X4.6249 Y3.6278
N19490 X4.6138 Y3.6381
N19495 X4.6018 Y3.6481
N19500 X4.588 Y3.658
N19505 X4.5724 Y3.6678
N19510 X4.5551 Y3.6771
N19515 X4.5362 Y3.6858
N19520 X4.5168 Y3.6933
N19525 X4.4969 Y3.6996
N19530 X4.4767 Y3.7047
N19535 X4.4562 Y3.7087
N19540 X4.4355 Y3.7114
N19545 X4.4147 Y3.713
N19550 X4.3939 Y3.7133
N19555 X4.3733 Y3.7124
N19560 X4.3553 Y3.7104
N19565 X4.3387 Y3.7075
N19570 X4.3252 Y3.7042
N19575 X4.3121 Y3.7002
N19580 X4.3009 Y3.6959
N19585 X4.2963 Y3.6938
N19590 X4.284 Y3.6866
N19595 X4.2732 Y3.6773
N19600 X4.2644 Y3.6661
N19605 X4.2579 Y3.6534
N19610 X4.2539 Y3.6398
N19615 X4.2525 Y3.6256
N19620 Y3.5635
N19625 G3 X4.2754 Y3.5394 Z0.6225 I0.025 J0.0009
N19630 G1 X4.2783 Y3.5392 Z0.6231
N19635 X4.6454 Y3.5075
N19640 X4.6458
N19645 X4.6463
N19650 X4.6467
N19655 G3 X4.6725 Y3.5316 Z0.6151 I0.0009 J0.025
N19660 G1 Y3.5949
N19665 G3 X4.6665 Y3.6269 I-0.1005 J-0.0024
N19670 G1 X4.6634 Y3.6348
N19675 X4.6597 Y3.6428
N19680 X4.6548 Y3.6517
N19685 X4.6493 Y3.6606
N19690 X4.6422 Y3.6703
N19695 X4.6343 Y3.6799
N19700 X4.6249 Y3.6899
N19705 X4.6139 Y3.7002
N19710 X4.6018 Y3.7102
N19715 X4.588 Y3.7201
N19720 X4.5724 Y3.7299
N19725 X4.5551 Y3.7393
N19730 X4.5362 Y3.748
N19735 X4.5168 Y3.7555
N19740 X4.4969 Y3.7618
N19745 X4.4767 Y3.7669
N19750 X4.4562 Y3.7708
N19755 X4.4355 Y3.7736
N19760 X4.4147 Y3.7751
N19765 X4.3939 Y3.7755
N19770 X4.3733 Y3.7745
N19775 X4.3553 Y3.7726
N19780 X4.3387 Y3.7697
N19785 X4.3252 Y3.7664
N19790 X4.3121 Y3.7623
N19795 X4.3009 Y3.758
N19800 X4.2963 Y3.7559
N19805 X4.284 Y3.7488
N19810 X4.2732 Y3.7394
N19815 X4.2644 Y3.7282
N19820 X4.2579 Y3.7156
N19825 X4.2539 Y3.7019
N19830 X4.2525 Y3.6877
N19835 Y3.6256
N19840 G3 X4.2754 Y3.6015 Z0.6225 I0.025 J0.0009
N19845 G1 X4.2783 Y3.6013 Z0.6231
N19850 X4.6455 Y3.5708
N19855 X4.6459
N19860 X4.6463
N19865 X4.6467
N19870 G3 X4.6725 Y3.5949 Z0.6151 I0.0009 J0.025
N19875 G1 Y3.6548
N19880 G3 X4.6664 Y3.6891 I-0.1041 J-0.001
N19885 X4.6492 Y3.7228 I-0.1387 J-0.0496
N19890 G1 X4.6422 Y3.7324
N19895 X4.6342 Y3.7421
N19900 X4.6249 Y3.752
N19905 X4.6138 Y3.7624
N19910 X4.6017 Y3.7723
N19915 X4.588 Y3.7823
N19920 X4.5724 Y3.792
N19925 X4.5551 Y3.8014
N19930 X4.5362 Y3.8101
N19935 X4.5167 Y3.8176
N19940 X4.4969 Y3.8239
N19945 X4.4766 Y3.829
N19950 X4.4562 Y3.8329
N19955 X4.4355 Y3.8357
N19960 X4.4147 Y3.8373
N19965 X4.3939 Y3.8376
N19970 X4.3732 Y3.8367
N19975 X4.3552 Y3.8347
N19980 X4.3387 Y3.8318
N19985 X4.3252 Y3.8285
N19990 X4.3121 Y3.8244
N19995 X4.3009 Y3.8201
N20000 X4.2963 Y3.818
N20005 X4.284 Y3.8109
N20010 X4.2732 Y3.8016
N20015 X4.2644 Y3.7904
N20020 X4.2579 Y3.7777
N20025 X4.2539 Y3.764
N20030 X4.2525 Y3.7499
N20035 Y3.6877
N20040 G3 X4.2753 Y3.6637 Z0.6225 I0.025 J0.0009
N20045 G1 X4.2783 Y3.6634 Z0.6231
N20050 X4.6453 Y3.6308
N20055 X4.6467 Y3.6307
N20060 G3 X4.6725 Y3.6548 Z0.6151 I0.0009 J0.025
N20065 G1 Y3.7188
N20070 G3 X4.6665 Y3.7511 I-0.1008 J-0.0022
N20075 G1 X4.6634 Y3.759
N20080 X4.6597 Y3.7671
N20085 X4.6548 Y3.776
N20090 X4.6492 Y3.7848
N20095 X4.6422 Y3.7945
N20100 X4.6343 Y3.8042
N20105 X4.6249 Y3.8141
N20110 X4.6138 Y3.8245
N20115 X4.6018 Y3.8344
N20120 X4.588 Y3.8444
N20125 X4.5724 Y3.8542
N20130 X4.5551 Y3.8635
N20135 X4.5362 Y3.8722
N20140 X4.5168 Y3.8797
N20145 X4.4969 Y3.886
N20150 X4.4767 Y3.8911
N20155 X4.4562 Y3.8951
N20160 X4.4355 Y3.8978
N20165 X4.4147 Y3.8994
N20170 X4.3939 Y3.8997
N20175 X4.3732 Y3.8988
N20180 X4.3553 Y3.8968
N20185 X4.3387 Y3.8939
N20190 X4.3252 Y3.8906
N20195 X4.3121 Y3.8866
N20200 X4.3009 Y3.8823
N20205 X4.2966 Y3.8803
N20210 X4.2847 Y3.8735
N20215 X4.2743 Y3.8647
N20220 X4.2657 Y3.8542
N20225 X4.2591 Y3.8423
N20230 X4.2548 Y3.8293
N20235 X4.2529 Y3.8159
N20240 G3 X4.2525 Y3.7896 I0.5758 J-0.021
N20245 G1 Y3.7499
N20250 G3 X4.2754 Y3.7258 Z0.6225 I0.025 J0.0009
N20255 G1 X4.2783 Y3.7256 Z0.6231
N20260 X4.6454 Y3.6948
N20265 X4.6459
N20270 X4.6463 Y3.6947
N20275 X4.6467
N20280 G3 X4.6725 Y3.7188 Z0.6151 I0.0009 J0.025
N20285 G1 Y3.7821
N20290 G3 X4.6665 Y3.8132 I-0.0995 J-0.0031
N20295 G1 X4.6635 Y3.8211
N20300 X4.6597 Y3.8292
N20305 X4.6549 Y3.8381
N20310 X4.6493 Y3.847
N20315 X4.6423 Y3.8567
N20320 X4.6343 Y3.8663
N20325 X4.625 Y3.8763
N20330 X4.6139 Y3.8866
N20335 X4.6018 Y3.8966
N20340 X4.588 Y3.9065
N20345 X4.5724 Y3.9163
N20350 X4.5551 Y3.9257
N20355 X4.5362 Y3.9344
N20360 X4.5168 Y3.9419
N20365 X4.4969 Y3.9482
N20370 X4.4767 Y3.9533
N20375 X4.4562 Y3.9572
N20380 X4.4355 Y3.96
N20385 X4.4147 Y3.9615
N20390 X4.3939 Y3.9619
N20395 X4.3733 Y3.9609
N20400 X4.3553 Y3.959
N20405 X4.3388 Y3.9561
N20410 X4.3254 Y3.9528
N20415 X4.3244 Y3.9525
N20420 X4.3119 Y3.9474
N20425 X4.3006 Y3.9401
N20430 X4.2908 Y3.931
N20435 X4.2828 Y3.9202
N20440 X4.2808 Y3.917
N20445 X4.2731 Y3.902
N20450 G3 X4.2535 Y3.8271 I0.1934 J-0.0904
N20455 G1 X4.2529 Y3.8159
N20460 G3 X4.2757 Y3.7906 Z0.6227 I0.025 J-0.0004
N20465 G1 X4.2775 Y3.7904 Z0.6231
N20470 X4.6453 Y3.7581
N20475 X4.6458
N20480 X4.6462 Y3.758
N20485 X4.6467
N20490 G3 X4.6725 Y3.7821 Z0.6151 I0.0009 J0.025
N20495 X4.6716 Y3.8271 I-0.6686 J0.0087
N20500 X4.6655 Y3.8645 I-0.2583 J-0.0231
N20505 G1 X4.6589 Y3.8834
N20510 X4.6558 Y3.8908
N20515 X4.6517 Y3.899
N20520 X4.6469 Y3.9073
N20525 X4.6407 Y3.9164
N20530 X4.6338 Y3.9254
N20535 X4.6253 Y3.9351
N20540 X4.6156 Y3.9448
N20545 X4.6047 Y3.9545
N20550 X4.5919 Y3.9644
N20555 X4.5775 Y3.9741
N20560 X4.5619 Y3.9833
N20565 X4.5445 Y3.992
N20570 X4.5254 Y4.0002
N20575 X4.5058 Y4.0071
N20580 X4.4857 Y4.0128
N20585 X4.4654 Y4.0174
N20590 X4.4534 Y4.0193
N20595 X4.4452 Y4.0202
N20600 X4.437
N20605 X4.4288 Y4.0193
