%
(1001)
(MACHINE)
(  DESCRIPTION CNC ROUTER)
(T2 D=0.25 CR=0. - ZMIN=0.3976 - FLAT END MILL)
N10 G90 G94 G17 G91.1
N15 G20
(WHEN USING FUSION FOR PERSONAL USE, THE FEEDRATE OF RAPID)
(MOVES IS REDUCED TO MATCH THE FEEDRATE OF CUTTING MOVES,)
(WHICH CAN INCREASE MACHINING TIME. UNRESTRICTED RAPID MOVES)
(ARE AVAILABLE WITH A FUSION SUBSCRIPTION.)
N20 G53 G0 Z0.
(2D ADAPTIVE1)
N25 T2 M6
N30 S24000 M3
N35 G54
N40 G64 P0.005
N45 G0 X0.927 Y10.63
N50 G43 Z2.2 H2
N55 G1 Z2.02 F80.
N60 G3 X1.1008 Y10.7719 Z1.9737 I0.0367 J0.1325
N65 X0.9104 Y10.888 Z1.9275 I-0.1363 J-0.0093
N70 X0.8643 Y10.6712 Z1.8812 I0.0538 J-0.1247
N75 X1.0829 Y10.6995 Z1.8349 I0.0992 J0.0916
N80 X0.9841 Y10.8951 Z1.7886 I-0.1186 J0.0628
N85 X0.8334 Y10.7379 Z1.7424 I-0.0197 J-0.1319
N90 X1.0305 Y10.6485 Z1.6961 I0.1302 J0.0251
N95 X1.0493 Y10.8628 Z1.6498 I-0.0665 J0.1138
N100 X0.8422 Y10.8097 Z1.6035 I-0.0848 J-0.0999
N105 X0.9603 Y10.6331 Z1.5573 I0.1216 J-0.0465
N110 X1.0869 Y10.8021 Z1.511 I0.0035 J0.1293
N115 X0.8867 Y10.865 Z1.4647 I-0.1224 J-0.0394
N120 X0.8938 Y10.6566 Z1.4185 I0.0773 J-0.1017
N125 X1.0868 Y10.732 Z1.3722 I0.0698 J0.106
N130 X0.9524 Y10.888 Z1.3259 I-0.1224 J0.0304
N135 X0.8506 Y10.7106 Z1.2796 I0.0119 J-0.1248
N140 X1.0504 Y10.6737 Z1.2334 I0.113 J0.0523
N145 X1.0191 Y10.8731 Z1.1871 I-0.0863 J0.0886
N150 X0.8425 Y10.778 Z1.1408 I-0.0546 J-0.1101
N155 X0.9899 Y10.6439 Z1.0945 I0.1212 J-0.0148
N160 X1.0669 Y10.8263 Z1.0483 I-0.0261 J0.1185
N165 X0.8706 Y10.8382 Z1.002 I-0.1024 J-0.0635
N170 X0.9242 Y10.6504 Z0.9557 I0.0933 J-0.075
N175 X1.0825 Y10.7625 Z0.9094 I0.0395 J0.1121
N180 X0.8448 I-0.1189 J0.
N185 X1.0825 I0.1189 J0.
N190 G2 X1.089 Y10.8068 I0.1312 J0.0035
N195 G3 X1.0334 Y10.9057 I-0.1 J0.0089
N200 X0.8361 Y10.8698 I-0.0781 J-0.1309
N205 X0.8752 Y10.6193 I0.1274 J-0.1084
N210 X1.1172 Y10.6953 I0.0883 J0.1421
N215 X1.1115 Y10.9034 I-0.1646 J0.0996
N220 X0.8051 Y10.9156 I-0.1584 J-0.1255
N225 X0.8977 Y10.5502 I0.1558 J-0.1549
N230 X1.1557 Y10.6479 I0.0668 J0.2132
N235 X1.1217 Y10.9741 I-0.1988 J0.1442
N240 X1.0718 Y10.9925 I-0.0511 J-0.0617
N245 G1 X0.9562
N250 G3 X0.7409 Y10.8809 I-0.0136 J-0.2372
N255 X0.9486 Y10.5333 I0.1972 J-0.118
N260 G1 X0.9562 Y10.5325
N265 X1.0611
N270 G3 X1.1903 Y10.6034 I-0.0161 J0.1825
N275 X1.2033 Y10.971 I-0.2199 J0.1918
N280 X1.1499 Y10.9925 I-0.0548 J-0.0588
N285 G1 X1.0718
N290 G3 X1.049 Y10.9755 Z0.9156 I0.0009 J-0.025 F20.
N295 X1.0477 Y10.9682 Z0.9171 I0.0237 J-0.008 F80.
N300 G1 Y10.9666 Z0.9174
N305 X1.037 Y10.5583
N310 Y10.5581
N315 G3 X1.0383 Y10.5495 Z0.9156 I0.025 J-0.0007
N320 X1.0611 Y10.5325 Z0.9094 I0.0237 J0.008 F20.
N325 G1 X1.136 F80.
N330 G3 X1.2501 Y10.5963 I-0.015 J0.1608
N335 X1.3201 Y10.8378 I-0.2314 J0.1979
N340 X1.2778 Y10.9662 I-0.2763 J-0.0197
N345 X1.22 Y10.9925 I-0.0584 J-0.0518
N350 G1 X1.1499
N355 G3 X1.1271 Y10.9755 Z0.9156 I0.0009 J-0.025 F20.
N360 X1.1258 Y10.9683 Z0.9171 I0.0237 J-0.008 F80.
N365 G1 Y10.9666 Z0.9174
N370 X1.1119 Y10.5583
N375 G3 X1.1132 Y10.5495 Z0.9156 I0.025 J-0.0009
N380 X1.136 Y10.5325 Z0.9094 I0.0237 J0.008 F20.
N385 G1 X1.2035 F80.
N390 G3 X1.3109 Y10.593 I-0.0145 J0.1512
N395 X1.3844 Y10.8003 I-0.2344 J0.1998
N400 X1.3524 Y10.9554 I-0.3128 J0.0163
N405 X1.2874 Y10.9925 I-0.0655 J-0.0392
N410 G1 X1.22
N415 G3 X1.1971 Y10.9755 Z0.9156 I0.0009 J-0.025 F20.
N420 X1.1958 Y10.9685 Z0.9171 I0.0237 J-0.008 F80.
N425 G1 Y10.9666 Z0.9174
N430 X1.1793 Y10.5583
N435 G3 X1.1806 Y10.5495 Z0.9156 I0.025 J-0.0009
N440 X1.2035 Y10.5325 Z0.9094 I0.0237 J0.008 F20.
N445 G1 X1.2675 F80.
N450 G3 X1.3721 Y10.5916 I-0.0142 J0.1471
N455 X1.4464 Y10.7822 I-0.2378 J0.2026
N460 X1.4208 Y10.9512 I-0.3237 J0.0373
N465 X1.3533 Y10.9926 I-0.0683 J-0.0358
N470 G1 X1.2874 Y10.9925
N475 G3 X1.2646 Y10.9755 Z0.9156 I0.0009 J-0.025 F20.
N480 X1.2633 Y10.9687 Z0.917 I0.0237 J-0.008 F80.
N485 G1 X1.2632 Y10.9666 Z0.9174
N490 X1.2434 Y10.5587
N495 Y10.5583
N500 G3 X1.2447 Y10.5495 Z0.9156 I0.025 J-0.0009
N505 X1.2675 Y10.5325 Z0.9094 I0.0237 J0.008 F20.
N510 G1 X1.3308 F80.
N515 G3 X1.4338 Y10.5913 I-0.0153 J0.1463
N520 X1.5101 Y10.7872 I-0.2466 J0.2089
N525 X1.4861 Y10.9511 I-0.3137 J0.0377
N530 X1.4185 Y10.9926 I-0.0684 J-0.0356
N535 G1 X1.3533 Y10.9925
N540 G3 X1.3305 Y10.9755 Z0.9156 I0.0009 J-0.025 F20.
N545 X1.3292 Y10.9689 Z0.917 I0.0237 J-0.008 F80.
N550 G1 X1.3291 Y10.9666 Z0.9174
N555 X1.3068 Y10.5588
N560 X1.3067 Y10.5583
N565 G3 X1.308 Y10.5495 Z0.9156 I0.025 J-0.0009
N570 X1.3308 Y10.5325 Z0.9094 I0.0237 J0.008 F20.
N575 G1 X1.3908 F80.
N580 G3 X1.4961 Y10.5917 I-0.0125 J0.1455
N585 X1.5668 Y10.7402 I-0.2292 J0.2003
N590 X1.5512 Y10.9511 I-0.3354 J0.0812
N595 X1.4833 Y10.9926 I-0.0694 J-0.0372
N600 G1 X1.4185 Y10.9925
N605 G3 X1.3957 Y10.9755 Z0.9156 I0.0009 J-0.025 F20.
N610 X1.3945 Y10.9692 Z0.9169 I0.0237 J-0.008 F80.
N615 G1 X1.3943 Y10.9666 Z0.9174
N620 X1.3667 Y10.5592
N625 Y10.5583
N630 G3 X1.368 Y10.5495 Z0.9156 I0.025 J-0.0009
N635 X1.3908 Y10.5325 Z0.9094 I0.0237 J0.008 F20.
N640 G1 X1.4507 F80.
N645 G3 X1.5589 Y10.5924 I-0.0101 J0.1459
N650 X1.6307 Y10.743 I-0.2317 J0.203
N655 X1.6157 Y10.9511 I-0.3309 J0.0808
N660 X1.5478 Y10.9926 I-0.0693 J-0.0372
N665 G1 X1.4833 Y10.9925
N670 G3 X1.4605 Y10.9755 Z0.9156 I0.0009 J-0.025 F20.
N675 X1.4593 Y10.9695 Z0.9169 I0.0237 J-0.008 F80.
N680 G1 X1.459 Y10.9666 Z0.9174
N685 X1.4267 Y10.5594
N690 X1.4266 Y10.5583
N695 G3 X1.4279 Y10.5495 Z0.9156 I0.025 J-0.0009
N700 X1.4507 Y10.5325 Z0.9094 I0.0237 J0.008 F20.
N705 G1 X1.5148 F80.
N710 G3 X1.622 Y10.5928 I-0.0128 J0.148
N715 X1.6947 Y10.745 I-0.235 J0.2057
N720 X1.682 Y10.947 I-0.3336 J0.0805
N725 X1.6122 Y10.9926 I-0.0716 J-0.0333
N730 G1 X1.5478 Y10.9925
N735 G3 X1.525 Y10.9755 Z0.9156 I0.0009 J-0.025 F20.
N740 X1.5238 Y10.9695 Z0.9169 I0.0237 J-0.008 F80.
N745 G1 X1.5236 Y10.9667 Z0.9174
N750 X1.4908 Y10.5595
N755 X1.4907 Y10.5583
N760 G3 X1.492 Y10.5495 Z0.9156 I0.025 J-0.0009
N765 X1.5148 Y10.5325 Z0.9094 I0.0237 J0.008 F20.
N770 G1 X1.5781 F80.
N775 G3 X1.6853 Y10.5932 I-0.0139 J0.1495
N780 X1.7586 Y10.7464 I-0.237 J0.2075
N785 X1.7461 Y10.9472 I-0.3312 J0.0802
N790 X1.6764 Y10.9926 I-0.0715 J-0.0335
N795 G1 X1.6122 Y10.9925
N800 G3 X1.5893 Y10.9755 Z0.9156 I0.0009 J-0.025 F20.
N805 X1.5881 Y10.9696 Z0.9169 I0.0237 J-0.008 F80.
N810 G1 X1.5879 Y10.9667 Z0.9174
N815 X1.5541 Y10.5595
N820 X1.554 Y10.5583
N825 G3 X1.5553 Y10.5495 Z0.9156 I0.025 J-0.0009
N830 X1.5781 Y10.5325 Z0.9094 I0.0237 J0.008 F20.
N835 G1 X1.6422 F80.
N840 G3 X1.7488 Y10.5935 I-0.0157 J0.1511
N845 X1.8226 Y10.7475 I-0.2388 J0.2089
N850 X1.8102 Y10.9474 I-0.3297 J0.0799
N855 X1.7404 Y10.9926 I-0.0714 J-0.0336
N860 G1 X1.6763 Y10.9925
N865 G3 X1.6535 Y10.9755 Z0.9156 I0.0009 J-0.025 F20.
N870 X1.6523 Y10.9696 Z0.9169 I0.0237 J-0.008 F80.
N875 G1 X1.6521 Y10.9667 Z0.9174
N880 X1.6182 Y10.5595
N885 X1.6181 Y10.5583
N890 G3 X1.6194 Y10.5495 Z0.9156 I0.025 J-0.0009
N895 X1.6422 Y10.5325 Z0.9094 I0.0237 J0.008 F20.
N900 G1 X1.7055 F80.
N905 G3 X1.8125 Y10.5937 I-0.016 J0.1519
N910 X1.8865 Y10.7482 I-0.2395 J0.2097
N915 X1.8741 Y10.9475 I-0.3285 J0.0797
N920 X1.8045 Y10.9926 I-0.0713 J-0.0337
N925 G1 X1.7404 Y10.9925
N930 G3 X1.7176 Y10.9755 Z0.9156 I0.0009 J-0.025 F20.
N935 X1.7164 Y10.9696 Z0.9168 I0.0237 J-0.008 F80.
N940 G1 X1.7162 Y10.9667 Z0.9174
N945 X1.6815 Y10.5596
N950 X1.6814 Y10.5583
N955 G3 X1.6827 Y10.5495 Z0.9156 I0.025 J-0.0009
N960 X1.7055 Y10.5325 Z0.9094 I0.0237 J0.008 F20.
N965 G1 X1.7655 F80.
N970 G3 X1.8658 Y10.5827 I-0.009 J0.1433
N975 X1.9546 Y10.774 I-0.2357 J0.2256
N980 X1.9361 Y10.9512 I-0.3069 J0.0574
N985 X1.8685 Y10.9926 I-0.0686 J-0.0361
N990 G1 X1.8045 Y10.9925
N995 G3 X1.7816 Y10.9755 Z0.9156 I0.0009 J-0.025 F20.
N1000 X1.7805 Y10.9699 Z0.9168 I0.0237 J-0.008 F80.
N1005 G1 X1.7802 Y10.9667 Z0.9174
N1010 X1.7415 Y10.5598
N1015 X1.7414 Y10.5591
N1020 Y10.5583
N1025 G3 X1.7426 Y10.5495 Z0.9156 I0.025 J-0.0009
N1030 X1.7655 Y10.5325 Z0.9094 I0.0237 J0.008 F20.
N1035 G1 X1.8329 F80.
N1040 G3 X1.9399 Y10.5941 I-0.017 J0.1532
N1045 X2.0214 Y10.7998 I-0.26 J0.222
N1050 X1.9995 Y10.9509 I-0.273 J0.0376
N1055 X1.9324 Y10.9925 I-0.0671 J-0.0335
N1060 G1 X1.8685
N1065 G3 X1.8456 Y10.9755 Z0.9156 I0.0009 J-0.025 F20.
N1070 X1.8444 Y10.9697 Z0.9168 I0.0237 J-0.008 F80.
N1075 G1 X1.8442 Y10.9667 Z0.9174
N1080 X1.8089 Y10.5596
N1085 X1.8088 Y10.5583
N1090 G3 X1.8101 Y10.5495 Z0.9156 I0.025 J-0.0009
N1095 X1.8329 Y10.5325 Z0.9094 I0.0237 J0.008 F20.
N1100 G1 X1.8929 F80.
N1105 G3 X1.9934 Y10.583 I-0.0094 J0.144
N1110 X2.0824 Y10.7746 I-0.2363 J0.2263
N1115 X2.0639 Y10.9512 I-0.3059 J0.0573
N1120 X1.9963 Y10.9926 I-0.0686 J-0.0361
N1125 G1 X1.9324 Y10.9925
N1130 G3 X1.9096 Y10.9755 Z0.9156 I0.0009 J-0.025 F20.
N1135 X1.9084 Y10.9699 Z0.9168 I0.0237 J-0.008 F80.
N1140 G1 X1.9081 Y10.9667 Z0.9174
N1145 X1.8688 Y10.5599
N1150 Y10.5591
N1155 X1.8687 Y10.5583
N1160 G3 X1.87 Y10.5495 Z0.9156 I0.025 J-0.0009
N1165 X1.8929 Y10.5325 Z0.9094 I0.0237 J0.008 F20.
N1170 G1 X1.9603 F80.
N1175 G3 X2.0675 Y10.5942 I-0.0172 J0.1537
N1180 X2.1492 Y10.8002 I-0.2604 J0.2224
N1185 X2.1274 Y10.951 I-0.2723 J0.0375
N1190 X2.0602 Y10.9925 I-0.0671 J-0.0335
N1195 G1 X1.9963
N1200 G3 X1.9735 Y10.9755 Z0.9156 I0.0009 J-0.025 F20.
N1205 X1.9723 Y10.9697 Z0.9168 I0.0237 J-0.008 F80.
N1210 G1 X1.972 Y10.9667 Z0.9174
N1215 X1.9363 Y10.5597
N1220 X1.9362 Y10.5583
N1225 G3 X1.9375 Y10.5495 Z0.9156 I0.025 J-0.0009
N1230 X1.9603 Y10.5325 Z0.9094 I0.0237 J0.008 F20.
N1235 G1 X2.0202 F80.
N1240 G3 X2.121 Y10.5831 I-0.0094 J0.1443
N1245 X2.2101 Y10.7749 I-0.2366 J0.2266
N1250 X2.1917 Y10.9512 I-0.3054 J0.0572
N1255 X2.1241 Y10.9926 I-0.0686 J-0.0361
N1260 G1 X2.0602 Y10.9925
N1265 G3 X2.0374 Y10.9755 Z0.9156 I0.0009 J-0.025 F20.
N1270 X2.0362 Y10.9699 Z0.9168 I0.0237 J-0.008 F80.
N1275 G1 X2.0359 Y10.9667 Z0.9174
N1280 X1.9962 Y10.5599
N1285 Y10.5591
N1290 X1.9961 Y10.5583
N1295 G3 X1.9974 Y10.5495 Z0.9156 I0.025 J-0.0009
N1300 X2.0202 Y10.5325 Z0.9094 I0.0237 J0.008 F20.
N1305 G1 X2.0877 F80.
N1310 G3 X2.1952 Y10.5943 I-0.017 J0.1539
N1315 X2.2769 Y10.8005 I-0.2605 J0.2226
N1320 X2.2551 Y10.951 I-0.272 J0.0374
N1325 X2.188 Y10.9925 I-0.0671 J-0.0335
N1330 G1 X2.1241
N1335 G3 X2.1013 Y10.9755 Z0.9156 I0.0009 J-0.025 F20.
N1340 X2.1001 Y10.9697 Z0.9168 I0.0237 J-0.008 F80.
N1345 G1 X2.0998 Y10.9667 Z0.9174
N1350 X2.0637 Y10.5597
N1355 X2.0636 Y10.5583
N1360 G3 X2.0649 Y10.5495 Z0.9156 I0.025 J-0.0009
N1365 X2.0877 Y10.5325 Z0.9094 I0.0237 J0.008 F20.
N1370 G1 X2.1476 F80.
N1375 G3 X2.2487 Y10.5831 I-0.0092 J0.1444
N1380 X2.3379 Y10.7751 I-0.2366 J0.2267
N1385 X2.3195 Y10.9512 I-0.3051 J0.0571
N1390 X2.2519 Y10.9926 I-0.0686 J-0.0361
N1395 G1 X2.188 Y10.9925
N1400 G3 X2.1652 Y10.9755 Z0.9156 I0.0009 J-0.025 F20.
N1405 X2.164 Y10.9699 Z0.9168 I0.0237 J-0.008 F80.
N1410 G1 X2.1637 Y10.9667 Z0.9174
N1415 X2.1236 Y10.5599
N1420 Y10.5591
N1425 X2.1235 Y10.5583
N1430 G3 X2.1248 Y10.5495 Z0.9156 I0.025 J-0.0009
N1435 X2.1476 Y10.5325 Z0.9094 I0.0237 J0.008 F20.
N1440 G1 X2.2151 F80.
N1445 G3 X2.3229 Y10.5944 I-0.0167 J0.1538
N1450 X2.3975 Y10.7499 I-0.2413 J0.2115
N1455 X2.3853 Y10.9477 I-0.3257 J0.0792
N1460 X2.3158 Y10.9926 I-0.0712 J-0.0339
N1465 G1 X2.2519 Y10.9925
N1470 G3 X2.2291 Y10.9755 Z0.9156 I0.0009 J-0.025 F20.
N1475 X2.2279 Y10.9697 Z0.9168 I0.0237 J-0.008 F80.
N1480 G1 X2.2276 Y10.9667 Z0.9174
N1485 X2.191 Y10.5597
N1490 Y10.5583
N1495 G3 X2.1922 Y10.5495 Z0.9156 I0.025 J-0.0009
N1500 X2.2151 Y10.5325 Z0.9094 I0.0237 J0.008 F20.
N1505 G1 X2.275 F80.
N1510 G3 X2.3764 Y10.5832 I-0.0089 J0.1444
N1515 X2.4656 Y10.7752 I-0.2366 J0.2267
N1520 X2.4473 Y10.9512 I-0.3049 J0.0571
N1525 X2.3797 Y10.9926 I-0.0686 J-0.0361
N1530 G1 X2.3158 Y10.9925
N1535 G3 X2.293 Y10.9755 Z0.9156 I0.0009 J-0.025 F20.
N1540 X2.2918 Y10.97 Z0.9168 I0.0237 J-0.008 F80.
N1545 G1 X2.2915 Y10.9667 Z0.9174
N1550 X2.251 Y10.5599
N1555 Y10.5591
N1560 X2.2509 Y10.5583
N1565 G3 X2.2522 Y10.5495 Z0.9156 I0.025 J-0.0009
N1570 X2.275 Y10.5325 Z0.9094 I0.0237 J0.008 F20.
N1575 G1 X2.3425 F80.
N1580 G3 X2.4506 Y10.5944 I-0.0163 J0.1537
N1585 X2.5253 Y10.75 I-0.2412 J0.2115
N1590 X2.5131 Y10.9477 I-0.3255 J0.0792
N1595 X2.4435 Y10.9926 I-0.0712 J-0.0339
N1600 G1 X2.3797 Y10.9925
N1605 G3 X2.3568 Y10.9755 Z0.9156 I0.0009 J-0.025 F20.
N1610 X2.3556 Y10.9698 Z0.9168 I0.0237 J-0.008 F80.
N1615 G1 X2.3554 Y10.9667 Z0.9174
N1620 X2.3184 Y10.5597
N1625 Y10.5583
N1630 G3 X2.3196 Y10.5495 Z0.9156 I0.025 J-0.0009
N1635 X2.3425 Y10.5325 Z0.9094 I0.0237 J0.008 F20.
N1640 G1 X2.4024 F80.
N1645 G3 X2.5041 Y10.5832 I-0.0085 J0.1444
N1650 X2.5934 Y10.7752 I-0.2366 J0.2267
N1655 X2.575 Y10.9512 I-0.3049 J0.0571
N1660 X2.5074 Y10.9926 I-0.0686 J-0.0361
N1665 G1 X2.4435 Y10.9925
N1670 G3 X2.4207 Y10.9755 Z0.9156 I0.0009 J-0.025 F20.
N1675 X2.4195 Y10.97 Z0.9168 I0.0237 J-0.008 F80.
N1680 G1 X2.4192 Y10.9667 Z0.9174
N1685 X2.3784 Y10.56
N1690 X2.3783 Y10.5591
N1695 Y10.5583
N1700 G3 X2.3796 Y10.5495 Z0.9156 I0.025 J-0.0009
N1705 X2.4024 Y10.5325 Z0.9094 I0.0237 J0.008 F20.
N1710 G1 X2.4699 F80.
N1715 G3 X2.5783 Y10.5945 I-0.0158 J0.1535
N1720 X2.653 Y10.75 I-0.241 J0.2114
N1725 X2.6408 Y10.9477 I-0.3254 J0.0792
N1730 X2.5713 Y10.9926 I-0.0712 J-0.0339
N1735 G1 X2.5074 Y10.9925
N1740 G3 X2.4846 Y10.9755 Z0.9156 I0.0009 J-0.025 F20.
N1745 X2.4834 Y10.9698 Z0.9168 I0.0237 J-0.008 F80.
N1750 G1 X2.4831 Y10.9667 Z0.9174
N1755 X2.4458 Y10.5597
N1760 Y10.559
N1765 X2.4457 Y10.5583
N1770 G3 X2.447 Y10.5495 Z0.9156 I0.025 J-0.0009
N1775 X2.4699 Y10.5325 Z0.9094 I0.0237 J0.008 F20.
N1780 G1 X2.5339 F80.
N1785 G3 X2.6422 Y10.5944 I-0.016 J0.1536
N1790 X2.7169 Y10.75 I-0.2411 J0.2115
N1795 X2.7047 Y10.9477 I-0.3255 J0.0792
N1800 X2.6352 Y10.9926 I-0.0712 J-0.0339
N1805 G1 X2.5713 Y10.9925
N1810 G3 X2.5485 Y10.9755 Z0.9156 I0.0009 J-0.025 F20.
N1815 X2.5473 Y10.9698 Z0.9168 I0.0237 J-0.008 F80.
N1820 G1 X2.547 Y10.9667 Z0.9174
N1825 X2.5099 Y10.5597
N1830 X2.5098 Y10.559
N1835 Y10.5583
N1840 G3 X2.5111 Y10.5495 Z0.9156 I0.025 J-0.0009
N1845 X2.5339 Y10.5325 Z0.9094 I0.0237 J0.008 F20.
N1850 G1 X2.5972 F80.
N1855 G3 X2.706 Y10.5945 I-0.0152 J0.1532
N1860 X2.7807 Y10.75 I-0.2407 J0.2113
N1865 X2.7686 Y10.9477 I-0.3254 J0.0792
N1870 X2.699 Y10.9926 I-0.0712 J-0.0339
N1875 G1 X2.6352 Y10.9925
N1880 G3 X2.6123 Y10.9755 Z0.9156 I0.0009 J-0.025 F20.
N1885 X2.6111 Y10.9698 Z0.9168 I0.0237 J-0.008 F80.
N1890 G1 X2.6108 Y10.9667 Z0.9174
N1895 X2.5732 Y10.5598
N1900 Y10.559
N1905 X2.5731 Y10.5583
N1910 G3 X2.5744 Y10.5495 Z0.9156 I0.025 J-0.0009
N1915 X2.5972 Y10.5325 Z0.9094 I0.0237 J0.008 F20.
N1920 G1 X2.6613 F80.
N1925 G3 X2.7699 Y10.5945 I-0.0155 J0.1533
N1930 X2.8446 Y10.75 I-0.2408 J0.2114
N1935 X2.8324 Y10.9477 I-0.3254 J0.0792
N1940 X2.7629 Y10.9926 I-0.0712 J-0.0339
N1945 G1 X2.699 Y10.9925
N1950 G3 X2.6762 Y10.9755 Z0.9156 I0.0009 J-0.025 F20.
N1955 X2.675 Y10.9698 Z0.9168 I0.0237 J-0.008 F80.
N1960 G1 X2.6747 Y10.9667 Z0.9174
N1965 X2.6373 Y10.5598
N1970 X2.6372 Y10.559
N1975 Y10.5583
N1980 G3 X2.6385 Y10.5495 Z0.9156 I0.025 J-0.0009
N1985 X2.6613 Y10.5325 Z0.9094 I0.0237 J0.008 F20.
N1990 G1 X2.7246 F80.
N1995 G3 X2.8338 Y10.5945 I-0.0147 J0.153
N2000 X2.9085 Y10.75 I-0.2405 J0.2112
N2005 X2.8963 Y10.9477 I-0.3254 J0.0792
N2010 X2.8268 Y10.9926 I-0.0712 J-0.0339
N2015 G1 X2.7629 Y10.9925
N2020 G3 X2.7401 Y10.9755 Z0.9156 I0.0009 J-0.025 F20.
N2025 X2.7389 Y10.9698 Z0.9168 I0.0237 J-0.008 F80.
N2030 G1 X2.7386 Y10.9667 Z0.9174
N2035 X2.7006 Y10.5598
N2040 Y10.5591
N2045 X2.7005 Y10.5583
N2050 Y10.5575 Z0.9173
N2055 G3 X2.7018 Y10.5495 Z0.9156 I0.025 J0.
N2060 X2.7246 Y10.5325 Z0.9094 I0.0237 J0.008 F20.
N2065 G1 X2.7887 F80.
N2070 G3 X2.8976 Y10.5945 I-0.015 J0.1531
N2075 X2.9723 Y10.75 I-0.2406 J0.2113
N2080 X2.9602 Y10.9477 I-0.3254 J0.0792
N2085 X2.8906 Y10.9926 I-0.0712 J-0.0339
N2090 G1 X2.8268 Y10.9925
N2095 G3 X2.8039 Y10.9755 Z0.9156 I0.0009 J-0.025 F20.
N2100 X2.8027 Y10.9698 Z0.9168 I0.0237 J-0.008 F80.
N2105 G1 X2.8025 Y10.9667 Z0.9174
N2110 X2.7647 Y10.5598
N2115 X2.7646 Y10.559
N2120 Y10.5583
N2125 Y10.5575 Z0.9173
N2130 G3 X2.7659 Y10.5495 Z0.9156 I0.025 J0.
N2135 X2.7887 Y10.5325 Z0.9094 I0.0237 J0.008 F20.
N2140 G1 X2.852 F80.
N2145 G3 X2.9615 Y10.5945 I-0.0142 J0.1528
N2150 X3.0362 Y10.75 I-0.2403 J0.2111
N2155 X3.024 Y10.9477 I-0.3253 J0.0792
N2160 X2.9545 Y10.9926 I-0.0712 J-0.0339
N2165 G1 X2.8906 Y10.9925
N2170 G3 X2.8678 Y10.9755 Z0.9156 I0.0009 J-0.025 F20.
N2175 X2.8666 Y10.9698 Z0.9168 I0.0237 J-0.008 F80.
N2180 G1 X2.8663 Y10.9667 Z0.9174
N2185 X2.828 Y10.5598
N2190 X2.8279 Y10.5591
N2195 Y10.5583
N2200 G3 X2.8292 Y10.5495 Z0.9156 I0.025 J-0.0009
N2205 X2.852 Y10.5325 Z0.9094 I0.0237 J0.008 F20.
N2210 G1 X2.9161 F80.
N2215 G3 X3.0254 Y10.5945 I-0.0145 J0.1529
N2220 X3.1001 Y10.75 I-0.2404 J0.2112
N2225 X3.0879 Y10.9477 I-0.3253 J0.0792
N2230 X3.0184 Y10.9926 I-0.0712 J-0.0339
N2235 G1 X2.9545 Y10.9925
N2240 G3 X2.9317 Y10.9755 Z0.9156 I0.0009 J-0.025 F20.
N2245 X2.9305 Y10.9698 Z0.9168 I0.0237 J-0.008 F80.
N2250 G1 X2.9302 Y10.9667 Z0.9174
N2255 X2.8921 Y10.5598
N2260 X2.892 Y10.5591
N2265 Y10.5583
N2270 Y10.5575 Z0.9173
N2275 G3 X2.8933 Y10.5495 Z0.9156 I0.025 J0.
N2280 X2.9161 Y10.5325 Z0.9094 I0.0237 J0.008 F20.
N2285 G1 X2.9794 F80.
N2290 G3 X3.0892 Y10.5945 I-0.0138 J0.1526
N2295 X3.1639 Y10.75 I-0.24 J0.211
N2300 X3.1518 Y10.9477 I-0.3253 J0.0792
N2305 X3.0822 Y10.9926 I-0.0711 J-0.0339
N2310 G1 X3.0184 Y10.9925
N2315 G3 X2.9955 Y10.9755 Z0.9156 I0.0009 J-0.025 F20.
N2320 X2.9944 Y10.9699 Z0.9168 I0.0237 J-0.008 F80.
N2325 G1 X2.9941 Y10.9667 Z0.9174
N2330 X2.9554 Y10.5598
N2335 X2.9553 Y10.5591
N2340 Y10.5583
N2345 G3 X2.9566 Y10.5495 Z0.9156 I0.025 J-0.0009
N2350 X2.9794 Y10.5325 Z0.9094 I0.0237 J0.008 F20.
N2355 G1 X3.0435 F80.
N2360 G3 X3.1531 Y10.5945 I-0.0141 J0.1527
N2365 X3.2278 Y10.75 I-0.2402 J0.2111
N2370 X3.2156 Y10.9477 I-0.3253 J0.0792
N2375 X3.1461 Y10.9926 I-0.0711 J-0.0339
N2380 G1 X3.0822 Y10.9925
N2385 G3 X3.0594 Y10.9755 Z0.9156 I0.0009 J-0.025 F20.
N2390 X3.0582 Y10.9698 Z0.9168 I0.0237 J-0.008 F80.
N2395 G1 X3.0579 Y10.9667 Z0.9174
N2400 X3.0195 Y10.5598
N2405 X3.0194 Y10.5591
N2410 Y10.5583
N2415 G3 X3.0207 Y10.5495 Z0.9156 I0.025 J-0.0009
N2420 X3.0435 Y10.5325 Z0.9094 I0.0237 J0.008 F20.
N2425 G1 X3.1068 F80.
N2430 G3 X3.217 Y10.5945 I-0.0133 J0.1524
N2435 X3.2917 Y10.75 I-0.2398 J0.2109
N2440 X3.2795 Y10.9477 I-0.3252 J0.0792
N2445 X3.21 Y10.9926 I-0.0711 J-0.0339
N2450 G1 X3.1461 Y10.9925
N2455 G3 X3.1233 Y10.9755 Z0.9156 I0.0009 J-0.025 F20.
N2460 X3.1221 Y10.9699 Z0.9168 I0.0237 J-0.008 F80.
N2465 G1 X3.1218 Y10.9667 Z0.9174
N2470 X3.0828 Y10.5599
N2475 X3.0827 Y10.5591
N2480 Y10.5583
N2485 G3 X3.084 Y10.5495 Z0.9156 I0.025 J-0.0009
N2490 X3.1068 Y10.5325 Z0.9094 I0.0237 J0.008 F20.
N2495 G1 X3.1709 F80.
N2500 G3 X3.2808 Y10.5945 I-0.0136 J0.1526
N2505 X3.3555 Y10.75 I-0.24 J0.211
N2510 X3.3434 Y10.9477 I-0.3252 J0.0792
N2515 X3.2739 Y10.9926 I-0.0711 J-0.0339
N2520 G1 X3.21 Y10.9925
N2525 G3 X3.1872 Y10.9755 Z0.9156 I0.0009 J-0.025 F20.
N2530 X3.186 Y10.9699 Z0.9168 I0.0237 J-0.008 F80.
N2535 G1 X3.1857 Y10.9667 Z0.9174
N2540 X3.1469 Y10.5598
N2545 X3.1468 Y10.5591
N2550 Y10.5583
N2555 G3 X3.148 Y10.5495 Z0.9156 I0.025 J-0.0009
N2560 X3.1709 Y10.5325 Z0.9094 I0.0237 J0.008 F20.
N2565 G1 X3.2342 F80.
N2570 G3 X3.3447 Y10.5946 I-0.0128 J0.1523
N2575 X3.4194 Y10.75 I-0.2397 J0.2108
N2580 X3.4072 Y10.9477 I-0.3252 J0.0792
N2585 X3.3377 Y10.9926 I-0.0711 J-0.0339
N2590 G1 X3.2739 Y10.9925
N2595 G3 X3.251 Y10.9755 Z0.9156 I0.0009 J-0.025 F20.
N2600 X3.2498 Y10.9699 Z0.9168 I0.0237 J-0.008 F80.
N2605 G1 X3.2495 Y10.9667 Z0.9174
N2610 X3.2102 Y10.5599
N2615 X3.2101 Y10.5591
N2620 Y10.5583
N2625 G3 X3.2114 Y10.5495 Z0.9156 I0.025 J-0.0009
N2630 X3.2342 Y10.5325 Z0.9094 I0.0237 J0.008 F20.
N2635 G1 X3.2983 F80.
N2640 G3 X3.4086 Y10.5946 I-0.0131 J0.1524
N2645 X3.4833 Y10.75 I-0.2398 J0.2109
N2650 X3.4711 Y10.9477 I-0.3252 J0.0792
N2655 X3.4016 Y10.9926 I-0.0711 J-0.0339
N2660 G1 X3.3377 Y10.9925
N2665 G3 X3.3149 Y10.9755 Z0.9156 I0.0009 J-0.025 F20.
N2670 X3.3137 Y10.9699 Z0.9168 I0.0237 J-0.008 F80.
N2675 G1 X3.3134 Y10.9667 Z0.9174
N2680 X3.2742 Y10.5599
N2685 Y10.5591
N2690 X3.2741 Y10.5583
N2695 G3 X3.2754 Y10.5495 Z0.9156 I0.025 J-0.0009
N2700 X3.2983 Y10.5325 Z0.9094 I0.0237 J0.008 F20.
N2705 G1 X3.3616 F80.
N2710 G3 X3.4724 Y10.5946 I-0.0124 J0.1521
N2715 X3.5471 Y10.7501 I-0.2395 J0.2108
N2720 X3.535 Y10.9477 I-0.3251 J0.0792
N2725 X3.4655 Y10.9926 I-0.0711 J-0.0339
N2730 G1 X3.4016 Y10.9925
N2735 G3 X3.3788 Y10.9755 Z0.9156 I0.0009 J-0.025 F20.
N2740 X3.3776 Y10.9699 Z0.9168 I0.0237 J-0.008 F80.
N2745 G1 X3.3773 Y10.9667 Z0.9174
N2750 X3.3376 Y10.5599
N2755 X3.3375 Y10.5591
N2760 Y10.5583
N2765 G3 X3.3387 Y10.5495 Z0.9156 I0.025 J-0.0009
N2770 X3.3616 Y10.5325 Z0.9094 I0.0237 J0.008 F20.
N2775 G1 X3.4256 F80.
N2780 G3 X3.5363 Y10.5946 I-0.0127 J0.1523
N2785 X3.611 Y10.7501 I-0.2396 J0.2108
N2790 X3.5988 Y10.9477 I-0.3251 J0.0792
N2795 X3.5293 Y10.9926 I-0.0711 J-0.0339
N2800 G1 X3.4655 Y10.9925
N2805 G3 X3.4426 Y10.9755 Z0.9156 I0.0009 J-0.025 F20.
N2810 X3.4414 Y10.9699 Z0.9168 I0.0237 J-0.008 F80.
N2815 G1 X3.4411 Y10.9667 Z0.9174
N2820 X3.4016 Y10.5599
N2825 Y10.5591
N2830 X3.4015 Y10.5583
N2835 G3 X3.4028 Y10.5495 Z0.9156 I0.025 J-0.0009
N2840 X3.4256 Y10.5325 Z0.9094 I0.0237 J0.008 F20.
N2845 G1 X3.489 F80.
N2850 G3 X3.5899 Y10.5832 I-0.0096 J0.1448
N2855 X3.6791 Y10.7753 I-0.2369 J0.2269
N2860 X3.6608 Y10.9512 I-0.3048 J0.0571
N2865 X3.5932 Y10.9926 I-0.0686 J-0.0361
N2870 G1 X3.5293 Y10.9925
N2875 G3 X3.5065 Y10.9755 Z0.9156 I0.0009 J-0.025 F20.
N2880 X3.5053 Y10.9699 Z0.9168 I0.0237 J-0.008 F80.
N2885 G1 X3.505 Y10.9667 Z0.9174
N2890 X3.465 Y10.5599
N2895 X3.4649 Y10.5591
N2900 Y10.5583
N2905 G3 X3.4661 Y10.5495 Z0.9156 I0.025 J-0.0009
N2910 X3.489 Y10.5325 Z0.9094 I0.0237 J0.008 F20.
N2915 G1 X3.5564 F80.
N2920 G3 X3.6641 Y10.5944 I-0.017 J0.1541
N2925 X3.7459 Y10.8007 I-0.2606 J0.2228
N2930 X3.7242 Y10.951 I-0.2716 J0.0374
N2935 X3.6571 Y10.9925 I-0.0671 J-0.0335
N2940 G1 X3.5932
N2945 G3 X3.5704 Y10.9755 Z0.9156 I0.0009 J-0.025 F20.
N2950 X3.5692 Y10.9697 Z0.9168 I0.0237 J-0.008 F80.
N2955 G1 X3.5689 Y10.9667 Z0.9174
N2960 X3.5324 Y10.5597
N2965 X3.5323 Y10.5583
N2970 G3 X3.5336 Y10.5495 Z0.9156 I0.025 J-0.0009
N2975 X3.5564 Y10.5325 Z0.9094 I0.0237 J0.008 F20.
N2980 G1 X3.6164 F80.
N2985 G3 X3.7176 Y10.5832 I-0.0091 J0.1446
N2990 X3.8069 Y10.7753 I-0.2368 J0.2269
N2995 X3.7923 Y10.9415 I-0.2969 J0.0577
N3000 X3.7412 Y10.9852 I-0.0691 J-0.0291
N3005 X3.6571 Y10.9923 I-0.0699 J-0.3274
N3010 G1 X3.6533 Y10.9919 Z0.9102 F20.
N3015 X3.6497 Y10.9909 Z0.911
N3020 X3.6462 Y10.9894 Z0.9118
N3025 X3.643 Y10.9875 Z0.9125
N3030 X3.6402 Y10.985 Z0.9133
N3035 X3.6377 Y10.9821 Z0.9141
N3040 X3.6357 Y10.9789 Z0.9149
N3045 X3.6342 Y10.9755 Z0.9156
N3050 G3 X3.6331 Y10.97 Z0.9168 I0.0237 J-0.008 F80.
N3055 G1 X3.6327 Y10.9667 Z0.9174
N3060 X3.5923 Y10.5599
N3065 Y10.5591
N3070 X3.5922 Y10.5583
N3075 G3 X3.5935 Y10.5495 Z0.9156 I0.025 J-0.0009
N3080 X3.6164 Y10.5325 Z0.9094 I0.0237 J0.008 F20.
N3085 G1 X3.6688 F80.
N3090 X3.6763 Y10.5326
N3095 X3.6838 Y10.5329
N3100 G3 X3.7867 Y10.5888 I-0.0151 J0.1504
N3105 X3.8723 Y10.7876 I-0.2484 J0.2248
N3110 X3.8693 Y10.8937 I-0.2826 J0.0453
N3115 G1 X3.8647 Y10.904
N3120 X3.8589 Y10.9135
N3125 X3.8517 Y10.9221
N3130 G3 X3.7412 Y10.9853 I-0.1647 J-0.1599
N3135 G1 X3.7374 Y10.9858 Z0.9102 F20.
N3140 X3.7336 Y10.9857 Z0.911
N3145 X3.7299 Y10.985 Z0.9118
N3150 X3.7263 Y10.9838 Z0.9125
N3155 X3.7229 Y10.9821 Z0.9133
N3160 X3.7199 Y10.9798 Z0.9141
N3165 X3.7172 Y10.9772 Z0.9149
N3170 X3.7149 Y10.9741 Z0.9156
N3175 G3 X3.7116 Y10.9659 Z0.9174 I0.0211 J-0.0134 F80.
N3180 G1 X3.7112 Y10.9639
N3185 X3.6591 Y10.5611
N3190 X3.659 Y10.56
N3195 X3.6589 Y10.559
N3200 Y10.558
N3205 G3 X3.6604 Y10.5492 Z0.9156 I0.025 J-0.0001
N3210 X3.6838 Y10.5329 Z0.9094 I0.0234 J0.0087 F20.
N3215 X3.8519 Y10.9223 I0.003 J0.2297 F80.
N3220 G1 X3.8489 Y10.9247 F20.
N3225 X3.8455 Y10.9267
N3230 X3.8419 Y10.9281
N3235 X3.8381 Y10.9289
N3240 X3.8342 Y10.9292
N3245 X3.8303 Y10.9288
N3250 X3.8266 Y10.9278
N3255 X3.823 Y10.9263
N3260 X3.8196 Y10.9245 Z0.9098
N3265 X3.8162 Y10.9228 Z0.9107
N3270 X3.8129 Y10.9212 Z0.9122
N3275 X3.81 Y10.9196 Z0.9142
N3280 X3.8073 Y10.9183 Z0.9168
N3285 X3.805 Y10.9171 Z0.9198
N3290 X3.8032 Y10.9162 Z0.9231
N3295 X3.8019 Y10.9155 Z0.9267
N3300 X3.8011 Y10.9151 Z0.9305
N3305 X3.8008 Y10.9149 Z0.9344
N3310 Z2.2 F80.
N3315 X0.8628 Y7.4892
N3320 Z2.02
N3325 G3 X1.088 Y7.5213 Z1.9733 I0.1009 J0.0983
N3330 X0.9895 Y7.7249 Z1.9266 I-0.1236 J0.0658
N3335 X0.8264 Y7.57 Z1.8799 I-0.0249 J-0.137
N3340 X1.0224 Y7.4625 Z1.8332 I0.1373 J0.0178
N3345 X1.065 Y7.6806 Z1.7865 I-0.0584 J0.1246
N3350 X0.8456 Y7.655 Z1.7398 I-0.1004 J-0.0929
N3355 X0.9362 Y7.4549 Z1.6931 I0.1184 J-0.067
N3360 X1.0982 Y7.6012 Z1.6465 I0.0276 J0.1323
N3365 X0.9108 Y7.7104 Z1.5998 I-0.1336 J-0.0138
N3370 X0.864 Y7.4999 Z1.5531 I0.0535 J-0.1224
N3375 X1.0775 Y7.5192 Z1.5064 I0.0997 J0.0876
N3380 X0.9946 Y7.7155 Z1.4597 I-0.1131 J0.0679
N3385 X0.8338 Y7.5778 Z1.413 I-0.0301 J-0.1276
N3390 X1.0128 Y7.4672 Z1.3663 I0.1299 J0.0101
N3395 X1.0634 Y7.67 Z1.3196 I-0.0488 J0.1199
N3400 X0.8561 Y7.6567 Z1.2729 I-0.0988 J-0.0824
N3405 X0.9314 Y7.4644 Z1.2262 I0.1079 J-0.0686
N3410 X1.0906 Y7.5938 Z1.1795 I0.0323 J0.1228
N3415 X0.9201 Y7.7054 Z1.1328 I-0.126 J-0.0065
N3420 X0.866 Y7.5103 Z1.0861 I0.0442 J-0.1173
N3425 X1.067 Y7.518 Z1.0394 I0.0977 J0.0773
N3430 X0.9989 Y7.7059 Z0.9928 I-0.1027 J0.0691
N3435 X0.8417 Y7.5847 Z0.9461 I-0.0344 J-0.118
N3440 X1.0039 Y7.4725 Z0.8994 I0.1221 J0.0031
N3445 X1.061 Y7.6599 Z0.8527 I-0.0399 J0.1146
N3450 X0.8665 Y7.6574 Z0.806 I-0.0964 J-0.0723
N3455 X0.9276 Y7.4741 Z0.7593 I0.0975 J-0.0693
N3460 X1.0826 Y7.5873 Z0.7126 I0.0361 J0.1132
N3465 X0.8449 I-0.1189 J0.
N3470 X1.0826 I0.1189 J0.
N3475 G2 X1.0891 Y7.6316 I0.1313 J0.0035
N3480 G3 X1.0335 Y7.7305 I-0.1 J0.0089
N3485 X0.8362 Y7.6946 I-0.0781 J-0.1309
N3490 X0.8753 Y7.444 I0.1274 J-0.1084
N3495 X1.1173 Y7.5201 I0.0882 J0.1421
N3500 X1.1116 Y7.7282 I-0.1646 J0.0996
N3505 X0.8053 Y7.7403 I-0.1584 J-0.1255
N3510 X0.8978 Y7.375 I0.1558 J-0.1549
N3515 X1.1558 Y7.4727 I0.0667 J0.2132
N3520 X1.1215 Y7.7992 I-0.1988 J0.1442
N3525 X1.0716 Y7.8176 I-0.0511 J-0.0617
N3530 G1 X0.9562 Y7.8175
N3535 G3 X0.7429 Y7.7096 I-0.0135 J-0.2381
N3540 X0.9486 Y7.3583 I0.1955 J-0.1214
N3545 G1 X0.9562 Y7.3575
N3550 X1.0611
N3555 G3 X1.1905 Y7.4284 I-0.0155 J0.182
N3560 X1.2032 Y7.796 I-0.2199 J0.1917
N3565 X1.1499 Y7.8176 I-0.0547 J-0.0586
N3570 G1 X1.0716 Y7.8175
N3575 G3 X1.0488 Y7.8005 Z0.7188 I0.0009 J-0.025 F20.
N3580 X1.0475 Y7.7932 Z0.7203 I0.0237 J-0.008 F80.
N3585 G1 Y7.7917 Z0.7206
N3590 X1.037 Y7.3834
N3595 Y7.3831
N3600 G3 X1.0383 Y7.3745 Z0.7188 I0.025 J-0.0006
N3605 X1.0611 Y7.3575 Z0.7126 I0.0237 J0.008 F20.
N3610 G1 X1.136 F80.
N3615 G3 X1.2503 Y7.4213 I-0.0147 J0.1606
N3620 X1.3202 Y7.6626 I-0.2314 J0.1977
N3625 X1.2778 Y7.7913 I-0.2769 J-0.0199
N3630 X1.2199 Y7.8175 I-0.0583 J-0.0518
N3635 G1 X1.1499
N3640 G3 X1.127 Y7.8005 Z0.7188 I0.0009 J-0.025 F20.
N3645 X1.1258 Y7.7934 Z0.7203 I0.0237 J-0.008 F80.
N3650 G1 X1.1257 Y7.7917 Z0.7206
N3655 X1.1119 Y7.3834
N3660 G3 X1.1132 Y7.3745 Z0.7188 I0.025 J-0.0009
N3665 X1.136 Y7.3575 Z0.7126 I0.0237 J0.008 F20.
N3670 G1 X1.2035 F80.
N3675 G3 X1.311 Y7.418 I-0.0141 J0.151
N3680 X1.3845 Y7.6252 I-0.2344 J0.1997
N3685 X1.3524 Y7.7804 I-0.3132 J0.0163
N3690 X1.2874 Y7.8176 I-0.0655 J-0.0392
N3695 G1 X1.2199 Y7.8175
N3700 G3 X1.1971 Y7.8005 Z0.7188 I0.0009 J-0.025 F20.
N3705 X1.1958 Y7.7935 Z0.7202 I0.0237 J-0.008 F80.
N3710 G1 Y7.7917 Z0.7206
N3715 X1.1793 Y7.3834
N3720 G3 X1.1806 Y7.3745 Z0.7188 I0.025 J-0.0009
N3725 X1.2035 Y7.3575 Z0.7126 I0.0237 J0.008 F20.
N3730 G1 X1.2675 F80.
N3735 G3 X1.3722 Y7.4166 I-0.014 J0.147
N3740 X1.4465 Y7.6071 I-0.2378 J0.2026
N3745 X1.4208 Y7.7762 I-0.324 J0.0373
N3750 X1.3533 Y7.8176 I-0.0683 J-0.0358
N3755 G1 X1.2874 Y7.8175
N3760 G3 X1.2646 Y7.8005 Z0.7188 I0.0009 J-0.025 F20.
N3765 X1.2633 Y7.7937 Z0.7202 I0.0237 J-0.008 F80.
N3770 G1 X1.2632 Y7.7917 Z0.7206
N3775 X1.2434 Y7.3837
N3780 Y7.3834
N3785 G3 X1.2447 Y7.3745 Z0.7188 I0.025 J-0.0009
N3790 X1.2675 Y7.3575 Z0.7126 I0.0237 J0.008 F20.
N3795 G1 X1.3308 F80.
N3800 G3 X1.4339 Y7.4163 I-0.0151 J0.1462
N3805 X1.5102 Y7.6121 I-0.2467 J0.2088
N3810 X1.4861 Y7.7761 I-0.3139 J0.0377
N3815 X1.4186 Y7.8176 I-0.0684 J-0.0356
N3820 G1 X1.3533 Y7.8175
N3825 G3 X1.3305 Y7.8005 Z0.7188 I0.0009 J-0.025 F20.
N3830 X1.3293 Y7.7939 Z0.7201 I0.0237 J-0.008 F80.
N3835 G1 X1.3291 Y7.7917 Z0.7206
N3840 X1.3068 Y7.3839
N3845 X1.3067 Y7.3834
N3850 G3 X1.308 Y7.3745 Z0.7188 I0.025 J-0.0009
N3855 X1.3308 Y7.3575 Z0.7126 I0.0237 J0.008 F20.
N3860 G1 X1.3908 F80.
N3865 G3 X1.4962 Y7.4167 I-0.0123 J0.1454
N3870 X1.5669 Y7.5652 I-0.2294 J0.2003
N3875 X1.5513 Y7.7762 I-0.3356 J0.0812
N3880 X1.4834 Y7.8176 I-0.0694 J-0.0372
N3885 G1 X1.4186 Y7.8175
N3890 G3 X1.3957 Y7.8005 Z0.7188 I0.0009 J-0.025 F20.
N3895 X1.3945 Y7.7942 Z0.7201 I0.0237 J-0.008 F80.
N3900 G1 X1.3943 Y7.7917 Z0.7206
N3905 X1.3667 Y7.3842
N3910 Y7.3834
N3915 G3 X1.368 Y7.3745 Z0.7188 I0.025 J-0.0009
N3920 X1.3908 Y7.3575 Z0.7126 I0.0237 J0.008 F20.
N3925 G1 X1.4507 F80.
N3930 G3 X1.559 Y7.4174 I-0.01 J0.1459
N3935 X1.6308 Y7.568 I-0.2321 J0.2031
N3940 X1.6158 Y7.7762 I-0.331 J0.0808
N3945 X1.5479 Y7.8176 I-0.0693 J-0.0372
N3950 G1 X1.4834 Y7.8175
N3955 G3 X1.4605 Y7.8005 Z0.7188 I0.0009 J-0.025 F20.
N3960 X1.4593 Y7.7945 Z0.72 I0.0237 J-0.008 F80.
N3965 G1 X1.4591 Y7.7917 Z0.7206
N3970 X1.4267 Y7.3845
N3975 X1.4266 Y7.3834
N3980 G3 X1.4279 Y7.3745 Z0.7188 I0.025 J-0.0009
N3985 X1.4507 Y7.3575 Z0.7126 I0.0237 J0.008 F20.
N3990 G1 X1.5148 F80.
N3995 G3 X1.6221 Y7.4178 I-0.0126 J0.148
N4000 X1.6948 Y7.57 I-0.2353 J0.2058
N4005 X1.6801 Y7.7762 I-0.3279 J0.0803
N4010 X1.6122 Y7.8176 I-0.0693 J-0.0372
N4015 G1 X1.5479 Y7.8175
N4020 G3 X1.5251 Y7.8005 Z0.7188 I0.0009 J-0.025 F20.
N4025 X1.5238 Y7.7945 Z0.72 I0.0237 J-0.008 F80.
N4030 G1 X1.5236 Y7.7917 Z0.7206
N4035 X1.4908 Y7.3845
N4040 X1.4907 Y7.3834
N4045 G3 X1.492 Y7.3745 Z0.7188 I0.025 J-0.0009
N4050 X1.5148 Y7.3575 Z0.7126 I0.0237 J0.008 F20.
N4055 G1 X1.5781 F80.
N4060 G3 X1.6854 Y7.4182 I-0.0138 J0.1495
N4065 X1.7587 Y7.5715 I-0.2373 J0.2076
N4070 X1.7442 Y7.7762 I-0.3256 J0.0799
N4075 X1.6764 Y7.8176 I-0.0693 J-0.0372
N4080 G1 X1.6122 Y7.8175
N4085 G3 X1.5894 Y7.8005 Z0.7188 I0.0009 J-0.025 F20.
N4090 X1.5882 Y7.7946 Z0.72 I0.0237 J-0.008 F80.
N4095 G1 X1.5879 Y7.7917 Z0.7206
N4100 X1.5541 Y7.3846
N4105 X1.554 Y7.3834
N4110 G3 X1.5553 Y7.3745 Z0.7188 I0.025 J-0.0009
N4115 X1.5781 Y7.3575 Z0.7126 I0.0237 J0.008 F20.
N4120 G1 X1.6422 F80.
N4125 G3 X1.7489 Y7.4185 I-0.0156 J0.1511
N4130 X1.8226 Y7.5725 I-0.239 J0.209
N4135 X1.8083 Y7.7762 I-0.3241 J0.0796
N4140 X1.7405 Y7.8176 I-0.0692 J-0.0372
N4145 G1 X1.6764 Y7.8175
N4150 G3 X1.6536 Y7.8005 Z0.7188 I0.0009 J-0.025 F20.
N4155 X1.6524 Y7.7946 Z0.72 I0.0237 J-0.008 F80.
N4160 G1 X1.6521 Y7.7917 Z0.7206
N4165 X1.6182 Y7.3846
N4170 X1.6181 Y7.3834
N4175 G3 X1.6194 Y7.3745 Z0.7188 I0.025 J-0.0009
N4180 X1.6422 Y7.3575 Z0.7126 I0.0237 J0.008 F20.
N4185 G1 X1.7055 F80.
N4190 G3 X1.8126 Y7.4188 I-0.0159 J0.1518
N4195 X1.8865 Y7.5732 I-0.2398 J0.2098
N4200 X1.8724 Y7.7763 I-0.3229 J0.0795
N4205 X1.8045 Y7.8176 I-0.0692 J-0.0372
N4210 G1 X1.7405 Y7.8175
N4215 G3 X1.7177 Y7.8005 Z0.7188 I0.0009 J-0.025 F20.
N4220 X1.7165 Y7.7947 Z0.72 I0.0237 J-0.008 F80.
N4225 G1 X1.7162 Y7.7917 Z0.7206
N4230 X1.6815 Y7.3846
N4235 X1.6814 Y7.3834
N4240 G3 X1.6827 Y7.3745 Z0.7188 I0.025 J-0.0009
N4245 X1.7055 Y7.3575 Z0.7126 I0.0237 J0.008 F20.
N4250 G1 X1.7655 F80.
N4255 G3 X1.8762 Y7.4191 I-0.0112 J0.1505
N4260 X1.9504 Y7.5738 I-0.2384 J0.2095
N4265 X1.9363 Y7.7763 I-0.3218 J0.0793
N4270 X1.8685 Y7.8176 I-0.0692 J-0.0371
N4275 G1 X1.8045 Y7.8175
N4280 G3 X1.7817 Y7.8005 Z0.7188 I0.0009 J-0.025 F20.
N4285 X1.7805 Y7.7949 Z0.7199 I0.0237 J-0.008 F80.
N4290 G1 X1.7802 Y7.7917 Z0.7206
N4295 X1.7415 Y7.3849
N4300 X1.7414 Y7.3841
N4305 Y7.3834
N4310 G3 X1.7426 Y7.3745 Z0.7188 I0.025 J-0.0009
N4315 X1.7655 Y7.3575 Z0.7126 I0.0237 J0.008 F20.
N4320 G1 X1.8329 F80.
N4325 G3 X1.94 Y7.4191 I-0.0168 J0.1532
N4330 X2.0215 Y7.6248 I-0.2602 J0.2221
N4335 X1.9999 Y7.7761 I-0.2912 J0.0357
N4340 X1.9325 Y7.8176 I-0.0682 J-0.0353
N4345 G1 X1.8685 Y7.8175
N4350 G3 X1.8457 Y7.8005 Z0.7188 I0.0009 J-0.025 F20.
N4355 X1.8445 Y7.7947 Z0.72 I0.0237 J-0.008 F80.
N4360 G1 X1.8442 Y7.7917 Z0.7206
N4365 X1.8089 Y7.3847
N4370 X1.8088 Y7.3834
N4375 G3 X1.8101 Y7.3745 Z0.7188 I0.025 J-0.0009
N4380 X1.8329 Y7.3575 Z0.7126 I0.0237 J0.008 F20.
N4385 G1 X1.8929 F80.
N4390 G3 X2.0037 Y7.4194 I-0.0117 J0.1513
N4395 X2.0782 Y7.5744 I-0.2391 J0.2102
N4400 X2.0642 Y7.7763 I-0.3208 J0.0792
N4405 X1.9964 Y7.8176 I-0.0692 J-0.0371
N4410 G1 X1.9325 Y7.8175
N4415 G3 X1.9096 Y7.8005 Z0.7188 I0.0009 J-0.025 F20.
N4420 X1.9085 Y7.7949 Z0.7199 I0.0237 J-0.008 F80.
N4425 G1 X1.9082 Y7.7917 Z0.7206
N4430 X1.8688 Y7.3849
N4435 Y7.3841
N4440 X1.8687 Y7.3834
N4445 G3 X1.87 Y7.3745 Z0.7188 I0.025 J-0.0009
N4450 X1.8929 Y7.3575 Z0.7126 I0.0237 J0.008 F20.
N4455 G1 X1.9603 F80.
N4460 G3 X2.0676 Y7.4193 I-0.0171 J0.1537
N4465 X2.1493 Y7.6253 I-0.2606 J0.2225
N4470 X2.1274 Y7.776 I-0.2724 J0.0375
N4475 X2.0603 Y7.8175 I-0.0671 J-0.0335
N4480 G1 X1.9964
N4485 G3 X1.9736 Y7.8005 Z0.7188 I0.0009 J-0.025 F20.
N4490 X1.9724 Y7.7947 Z0.72 I0.0237 J-0.008 F80.
N4495 G1 X1.9721 Y7.7917 Z0.7206
N4500 X1.9363 Y7.3847
N4505 X1.9362 Y7.3834
N4510 G3 X1.9375 Y7.3745 Z0.7188 I0.025 J-0.0009
N4515 X1.9603 Y7.3575 Z0.7126 I0.0237 J0.008 F20.
N4520 G1 X2.0202 F80.
N4525 G3 X2.1314 Y7.4195 I-0.0117 J0.1516
N4530 X2.206 Y7.5748 I-0.2394 J0.2105
N4535 X2.192 Y7.7763 I-0.3202 J0.0791
N4540 X2.1242 Y7.8176 I-0.0692 J-0.0371
N4545 G1 X2.0603 Y7.8175
N4550 G3 X2.0375 Y7.8005 Z0.7188 I0.0009 J-0.025 F20.
N4555 X2.0363 Y7.795 Z0.7199 I0.0237 J-0.008 F80.
N4560 G1 X2.036 Y7.7917 Z0.7206
N4565 X1.9962 Y7.3849
N4570 Y7.3841
N4575 X1.9961 Y7.3834
N4580 G3 X1.9974 Y7.3745 Z0.7188 I0.025 J-0.0009
N4585 X2.0202 Y7.3575 Z0.7126 I0.0237 J0.008 F20.
N4590 G1 X2.0877 F80.
N4595 G3 X2.1953 Y7.4194 I-0.0169 J0.1539
N4600 X2.277 Y7.6255 I-0.2606 J0.2227
N4605 X2.2552 Y7.776 I-0.272 J0.0374
N4610 X2.1881 Y7.8175 I-0.0671 J-0.0335
N4615 G1 X2.1242
N4620 G3 X2.1014 Y7.8005 Z0.7188 I0.0009 J-0.025 F20.
N4625 X2.1002 Y7.7948 Z0.72 I0.0237 J-0.008 F80.
N4630 G1 X2.0999 Y7.7917 Z0.7206
N4635 X2.0637 Y7.3847
N4640 X2.0636 Y7.3834
N4645 G3 X2.0649 Y7.3745 Z0.7188 I0.025 J-0.0009
N4650 X2.0877 Y7.3575 Z0.7126 I0.0237 J0.008 F20.
N4655 G1 X2.1476 F80.
N4660 G3 X2.2591 Y7.4196 I-0.0115 J0.1517
N4665 X2.3337 Y7.5749 I-0.2395 J0.2106
N4670 X2.3215 Y7.7728 I-0.3254 J0.0793
N4675 X2.252 Y7.8177 I-0.0712 J-0.0339
N4680 G1 X2.1881 Y7.8175
N4685 G3 X2.1653 Y7.8005 Z0.7188 I0.0009 J-0.025 F20.
N4690 X2.1641 Y7.795 Z0.7199 I0.0237 J-0.008 F80.
N4695 G1 X2.1638 Y7.7917 Z0.7206
N4700 X2.1236 Y7.385
N4705 Y7.3842
N4710 X2.1235 Y7.3834
N4715 G3 X2.1248 Y7.3745 Z0.7188 I0.025 J-0.0009
N4720 X2.1476 Y7.3575 Z0.7126 I0.0237 J0.008 F20.
N4725 G1 X2.2151 F80.
N4730 G3 X2.323 Y7.4194 I-0.0166 J0.1538
N4735 X2.4048 Y7.6256 I-0.2606 J0.2227
N4740 X2.383 Y7.776 I-0.2718 J0.0374
N4745 X2.3159 Y7.8175 I-0.0671 J-0.0335
N4750 G1 X2.252
N4755 G3 X2.2292 Y7.8005 Z0.7188 I0.0009 J-0.025 F20.
N4760 X2.228 Y7.7948 Z0.72 I0.0237 J-0.008 F80.
N4765 G1 X2.2277 Y7.7917 Z0.7206
N4770 X2.191 Y7.3847
N4775 Y7.3834
N4780 G3 X2.1922 Y7.3745 Z0.7188 I0.025 J-0.0009
N4785 X2.2151 Y7.3575 Z0.7126 I0.0237 J0.008 F20.
N4790 G1 X2.275 F80.
N4795 G3 X2.3868 Y7.4196 I-0.0111 J0.1517
N4800 X2.4614 Y7.575 I-0.2394 J0.2107
N4805 X2.4493 Y7.7728 I-0.3253 J0.0792
N4810 X2.3797 Y7.8177 I-0.0711 J-0.0339
N4815 G1 X2.3159 Y7.8175
N4820 G3 X2.293 Y7.8005 Z0.7188 I0.0009 J-0.025 F20.
N4825 X2.2919 Y7.795 Z0.7199 I0.0237 J-0.008 F80.
N4830 G1 X2.2915 Y7.7917 Z0.7206
N4835 X2.251 Y7.385
N4840 Y7.3842
N4845 X2.2509 Y7.3834
N4850 G3 X2.2522 Y7.3745 Z0.7188 I0.025 J-0.0009
N4855 X2.275 Y7.3575 Z0.7126 I0.0237 J0.008 F20.
N4860 G1 X2.3425 F80.
N4865 G3 X2.4507 Y7.4195 I-0.0162 J0.1537
N4870 X2.5253 Y7.575 I-0.2415 J0.2116
N4875 X2.5131 Y7.7728 I-0.3256 J0.0792
N4880 X2.4436 Y7.8177 I-0.0712 J-0.0339
N4885 G1 X2.3797 Y7.8175
N4890 G3 X2.3569 Y7.8005 Z0.7188 I0.0009 J-0.025 F20.
N4895 X2.3557 Y7.7948 Z0.72 I0.0237 J-0.008 F80.
N4900 G1 X2.3554 Y7.7917 Z0.7206
N4905 X2.3184 Y7.3848
N4910 Y7.3834
N4915 G3 X2.3196 Y7.3745 Z0.7188 I0.025 J-0.0009
N4920 X2.3425 Y7.3575 Z0.7126 I0.0237 J0.008 F20.
N4925 G1 X2.4024 F80.
N4930 G3 X2.5145 Y7.4196 I-0.0108 J0.1516
N4935 X2.5892 Y7.5751 I-0.2393 J0.2106
N4940 X2.577 Y7.7728 I-0.3252 J0.0792
N4945 X2.5075 Y7.8177 I-0.0711 J-0.0339
N4950 G1 X2.4436 Y7.8175
N4955 G3 X2.4208 Y7.8005 Z0.7188 I0.0009 J-0.025 F20.
N4960 X2.4196 Y7.795 Z0.7199 I0.0237 J-0.008 F80.
N4965 G1 X2.4193 Y7.7917 Z0.7206
N4970 X2.3784 Y7.385
N4975 X2.3783 Y7.3842
N4980 Y7.3834
N4985 G3 X2.3796 Y7.3745 Z0.7188 I0.025 J-0.0009
N4990 X2.4024 Y7.3575 Z0.7126 I0.0237 J0.008 F20.
N4995 G1 X2.4699 F80.
N5000 G3 X2.5784 Y7.4195 I-0.0157 J0.1535
N5005 X2.6531 Y7.575 I-0.2413 J0.2115
N5010 X2.6409 Y7.7728 I-0.3255 J0.0792
N5015 X2.5714 Y7.8177 I-0.0712 J-0.0339
N5020 G1 X2.5075 Y7.8175
N5025 G3 X2.4847 Y7.8005 Z0.7188 I0.0009 J-0.025 F20.
N5030 X2.4835 Y7.7948 Z0.72 I0.0237 J-0.008 F80.
N5035 G1 X2.4832 Y7.7917 Z0.7206
N5040 X2.4458 Y7.3848
N5045 Y7.3841
N5050 X2.4457 Y7.3834
N5055 G3 X2.447 Y7.3745 Z0.7188 I0.025 J-0.0009
N5060 X2.4699 Y7.3575 Z0.7126 I0.0237 J0.008 F20.
N5065 G1 X2.5339 F80.
N5070 G3 X2.6423 Y7.4195 I-0.0159 J0.1536
N5075 X2.7169 Y7.575 I-0.2414 J0.2116
N5080 X2.7048 Y7.7728 I-0.3255 J0.0792
N5085 X2.6352 Y7.8177 I-0.0712 J-0.0339
N5090 G1 X2.5714 Y7.8175
N5095 G3 X2.5485 Y7.8005 Z0.7188 I0.0009 J-0.025 F20.
N5100 X2.5473 Y7.7948 Z0.72 I0.0237 J-0.008 F80.
N5105 G1 X2.547 Y7.7917 Z0.7206
N5110 X2.5099 Y7.3848
N5115 X2.5098 Y7.3841
N5120 Y7.3834
N5125 G3 X2.5111 Y7.3745 Z0.7188 I0.025 J-0.0009
N5130 X2.5339 Y7.3575 Z0.7126 I0.0237 J0.008 F20.
N5135 G1 X2.5972 F80.
N5140 G3 X2.7061 Y7.4195 I-0.0151 J0.1532
N5145 X2.7808 Y7.575 I-0.241 J0.2114
N5150 X2.7686 Y7.7728 I-0.3255 J0.0792
N5155 X2.6991 Y7.8177 I-0.0712 J-0.0339
N5160 G1 X2.6352 Y7.8175
N5165 G3 X2.6124 Y7.8005 Z0.7188 I0.0009 J-0.025 F20.
N5170 X2.6112 Y7.7948 Z0.72 I0.0237 J-0.008 F80.
N5175 G1 X2.6109 Y7.7917 Z0.7206
N5180 X2.5732 Y7.3848
N5185 Y7.3841
N5190 X2.5731 Y7.3834
N5195 Y7.3825 Z0.7204
N5200 G3 X2.5744 Y7.3745 Z0.7188 I0.025 J0.
N5205 X2.5972 Y7.3575 Z0.7126 I0.0237 J0.008 F20.
N5210 G1 X2.6613 F80.
N5215 G3 X2.77 Y7.4195 I-0.0154 J0.1533
N5220 X2.8447 Y7.575 I-0.2412 J0.2115
N5225 X2.8325 Y7.7728 I-0.3255 J0.0792
N5230 X2.763 Y7.8177 I-0.0712 J-0.0339
N5235 G1 X2.6991 Y7.8175
N5240 G3 X2.6763 Y7.8005 Z0.7188 I0.0009 J-0.025 F20.
N5245 X2.6751 Y7.7948 Z0.72 I0.0237 J-0.008 F80.
N5250 G1 X2.6748 Y7.7917 Z0.7206
N5255 X2.6373 Y7.3848
N5260 X2.6372 Y7.3841
N5265 Y7.3834
N5270 G3 X2.6385 Y7.3745 Z0.7188 I0.025 J-0.0009
N5275 X2.6613 Y7.3575 Z0.7126 I0.0237 J0.008 F20.
N5280 G1 X2.7246 F80.
N5285 G3 X2.8339 Y7.4195 I-0.0146 J0.153
N5290 X2.9085 Y7.575 I-0.2408 J0.2113
N5295 X2.8964 Y7.7728 I-0.3254 J0.0792
N5300 X2.8268 Y7.8177 I-0.0712 J-0.0339
N5305 G1 X2.763 Y7.8175
N5310 G3 X2.7401 Y7.8005 Z0.7188 I0.0009 J-0.025 F20.
N5315 X2.7389 Y7.7949 Z0.7199 I0.0237 J-0.008 F80.
N5320 G1 X2.7386 Y7.7917 Z0.7206
N5325 X2.7006 Y7.3848
N5330 Y7.3841
N5335 X2.7005 Y7.3834
N5340 Y7.3825 Z0.7204
N5345 G3 X2.7018 Y7.3745 Z0.7188 I0.025 J0.
N5350 X2.7246 Y7.3575 Z0.7126 I0.0237 J0.008 F20.
N5355 G1 X2.7887 F80.
N5360 G3 X2.8977 Y7.4195 I-0.0149 J0.1531
N5365 X2.9724 Y7.575 I-0.241 J0.2114
N5370 X2.9602 Y7.7728 I-0.3254 J0.0792
N5375 X2.8907 Y7.8177 I-0.0712 J-0.0339
N5380 G1 X2.8268 Y7.8175
N5385 G3 X2.804 Y7.8005 Z0.7188 I0.0009 J-0.025 F20.
N5390 X2.8028 Y7.7949 Z0.72 I0.0237 J-0.008 F80.
N5395 G1 X2.8025 Y7.7917 Z0.7206
N5400 X2.7647 Y7.3848
N5405 X2.7646 Y7.3841
N5410 Y7.3834
N5415 Y7.3825 Z0.7204
N5420 G3 X2.7659 Y7.3745 Z0.7188 I0.025 J0.
N5425 X2.7887 Y7.3575 Z0.7126 I0.0237 J0.008 F20.
N5430 G1 X2.852 F80.
N5435 G3 X2.9616 Y7.4195 I-0.0141 J0.1528
N5440 X3.0363 Y7.5751 I-0.2406 J0.2112
N5445 X3.0241 Y7.7728 I-0.3254 J0.0792
N5450 X2.9546 Y7.8177 I-0.0712 J-0.0339
N5455 G1 X2.8907 Y7.8175
N5460 G3 X2.8679 Y7.8005 Z0.7188 I0.0009 J-0.025 F20.
N5465 X2.8667 Y7.7949 Z0.7199 I0.0237 J-0.008 F80.
N5470 G1 X2.8664 Y7.7917 Z0.7206
N5475 X2.828 Y7.3849
N5480 X2.8279 Y7.3841
N5485 Y7.3834
N5490 G3 X2.8292 Y7.3745 Z0.7188 I0.025 J-0.0009
N5495 X2.852 Y7.3575 Z0.7126 I0.0237 J0.008 F20.
N5500 G1 X2.9161 F80.
N5505 G3 X3.0255 Y7.4195 I-0.0144 J0.1529
N5510 X3.1001 Y7.5751 I-0.2408 J0.2113
N5515 X3.088 Y7.7728 I-0.3254 J0.0792
N5520 X3.0184 Y7.8177 I-0.0712 J-0.0339
N5525 G1 X2.9546 Y7.8175
N5530 G3 X2.9317 Y7.8005 Z0.7188 I0.0009 J-0.025 F20.
N5535 X2.9306 Y7.7949 Z0.7199 I0.0237 J-0.008 F80.
N5540 G1 X2.9303 Y7.7917 Z0.7206
N5545 X2.8921 Y7.3848
N5550 X2.892 Y7.3841
N5555 Y7.3834
N5560 Y7.3825 Z0.7204
N5565 G3 X2.8933 Y7.3745 Z0.7188 I0.025 J0.
N5570 X2.9161 Y7.3575 Z0.7126 I0.0237 J0.008 F20.
N5575 G1 X2.9794 F80.
N5580 G3 X3.0893 Y7.4196 I-0.0137 J0.1526
N5585 X3.164 Y7.5751 I-0.2404 J0.2112
N5590 X3.1518 Y7.7728 I-0.3253 J0.0792
N5595 X3.0823 Y7.8177 I-0.0712 J-0.0339
N5600 G1 X3.0184 Y7.8175
N5605 G3 X2.9956 Y7.8005 Z0.7188 I0.0009 J-0.025 F20.
N5610 X2.9944 Y7.7949 Z0.7199 I0.0237 J-0.008 F80.
N5615 G1 X2.9941 Y7.7917 Z0.7206
N5620 X2.9554 Y7.3849
N5625 X2.9553 Y7.3841
N5630 Y7.3834
N5635 G3 X2.9566 Y7.3745 Z0.7188 I0.025 J-0.0009
N5640 X2.9794 Y7.3575 Z0.7126 I0.0237 J0.008 F20.
N5645 G1 X3.0435 F80.
N5650 G3 X3.1532 Y7.4195 I-0.014 J0.1528
N5655 X3.2279 Y7.5751 I-0.2406 J0.2112
N5660 X3.2157 Y7.7728 I-0.3253 J0.0792
N5665 X3.1462 Y7.8177 I-0.0712 J-0.0339
N5670 G1 X3.0823 Y7.8175
N5675 G3 X3.0595 Y7.8005 Z0.7188 I0.0009 J-0.025 F20.
N5680 X3.0583 Y7.7949 Z0.7199 I0.0237 J-0.008 F80.
N5685 G1 X3.058 Y7.7917 Z0.7206
N5690 X3.0195 Y7.3849
N5695 X3.0194 Y7.3841
N5700 Y7.3834
N5705 G3 X3.0207 Y7.3745 Z0.7188 I0.025 J-0.0009
N5710 X3.0435 Y7.3575 Z0.7126 I0.0237 J0.008 F20.
N5715 G1 X3.1068 F80.
N5720 G3 X3.2171 Y7.4196 I-0.0132 J0.1525
N5725 X3.2917 Y7.5751 I-0.2403 J0.2111
N5730 X3.2796 Y7.7728 I-0.3253 J0.0792
N5735 X3.2101 Y7.8177 I-0.0711 J-0.0339
N5740 G1 X3.1462 Y7.8175
N5745 G3 X3.1234 Y7.8005 Z0.7188 I0.0009 J-0.025 F20.
N5750 X3.1222 Y7.7949 Z0.7199 I0.0237 J-0.008 F80.
N5755 G1 X3.1219 Y7.7917 Z0.7206
N5760 X3.0828 Y7.3849
N5765 X3.0827 Y7.3841
N5770 Y7.3834
N5775 G3 X3.084 Y7.3745 Z0.7188 I0.025 J-0.0009
N5780 X3.1068 Y7.3575 Z0.7126 I0.0237 J0.008 F20.
N5785 G1 X3.1709 F80.
N5790 G3 X3.2809 Y7.4196 I-0.0135 J0.1526
N5795 X3.3556 Y7.5751 I-0.2404 J0.2111
N5800 X3.3434 Y7.7728 I-0.3253 J0.0792
N5805 X3.2739 Y7.8177 I-0.0711 J-0.0339
N5810 G1 X3.2101 Y7.8175
N5815 G3 X3.1872 Y7.8005 Z0.7188 I0.0009 J-0.025 F20.
N5820 X3.186 Y7.7949 Z0.7199 I0.0237 J-0.008 F80.
N5825 G1 X3.1857 Y7.7917 Z0.7206
N5830 X3.1469 Y7.3849
N5835 X3.1468 Y7.3841
N5840 Y7.3834
N5845 G3 X3.148 Y7.3745 Z0.7188 I0.025 J-0.0009
N5850 X3.1709 Y7.3575 Z0.7126 I0.0237 J0.008 F20.
N5855 G1 X3.2342 F80.
N5860 G3 X3.3448 Y7.4196 I-0.0128 J0.1523
N5865 X3.4195 Y7.5751 I-0.2401 J0.211
N5870 X3.4073 Y7.7728 I-0.3252 J0.0792
N5875 X3.3378 Y7.8177 I-0.0711 J-0.0339
N5880 G1 X3.2739 Y7.8175
N5885 G3 X3.2511 Y7.8005 Z0.7188 I0.0009 J-0.025 F20.
N5890 X3.2499 Y7.7949 Z0.7199 I0.0237 J-0.008 F80.
N5895 G1 X3.2496 Y7.7917 Z0.7206
N5900 X3.2102 Y7.3849
N5905 X3.2101 Y7.3841
N5910 Y7.3834
N5915 G3 X3.2114 Y7.3745 Z0.7188 I0.025 J-0.0009
N5920 X3.2342 Y7.3575 Z0.7126 I0.0237 J0.008 F20.
N5925 G1 X3.2983 F80.
N5930 G3 X3.4087 Y7.4196 I-0.0131 J0.1524
N5935 X3.4834 Y7.5751 I-0.2402 J0.2111
N5940 X3.4712 Y7.7728 I-0.3252 J0.0792
N5945 X3.4017 Y7.8177 I-0.0711 J-0.0339
N5950 G1 X3.3378 Y7.8175
N5955 G3 X3.315 Y7.8005 Z0.7188 I0.0009 J-0.025 F20.
N5960 X3.3138 Y7.7949 Z0.7199 I0.0237 J-0.008 F80.
N5965 G1 X3.3135 Y7.7917 Z0.7206
N5970 X3.2742 Y7.3849
N5975 Y7.3841
N5980 X3.2741 Y7.3834
N5985 G3 X3.2754 Y7.3745 Z0.7188 I0.025 J-0.0009
N5990 X3.2983 Y7.3575 Z0.7126 I0.0237 J0.008 F20.
N5995 G1 X3.3616 F80.
N6000 G3 X3.4725 Y7.4196 I-0.0123 J0.1522
N6005 X3.5472 Y7.5751 I-0.2399 J0.2109
N6010 X3.535 Y7.7728 I-0.3252 J0.0792
N6015 X3.4655 Y7.8177 I-0.0711 J-0.0339
N6020 G1 X3.4017 Y7.8175
N6025 G3 X3.3788 Y7.8005 Z0.7188 I0.0009 J-0.025 F20.
N6030 X3.3776 Y7.795 Z0.7199 I0.0237 J-0.008 F80.
N6035 G1 X3.3773 Y7.7917 Z0.7206
N6040 X3.3376 Y7.3849
N6045 X3.3375 Y7.3841
N6050 Y7.3834
N6055 G3 X3.3387 Y7.3745 Z0.7188 I0.025 J-0.0009
N6060 X3.3616 Y7.3575 Z0.7126 I0.0237 J0.008 F20.
N6065 G1 X3.429 F80.
N6070 G3 X3.5364 Y7.4195 I-0.0175 J0.1543
N6075 X3.6183 Y7.6257 I-0.2608 J0.2229
N6080 X3.5965 Y7.776 I-0.2716 J0.0374
N6085 X3.5294 Y7.8175 I-0.0671 J-0.0335
N6090 G1 X3.4655
N6095 G3 X3.4427 Y7.8005 Z0.7188 I0.0009 J-0.025 F20.
N6100 X3.4415 Y7.7948 Z0.72 I0.0237 J-0.008 F80.
N6105 G1 X3.4412 Y7.7917 Z0.7206
N6110 X3.405 Y7.3847
N6115 X3.4049 Y7.3834
N6120 G3 X3.4062 Y7.3745 Z0.7188 I0.025 J-0.0009
N6125 X3.429 Y7.3575 Z0.7126 I0.0237 J0.008 F20.
N6130 G1 X3.489 F80.
N6135 G3 X3.6003 Y7.4196 I-0.0118 J0.152
N6140 X3.675 Y7.5751 I-0.2397 J0.2109
N6145 X3.6628 Y7.7728 I-0.3252 J0.0792
N6150 X3.5933 Y7.8177 I-0.0711 J-0.0339
N6155 G1 X3.5294 Y7.8175
N6160 G3 X3.5066 Y7.8005 Z0.7188 I0.0009 J-0.025 F20.
N6165 X3.5054 Y7.795 Z0.7199 I0.0237 J-0.008 F80.
N6170 G1 X3.5051 Y7.7917 Z0.7206
N6175 X3.465 Y7.385
N6180 X3.4649 Y7.3842
N6185 Y7.3834
N6190 G3 X3.4661 Y7.3745 Z0.7188 I0.025 J-0.0009
N6195 X3.489 Y7.3575 Z0.7126 I0.0237 J0.008 F20.
N6200 G1 X3.5564 F80.
N6205 G3 X3.6642 Y7.4195 I-0.0169 J0.1541
N6210 X3.746 Y7.6257 I-0.2608 J0.2229
N6215 X3.7242 Y7.776 I-0.2716 J0.0374
N6220 X3.6571 Y7.8175 I-0.0671 J-0.0335
N6225 G1 X3.5933
N6230 G3 X3.5704 Y7.8005 Z0.7188 I0.0009 J-0.025 F20.
N6235 X3.5692 Y7.7948 Z0.72 I0.0237 J-0.008 F80.
N6240 G1 X3.569 Y7.7917 Z0.7206
N6245 X3.5324 Y7.3847
N6250 X3.5323 Y7.3834
N6255 G3 X3.5336 Y7.3745 Z0.7188 I0.025 J-0.0009
N6260 X3.5564 Y7.3575 Z0.7126 I0.0237 J0.008 F20.
N6265 G1 X3.6164 F80.
N6270 G3 X3.728 Y7.4196 I-0.0114 J0.1518
N6275 X3.8027 Y7.5751 I-0.2396 J0.2108
N6280 X3.793 Y7.7665 I-0.3282 J0.0793
N6285 X3.741 Y7.8101 I-0.0706 J-0.0314
N6290 X3.6571 Y7.8173 I-0.0693 J-0.3163
N6295 G1 X3.6534 Y7.8169 Z0.7134 F20.
N6300 X3.6498 Y7.816 Z0.7141
N6305 X3.6463 Y7.8145 Z0.7149
N6310 X3.6431 Y7.8125 Z0.7157
N6315 X3.6403 Y7.81 Z0.7165
N6320 X3.6378 Y7.8072 Z0.7172
N6325 X3.6358 Y7.804 Z0.718
N6330 X3.6343 Y7.8005 Z0.7188
N6335 G3 X3.6331 Y7.795 Z0.7199 I0.0237 J-0.008 F80.
N6340 G1 X3.6328 Y7.7917 Z0.7206
N6345 X3.5923 Y7.385
N6350 Y7.3842
N6355 X3.5922 Y7.3834
N6360 G3 X3.5935 Y7.3745 Z0.7188 I0.025 J-0.0009
N6365 X3.6164 Y7.3575 Z0.7126 I0.0237 J0.008 F20.
N6370 G1 X3.6688 F80.
N6375 X3.6763 Y7.3577
N6380 X3.6838 Y7.3579
N6385 G3 X3.7867 Y7.4137 I-0.015 J0.1503
N6390 X3.8723 Y7.6124 I-0.2482 J0.2248
N6395 X3.8684 Y7.722 I-0.2681 J0.0452
N6400 G1 X3.8614 Y7.7349
N6405 X3.8524 Y7.7465
N6410 G3 X3.741 Y7.8103 I-0.1648 J-0.1585
N6415 G1 X3.7372 Y7.8108 Z0.7134 F20.
N6420 X3.7334 Y7.8107 Z0.7141
N6425 X3.7297 Y7.81 Z0.7149
N6430 X3.7261 Y7.8087 Z0.7157
N6435 X3.7227 Y7.8069 Z0.7165
N6440 X3.7197 Y7.8047 Z0.7172
N6445 X3.717 Y7.802 Z0.718
N6450 X3.7148 Y7.7989 Z0.7188
N6455 G3 X3.7115 Y7.7907 Z0.7206 I0.0212 J-0.0133 F80.
N6460 G1 X3.7111 Y7.7888
N6465 X3.6591 Y7.3861
N6470 X3.659 Y7.3851
N6475 X3.6589 Y7.384
N6480 Y7.383
N6485 G3 X3.6605 Y7.3742 Z0.7188 I0.025 J-0.0001
N6490 X3.6838 Y7.3579 Z0.7126 I0.0234 J0.0087 F20.
N6495 X3.8526 Y7.7467 I0.0029 J0.2298 F80.
N6500 G1 X3.8496 Y7.7492 F20.
N6505 X3.8463 Y7.7512
N6510 X3.8427 Y7.7526
N6515 X3.8389 Y7.7535
N6520 X3.835 Y7.7538
N6525 X3.8311 Y7.7534
N6530 X3.8274 Y7.7525
N6535 X3.8238 Y7.751
N6540 X3.8203 Y7.7493 Z0.7129
N6545 X3.8169 Y7.7476 Z0.7138
N6550 X3.8136 Y7.746 Z0.7153
N6555 X3.8106 Y7.7445 Z0.7174
N6560 X3.808 Y7.7432 Z0.7199
N6565 X3.8057 Y7.7421 Z0.7229
N6570 X3.8038 Y7.7411 Z0.7262
N6575 X3.8025 Y7.7405 Z0.7299
N6580 X3.8017 Y7.7401 Z0.7337
N6585 X3.8014 Y7.7399 Z0.7376
N6590 Z2.2 F80.
N6595 X3.466 Y8.6811
N6600 Z2.02
N6605 G3 X3.701 Y8.6698 Z1.9715 I0.1215 J0.0778
N6610 X3.6345 Y8.8941 Z1.923 I-0.1129 J0.0885
N6615 X3.4458 Y8.7581 Z1.8744 I-0.0461 J-0.135
N6620 X3.6354 Y8.6257 Z1.8259 I0.1418 J0.001
N6625 X3.6975 Y8.847 Z1.7774 I-0.0475 J0.1327
N6630 X3.4695 Y8.8327 Z1.7289 I-0.1089 J-0.0881
N6635 X3.5577 Y8.6234 Z1.6803 I0.1184 J-0.0733
N6640 X3.725 Y8.7749 Z1.6318 I0.0299 J0.1351
N6645 X3.5281 Y8.8822 Z1.5833 I-0.1366 J-0.0162
N6650 X3.492 Y8.6622 Z1.5348 I0.06 J-0.1228
N6655 X3.7102 Y8.7005 Z1.4862 I0.0955 J0.0966
N6660 X3.6027 Y8.8926 Z1.4377 I-0.1219 J0.0579
N6665 X3.4577 Y8.7288 Z1.3892 I-0.0143 J-0.1334
N6670 X3.659 Y8.6465 Z1.3407 I0.1298 J0.0303
N6675 X3.6701 Y8.8623 Z1.2921 I-0.071 J0.1118
N6680 X3.4641 Y8.802 Z1.2436 I-0.0816 J-0.1032
N6685 X3.5882 Y8.6286 Z1.1951 I0.1236 J-0.0427
N6690 X3.7102 Y8.8018 Z1.1466 I-0.0005 J0.1299
N6695 X3.5077 Y8.8594 Z1.098 I-0.1217 J-0.043
N6700 X3.5201 Y8.6507 Z1.0495 I0.0803 J-0.1
N6705 X3.7118 Y8.7307 Z1.001 I0.0674 J0.108
N6710 X3.5739 Y8.8842 Z0.9525 I-0.1234 J0.0278
N6715 X3.4752 Y8.7046 Z0.9039 I0.0144 J-0.1248
N6720 X3.6759 Y8.6709 Z0.8554 I0.1123 J0.0544
N6725 X3.6417 Y8.8702 Z0.8069 I-0.0878 J0.0875
N6730 X3.4661 Y8.7728 Z0.7584 I-0.0532 J-0.111
N6735 X3.615 Y8.64 Z0.7098 I0.1215 J-0.0135
N6740 X3.6906 Y8.8231 Z0.6613 I-0.0271 J0.1184
N6745 X3.4942 Y8.834 Z0.6128 I-0.1021 J-0.0642
N6750 X3.5484 Y8.6464 Z0.5643 I0.0937 J-0.0746
N6755 X3.7065 Y8.7586 Z0.5157 I0.0392 J0.1122
N6760 X3.4687 I-0.1189 J0.
N6765 X3.7065 I0.1189 J0.
N6770 G2 X3.7128 Y8.8029 I0.1658 J-0.001
N6775 G3 X3.6646 Y8.8972 I-0.0971 J0.0098
N6780 X3.4601 Y8.8659 I-0.0854 J-0.1259
N6785 X3.4992 Y8.6153 I0.1273 J-0.1085
N6790 X3.7411 Y8.6913 I0.0883 J0.1421
N6795 X3.7355 Y8.8995 I-0.1644 J0.0997
N6800 X3.4291 Y8.9117 I-0.1584 J-0.1255
N6805 X3.5216 Y8.5463 I0.1558 J-0.1549
N6810 X3.7796 Y8.644 I0.0668 J0.2132
N6815 X3.8158 Y8.7217 I-0.146 J0.1152
N6820 G1 X3.8164 Y8.7276
N6825 G3 X3.8175 Y8.8039 I-0.7746 J0.0493
N6830 X3.6297 Y9.0263 I-0.2267 J-0.0009
N6835 X3.368 Y8.9306 I-0.0555 J-0.2538
N6840 G1 X3.3623 Y8.9183
N6845 X3.3587 Y8.9053
N6850 X3.3575 Y8.8918
N6855 Y8.7514
N6860 G3 X3.5489 Y8.5112 I0.233 J-0.0107
N6865 X3.8166 Y8.7276 I0.0378 J0.227
N6870 G1 X3.8162 Y8.7315 F20.
N6875 G2 X3.8145 Y8.7533 I0.248 J0.0311
N6880 G1 X3.8144 Y8.7546
N6885 X3.8145 Y8.7584
N6890 X3.8147 Y8.7731 F80.
N6895 X3.8148 Y8.778 F20.
N6900 Y8.7793
N6905 G2 X3.8172 Y8.8009 I0.2494 J-0.0166
N6910 G3 X3.8175 Y8.8039 I-0.0247 J0.0038
N6915 G1 Y8.9089 F80.
N6920 G3 X3.7426 Y9.0354 I-0.1673 J-0.0136
N6925 X3.5173 Y9.0866 I-0.1687 J-0.2212
N6930 X3.3762 Y9.0235 I0.0451 J-0.2901
N6935 X3.3575 Y8.9729 I0.062 J-0.0517
N6940 G1 Y8.8918
N6945 G3 X3.3745 Y8.869 Z0.5219 I0.025 J0.0009 F20.
N6950 X3.3833 Y8.8677 Z0.5237 I0.008 J0.0237 F80.
N6955 G1 X3.3835
N6960 X3.7917 Y8.8847
N6965 X3.7936 Z0.5234
N6970 G3 X3.8005 Y8.886 Z0.5219 I-0.001 J0.025
N6975 X3.8175 Y8.9089 Z0.5157 I-0.008 J0.0237 F20.
N6980 G1 Y8.9763 F80.
N6985 G3 X3.7594 Y9.084 I-0.1453 J-0.0088
N6990 X3.5475 Y9.1516 I-0.1866 J-0.2193
N6995 X3.3841 Y9.1021 I0.0027 J-0.3034
N7000 X3.3575 Y9.0448 I0.0484 J-0.0573
N7005 G1 Y8.9729
N7010 G3 X3.3745 Y8.95 Z0.5219 I0.025 J0.0009 F20.
N7015 X3.3827 Y8.9487 Z0.5236 I0.008 J0.0237 F80.
N7020 G1 X3.3833 Z0.5237
N7025 X3.7917 Y8.9522
N7030 X3.7927 Z0.5235
N7035 G3 X3.8005 Y8.9535 Z0.5219 I-0.0002 J0.025
N7040 X3.8175 Y8.9763 Z0.5157 I-0.008 J0.0237 F20.
N7045 G1 Y9.0438 F80.
N7050 G3 X3.7612 Y9.1436 I-0.1418 J-0.0142
N7055 X3.5605 Y9.2138 I-0.1921 J-0.2272
N7060 X3.3947 Y9.1783 I-0.0183 J-0.3191
N7065 X3.3575 Y9.1135 I0.0378 J-0.0648
N7070 G1 Y9.0448
N7075 G3 X3.3745 Y9.022 Z0.5219 I0.025 J0.0009 F20.
N7080 X3.3824 Y9.0207 Z0.5236 I0.008 J0.0237 F80.
N7085 G1 X3.3833 Z0.5237
N7090 X3.7917 Y9.0197
N7095 X3.7925 Z0.5236
N7100 G3 X3.8005 Y9.021 Z0.5219 I0.0001 J0.025
N7105 X3.8175 Y9.0438 Z0.5157 I-0.008 J0.0237 F20.
N7110 G1 Y9.1038 F80.
N7115 G3 X3.7613 Y9.2039 I-0.1398 J-0.0126
N7120 X3.5762 Y9.2756 I-0.1956 J-0.2302
N7125 X3.3949 Y9.2454 I-0.0398 J-0.3202
N7130 X3.3575 Y9.1805 I0.0376 J-0.0649
N7135 G1 Y9.1135
N7140 G3 X3.3745 Y9.0907 Z0.5219 I0.025 J0.0009 F20.
N7145 X3.3819 Y9.0894 Z0.5235 I0.008 J0.0237 F80.
N7150 G1 X3.3833 Y9.0893 Z0.5237
N7155 X3.7917 Y9.0797
N7160 X3.7919
N7165 G3 X3.8005 Y9.0809 Z0.5219 I0.0006 J0.025
N7170 X3.8175 Y9.1038 Z0.5157 I-0.008 J0.0237 F20.
N7175 G1 Y9.1638 F80.
N7180 G3 X3.7608 Y9.265 I-0.1402 J-0.012
N7185 X3.6197 Y9.3321 I-0.19 J-0.2175
N7190 X3.4053 Y9.3173 I-0.0828 J-0.3582
N7195 X3.3575 Y9.2463 I0.0298 J-0.0717
N7200 G1 Y9.1805
N7205 G3 X3.3745 Y9.1577 Z0.5219 I0.025 J0.0009 F20.
N7210 X3.3815 Y9.1564 Z0.5234 I0.008 J0.0237 F80.
N7215 G1 X3.3833 Y9.1563 Z0.5237
N7220 X3.7917 Y9.1396
N7225 G3 X3.8005 Y9.1409 Z0.5219 I0.0009 J0.025
N7230 X3.8175 Y9.1638 Z0.5157 I-0.008 J0.0237 F20.
N7235 G1 Y9.2237 F80.
N7240 G3 X3.7599 Y9.3268 I-0.1416 J-0.0116
N7245 X3.6145 Y9.3958 I-0.1957 J-0.2243
N7250 X3.4046 Y9.3821 I-0.0825 J-0.3497
N7255 X3.3575 Y9.3115 I0.0305 J-0.0714
N7260 G1 Y9.2463
N7265 G3 X3.3745 Y9.2235 Z0.5219 I0.025 J0.0009 F20.
N7270 X3.3811 Y9.2222 Z0.5233 I0.008 J0.0237 F80.
N7275 G1 X3.3833 Y9.2221 Z0.5237
N7280 X3.7911 Y9.1996
N7285 X3.7917
N7290 G3 X3.8005 Y9.2009 Z0.5219 I0.0009 J0.025
N7295 X3.8175 Y9.2237 Z0.5157 I-0.008 J0.0237 F20.
N7300 G1 Y9.2837 F80.
N7305 G3 X3.7588 Y9.3892 I-0.1434 J-0.0107
N7310 X3.6104 Y9.4598 I-0.1999 J-0.229
N7315 X3.404 Y9.4466 I-0.0818 J-0.3427
N7320 X3.3575 Y9.3763 I0.0312 J-0.0711
N7325 G1 Y9.3115
N7330 G3 X3.3745 Y9.2887 Z0.5219 I0.025 J0.0009 F20.
N7335 X3.3808 Y9.2874 Z0.5232 I0.008 J0.0237 F80.
N7340 G1 X3.3833 Y9.2872 Z0.5237
N7345 X3.7908 Y9.2596
N7350 X3.7917
N7355 G3 X3.8005 Y9.2609 Z0.5219 I0.0009 J0.025
N7360 X3.8175 Y9.2837 Z0.5157 I-0.008 J0.0237 F20.
N7365 G1 Y9.3478 F80.
N7370 G3 X3.7581 Y9.452 I-0.1468 J-0.0147
N7375 X3.6074 Y9.5238 I-0.2038 J-0.2339
N7380 X3.4034 Y9.5109 I-0.0811 J-0.3379
N7385 X3.3573 Y9.4408 I0.0329 J-0.0718
N7390 G1 X3.3575 Y9.3763
N7395 G3 X3.3745 Y9.3535 Z0.5219 I0.025 J0.0009 F20.
N7400 X3.3808 Y9.3522 Z0.5232 I0.008 J0.0237 F80.
N7405 G1 X3.3833 Y9.352 Z0.5237
N7410 X3.7908 Y9.3237
N7415 X3.7917
N7420 G3 X3.8005 Y9.325 Z0.5219 I0.0009 J0.025
N7425 X3.8175 Y9.3478 Z0.5157 I-0.008 J0.0237 F20.
N7430 G1 Y9.4112 F80.
N7435 G3 X3.7575 Y9.5151 I-0.1494 J-0.0169
N7440 X3.5546 Y9.5949 I-0.2183 J-0.2574
N7445 X3.4032 Y9.5747 I-0.0366 J-0.3038
N7450 X3.3574 Y9.5052 I0.0314 J-0.0705
N7455 G1 X3.3575 Y9.4408
N7460 G3 X3.3745 Y9.418 Z0.5219 I0.025 J0.0009 F20.
N7465 X3.3807 Y9.4168 Z0.5232 I0.008 J0.0237 F80.
N7470 G1 X3.3833 Y9.4166 Z0.5237
N7475 X3.7907 Y9.3871
N7480 X3.7917 Y9.387
N7485 G3 X3.8005 Y9.3883 Z0.5219 I0.0009 J0.025
N7490 X3.8175 Y9.4112 Z0.5157 I-0.008 J0.0237 F20.
N7495 G1 Y9.4711 F80.
N7500 G3 X3.7569 Y9.5784 I-0.149 J-0.0134
N7505 X3.6037 Y9.6517 I-0.2074 J-0.2371
N7510 X3.4028 Y9.6391 I-0.0802 J-0.3311
N7515 X3.3573 Y9.5694 I0.0333 J-0.0714
N7520 G1 X3.3575 Y9.5052
N7525 G3 X3.3745 Y9.4823 Z0.5219 I0.025 J0.0009 F20.
N7530 X3.3804 Y9.4811 Z0.5232 I0.008 J0.0237 F80.
N7535 G1 X3.3833 Y9.4809 Z0.5237
N7540 X3.7904 Y9.4471
N7545 X3.7917 Y9.447
N7550 G3 X3.8005 Y9.4483 Z0.5219 I0.0009 J0.025
N7555 X3.8175 Y9.4711 Z0.5157 I-0.008 J0.0237 F20.
N7560 G1 Y9.5352 F80.
N7565 G3 X3.7565 Y9.6419 I-0.1509 J-0.0154
N7570 X3.6026 Y9.7156 I-0.2089 J-0.2389
N7575 X3.4026 Y9.7032 I-0.0799 J-0.3294
N7580 X3.361 Y9.6489 I0.0365 J-0.0711
N7585 X3.3575 Y9.5694 I0.5388 J-0.0636
N7590 G1 X3.3579 Y9.5656 Z0.5165 F20.
N7595 X3.3589 Y9.562 Z0.5173
N7600 X3.3604 Y9.5585 Z0.5181
N7605 X3.3625 Y9.5553 Z0.5188
N7610 X3.3649 Y9.5524 Z0.5196
N7615 X3.3678 Y9.55 Z0.5204
N7620 X3.371 Y9.548 Z0.5212
N7625 X3.3745 Y9.5465 Z0.5219
N7630 G3 X3.3804 Y9.5453 Z0.5232 I0.008 J0.0237 F80.
N7635 G1 X3.3833 Y9.5451 Z0.5237
N7640 X3.7904 Y9.5112
N7645 X3.7916 Y9.5111
N7650 G3 X3.8005 Y9.5124 Z0.5219 I0.0009 J0.025
N7655 X3.8175 Y9.5352 Z0.5157 I-0.008 J0.0237 F20.
N7660 G1 Y9.5986 F80.
N7665 G3 X3.7512 Y9.7098 I-0.1554 J-0.0173
N7670 X3.5929 Y9.7812 I-0.207 J-0.2474
N7675 X3.4386 Y9.7779 I-0.0704 J-0.3168
N7680 G1 X3.4279 Y9.7725
N7685 X3.4182 Y9.7654
N7690 X3.4097 Y9.7568
N7695 G3 X3.3613 Y9.6489 I0.1739 J-0.1428
N7700 G1 X3.361 Y9.6451 Z0.5165 F20.
N7705 X3.3613 Y9.6414 Z0.5173
N7710 X3.3621 Y9.6377 Z0.5181
N7715 X3.3634 Y9.6342 Z0.5188
N7720 X3.3653 Y9.6309 Z0.5196
N7725 X3.3676 Y9.6279 Z0.5204
N7730 X3.3704 Y9.6254 Z0.5212
N7735 X3.3735 Y9.6232 Z0.5219
N7740 G3 X3.3819 Y9.6203 Z0.5237 I0.0123 J0.0217 F80.
N7745 G1 X3.3831 Y9.6201
N7750 X3.7897 Y9.5746
N7755 X3.7907 Y9.5745
N7760 X3.7916
N7765 G3 X3.8005 Y9.5758 Z0.5219 I0.0009 J0.025
N7770 X3.8175 Y9.5986 Z0.5157 I-0.008 J0.0237 F20.
N7775 X3.7891 Y9.7221 I-0.2553 J0.0063 F80.
N7780 X3.6501 Y9.8281 I-0.2117 J-0.1333
N7785 X3.6047 Y9.8409 I-0.0587 J-0.1215
N7790 X3.5807 Y9.8256 Z0.5219 I-0.0009 J-0.025 F20.
N7795 X3.5788 Y9.8169 Z0.5237 I0.0231 J-0.0096 F80.
N7800 X3.5902 Y9.7949 I0.025 J-0.0009
N7805 G1 X3.7528 Y9.6897
N7810 G3 X3.7776 Y9.6884 I0.0136 J0.021
N7815 X3.7847 Y9.6937 Z0.5219 I-0.0112 J0.0223
N7820 X3.7887 Y9.7219 Z0.5157 I-0.0183 J0.017 F20.
N7825 X3.4097 Y9.7569 I-0.2012 J-0.1092 F80.
N7830 G1 X3.4075 Y9.7536 F20.
N7835 X3.4059 Y9.7501
N7840 X3.4049 Y9.7464
N7845 X3.4044 Y9.7425
N7850 X3.4045 Y9.7387
N7855 X3.4053 Y9.7349
N7860 X3.4066 Y9.7312
N7865 X3.4084 Y9.7279
N7870 X3.4105 Y9.7246 Z0.5161
N7875 X3.4126 Y9.7214 Z0.517
N7880 X3.4146 Y9.7183 Z0.5185
N7885 X3.4164 Y9.7155 Z0.5205
N7890 X3.418 Y9.713 Z0.5231
N7895 X3.4194 Y9.7109 Z0.5261
N7900 X3.4205 Y9.7091 Z0.5294
N7905 X3.4213 Y9.7079 Z0.533
N7910 X3.4218 Y9.7071 Z0.5368
N7915 X3.422 Y9.7068 Z0.5407
N7920 Z2.2 F80.
N7925 X1.1464 Y9.1699
N7930 Z2.02
N7935 G3 X0.9569 Y9.3149 Z1.9708 I-0.1463 J0.0051
N7940 X0.8826 Y9.0897 Z1.9217 I0.0429 J-0.139
N7945 X1.1183 Y9.0933 Z1.8725 I0.1166 J0.0856
N7950 X1.038 Y9.3135 Z1.8234 I-0.1184 J0.0815
N7955 X0.8575 Y9.1663 Z1.7742 I-0.038 J-0.1378
N7960 X1.0545 Y9.0447 Z1.725 I0.1418 J0.0093
N7965 X1.1044 Y9.2694 Z1.6759 I-0.055 J0.1301
N7970 X0.8772 Y9.243 Z1.6267 I-0.1042 J-0.094
N7975 X0.9761 Y9.0383 Z1.5775 I0.1222 J-0.0672
N7980 X1.136 Y9.1979 Z1.5284 I0.0232 J0.1367
N7985 X0.9341 Y9.296 Z1.4792 I-0.1359 J-0.0228
N7990 X0.9078 Y9.0744 Z1.4301 I0.0657 J-0.1201
N7995 X1.1244 Y9.122 Z1.3809 I0.0914 J0.1008
N8000 X1.0091 Y9.3098 Z1.3317 I-0.1244 J0.0529
N8005 X0.8704 Y9.1404 Z1.2826 I-0.0091 J-0.134
N8010 X1.0746 Y9.0654 Z1.2334 I0.1288 J0.0352
N8015 X1.0784 Y9.2815 Z1.1842 I-0.075 J0.1094
N8020 X0.8743 Y9.2146 Z1.1351 I-0.0782 J-0.106
N8025 X1.0036 Y9.0449 Z1.0859 I0.125 J-0.0389
N8030 X1.1208 Y9.2216 Z1.0368 I-0.0043 J0.13
N8035 X0.9168 Y9.2739 Z0.9876 I-0.1206 J-0.0464
N8040 X0.9342 Y9.0655 Z0.9384 I0.0828 J-0.0981
N8045 X1.1241 Y9.1497 Z0.8893 I0.065 J0.1096
N8050 X0.9832 Y9.3004 Z0.8401 I-0.1241 J0.0253
N8055 X0.8876 Y9.1191 Z0.7909 I0.0167 J-0.1246
N8060 X1.0889 Y9.0885 Z0.7418 I0.1115 J0.0563
N8065 X1.052 Y9.2873 Z0.6926 I-0.0891 J0.0863
N8070 X0.8776 Y9.188 Z0.6435 I-0.0519 J-0.1117
N8075 X1.0276 Y9.0567 Z0.5943 I0.1217 J-0.0123
N8080 X1.1019 Y9.2402 Z0.5451 I-0.0281 J0.1182
N8085 X0.9055 Y9.2501 Z0.496 I-0.1017 J-0.0649
N8090 X0.9602 Y9.0627 Z0.4468 I0.094 J-0.0742
N8095 X1.1181 Y9.175 Z0.3976 I0.039 J0.1123
N8100 X0.8803 I-0.1189 J0.
N8105 X1.1181 I0.1189 J0.
N8110 G2 X1.1246 Y9.2193 I0.1311 J0.0035
N8115 G3 X1.069 Y9.3182 I-0.1 J0.0089
N8120 X0.8717 Y9.2824 I-0.0782 J-0.1309
N8125 X0.9108 Y9.0318 I0.1274 J-0.1085
N8130 X1.1528 Y9.1077 I0.0883 J0.1421
N8135 X1.1471 Y9.3159 I-0.1646 J0.0997
N8140 X0.8407 Y9.3281 I-0.1584 J-0.1255
N8145 X0.9333 Y8.9627 I0.1558 J-0.1549
N8150 X1.1913 Y9.0604 I0.0668 J0.2132
N8155 X0.9519 Y9.4458 I-0.1981 J0.144
N8160 X0.7523 Y9.0421 I0.0398 J-0.2709
N8165 X1.202 Y8.9795 I0.2475 J0.1315
N8170 G1 X1.2168 Y8.9937
N8175 X1.2301 Y9.0096
N8180 G3 X1.287 Y9.1235 I-0.2353 J0.1888
N8185 X0.7129 Y9.2265 I-0.2871 J0.0515
N8190 X1.2846 Y9.1113 I0.2871 J-0.0515
N8195 G1 X1.287 Y9.1235
N8200 G3 X1.2742 Y9.1495 I-0.0247 J0.004 F20.
N8205 G1 X1.2708 Y9.1514 Z0.3979
N8210 X1.2674 Y9.1532 Z0.3989
N8215 X1.2643 Y9.1549 Z0.4004
N8220 X1.2613 Y9.1565 Z0.4024
N8225 X1.2587 Y9.1579 Z0.405
N8230 X1.2564 Y9.1591 Z0.4079
N8235 X1.2546 Y9.1601 Z0.4113
N8240 X1.2533 Y9.1608 Z0.4149
N8245 X1.2525 Y9.1613 Z0.4187
N8250 X1.2522 Y9.1614 Z0.4226
N8255 Z2.2 F80.
N8260 M5
N8265 G53 G0 Z0.
N8270 M30
%
