%
(1005_BARS)
(MACHINE)
(  DESCRIPTION CNC ROUTER)
(T16 D=0.25 CR=0. TAPER=30DEG - ZMIN=-0.0517 - CHAMFER MILL)
N10 G90 G94 G17 G91.1
N15 G20
(WHEN USING FUSION FOR PERSONAL USE, THE FEEDRATE OF RAPID)
(MOVES IS REDUCED TO MATCH THE FEEDRATE OF CUTTING MOVES,)
(WHICH CAN INCREASE MACHINING TIME. UNRESTRICTED RAPID MOVES)
(ARE AVAILABLE WITH A FUSION SUBSCRIPTION.)
N20 G53 G0 Z0.
(ENGRAVE1 2)
N25 T16 M6
N30 S24000 M3
N35 G55
N40 G64 P0.001 Q0.0001
N45 G0 X0.2468 Y0.427
N50 G43 Z0.6 H16
N55 G1 Z0.2 F40.
N60 Z0. F12.
N65 X0.2518 Y0.432 Z-0.0086 F40.
N70 X0.2617 Y0.4419
N75 X0.2717 Y0.432
N80 X0.2767 Y0.427 Z0.
N85 X0.2717 Y0.432 Z-0.0086
N90 X0.2617 Y0.4419
N95 Y1.1589
N100 X0.2717 Y1.1689
N105 X0.2767 Y1.1738 Z0.
N110 X0.2717 Y1.1689 Z-0.0086
N115 X0.2617 Y1.1589
N120 X0.2518 Y1.1689
N125 X0.2468 Y1.1738 Z0.
N130 Z0.2
N135 X0.2916 Y0.427
N140 Z0. F12.
N145 X0.2954 Y0.4307 Z-0.0065 F40.
N150 X0.2991 Y0.4345
N155 X0.3028 Y0.4307
N160 X0.3065 Y0.427 Z0.
N165 X0.3028 Y0.4307 Z-0.0065
N170 X0.2991 Y0.4345
N175 Y1.1664
N180 X0.2954 Y1.1701
N185 X0.2916 Y1.1738 Z0.
N190 X0.2954 Y1.1701 Z-0.0065
N195 X0.2991 Y1.1664
N200 X0.3028 Y1.1701
N205 X0.3065 Y1.1738 Z0.
N210 Z0.2
N215 X0.3365 Y0.427
N220 Z0. F12.
N225 X0.342 Y0.4326 Z-0.0097 F40.
N230 X0.3588 Y0.4494
N235 X0.3756 Y0.4326
N240 X0.3812 Y0.427 Z0.
N245 X0.3756 Y0.4326 Z-0.0097
N250 X0.3588 Y0.4494
N255 Y1.1515
N260 X0.342 Y1.1683
N265 X0.3365 Y1.1738 Z0.
N270 X0.342 Y1.1683 Z-0.0097
N275 X0.3588 Y1.1515
N280 X0.3756 Y1.1683
N285 X0.3812 Y1.1738 Z0.
N290 Z0.2
N295 X0.4111 Y0.427
N300 Z0. F12.
N305 X0.4167 Y0.4326 Z-0.0097 F40.
N310 X0.4335 Y0.4494
N315 X0.4503 Y0.4326
N320 X0.4559 Y0.427 Z0.
N325 X0.4503 Y0.4326 Z-0.0097
N330 X0.4335 Y0.4494
N335 Y1.1515
N340 X0.4503 Y1.1683
N345 X0.4559 Y1.1738 Z0.
N350 X0.4503 Y1.1683 Z-0.0097
N355 X0.4335 Y1.1515
N360 X0.4167 Y1.1683
N365 X0.4111 Y1.1738 Z0.
N370 Z0.2
N375 X0.4709 Y0.427
N380 Z0. F12.
N385 X0.4758 Y0.432 Z-0.0086 F40.
N390 X0.5007 Y0.4569
N395 X0.5256 Y0.432
N400 X0.5306 Y0.427 Z0.
N405 X0.5256 Y0.432 Z-0.0086
N410 X0.5007 Y0.4569
N415 Y1.144
N420 X0.4758 Y1.1689
N425 X0.4709 Y1.1738 Z0.
N430 X0.4758 Y1.1689 Z-0.0086
N435 X0.5007 Y1.144
N440 X0.5256 Y1.1689
N445 X0.5306 Y1.1738 Z0.
N450 Z0.2
N455 X0.5456 Y0.427
N460 Z0. F12.
N465 X0.5493 Y0.4307 Z-0.0065 F40.
N470 X0.553 Y0.4345
N475 X0.5568 Y0.4307
N480 X0.5605 Y0.427 Z0.
N485 X0.5568 Y0.4307 Z-0.0065
N490 X0.553 Y0.4345
N495 Y1.1664
N500 X0.5493 Y1.1701
N505 X0.5456 Y1.1738 Z0.
N510 X0.5493 Y1.1701 Z-0.0065
N515 X0.553 Y1.1664
N520 X0.5568 Y1.1701
N525 X0.5605 Y1.1738 Z0.
N530 Z0.2
N535 X0.5754 Y0.427
N540 Z0. F12.
N545 X0.5792 Y0.4307 Z-0.0065 F40.
N550 X0.5829 Y0.4345
N555 X0.5866 Y0.4307
N560 X0.5903 Y0.427 Z0.
N565 X0.5866 Y0.4307 Z-0.0065
N570 X0.5829 Y0.4345
N575 Y1.1664
N580 X0.5792 Y1.1701
N585 X0.5754 Y1.1738 Z0.
N590 X0.5792 Y1.1701 Z-0.0065
N595 X0.5829 Y1.1664
N600 X0.5866 Y1.1701
N605 X0.5903 Y1.1738 Z0.
N610 Z0.2
N615 X0.6053 Y0.427
N620 Z0. F12.
N625 X0.609 Y0.4307 Z-0.0065 F40.
N630 X0.6128 Y0.4345
N635 X0.6165 Y0.4307
N640 X0.6202 Y0.427 Z0.
N645 X0.6165 Y0.4307 Z-0.0065
N650 X0.6128 Y0.4345
N655 Y1.1664
N660 X0.6165 Y1.1701
N665 X0.6202 Y1.1738 Z0.
N670 X0.6165 Y1.1701 Z-0.0065
N675 X0.6128 Y1.1664
N680 X0.609 Y1.1701
N685 X0.6053 Y1.1738 Z0.
N690 Z0.2
N695 X0.6501 Y0.427
N700 Z0. F12.
N705 X0.6551 Y0.432 Z-0.0086 F40.
N710 X0.68 Y0.4569
N715 X0.7049 Y0.432
N720 X0.7098 Y0.427 Z0.
N725 X0.7049 Y0.432 Z-0.0086
N730 X0.68 Y0.4569
N735 Y1.144
N740 X0.6551 Y1.1689
N745 X0.6501 Y1.1738 Z0.
N750 X0.6551 Y1.1689 Z-0.0086
N755 X0.68 Y1.144
N760 X0.7049 Y1.1689
N765 X0.7098 Y1.1738 Z0.
N770 Z0.2
N775 X0.7398 Y0.427
N780 Z0. F12.
N785 X0.7447 Y0.432 Z-0.0086 F40.
N790 X0.7547 Y0.4419
N795 X0.7646 Y0.432
N800 X0.7696 Y0.427 Z0.
N805 X0.7646 Y0.432 Z-0.0086
N810 X0.7547 Y0.4419
N815 Y1.1589
N820 X0.7447 Y1.1689
N825 X0.7398 Y1.1738 Z0.
N830 X0.7447 Y1.1689 Z-0.0086
N835 X0.7547 Y1.1589
N840 X0.7646 Y1.1689
N845 X0.7696 Y1.1738 Z0.
N850 Z0.2
N855 X0.7846 Y0.427
N860 Z0. F12.
N865 X0.7895 Y0.432 Z-0.0086 F40.
N870 X0.7995 Y0.4419
N875 X0.8094 Y0.432
N880 X0.8144 Y0.427 Z0.
N885 X0.8094 Y0.432 Z-0.0086
N890 X0.7995 Y0.4419
N895 Y1.1589
N900 X0.7895 Y1.1689
N905 X0.7846 Y1.1738 Z0.
N910 X0.7895 Y1.1689 Z-0.0086
N915 X0.7995 Y1.1589
N920 X0.8094 Y1.1689
N925 X0.8144 Y1.1738 Z0.
N930 Z0.2
N935 X0.8443 Y0.427
N940 Z0. F12.
N945 X0.8493 Y0.432 Z-0.0086 F40.
N950 X0.8592 Y0.4419
N955 X0.8692 Y0.432
N960 X0.8741 Y0.427 Z0.
N965 X0.8692 Y0.432 Z-0.0086
N970 X0.8592 Y0.4419
N975 Y1.1589
N980 X0.8493 Y1.1689
N985 X0.8443 Y1.1738 Z0.
N990 X0.8493 Y1.1689 Z-0.0086
N995 X0.8592 Y1.1589
N1000 X0.8692 Y1.1689
N1005 X0.8741 Y1.1738 Z0.
N1010 Z0.2
N1015 X0.9041 Y0.427
N1020 Z0. F12.
N1025 X0.909 Y0.432 Z-0.0086 F40.
N1030 X0.919 Y0.4419
N1035 X0.9289 Y0.432
N1040 X0.9339 Y0.427 Z0.
N1045 X0.9289 Y0.432 Z-0.0086
N1050 X0.919 Y0.4419
N1055 Y1.1589
N1060 X0.9289 Y1.1689
N1065 X0.9339 Y1.1738 Z0.
N1070 X0.9289 Y1.1689 Z-0.0086
N1075 X0.919 Y1.1589
N1080 X0.909 Y1.1689
N1085 X0.9041 Y1.1738 Z0.
N1090 Z0.2
N1095 X0.9489 Y0.427
N1100 Z0. F12.
N1105 X0.9538 Y0.432 Z-0.0086 F40.
N1110 X0.9638 Y0.4419
N1115 X0.9737 Y0.432
N1120 X0.9787 Y0.427 Z0.
N1125 X0.9737 Y0.432 Z-0.0086
N1130 X0.9638 Y0.4419
N1135 Y1.1589
N1140 X0.9737 Y1.1689
N1145 X0.9787 Y1.1738 Z0.
N1150 X0.9737 Y1.1689 Z-0.0086
N1155 X0.9638 Y1.1589
N1160 X0.9538 Y1.1689
N1165 X0.9489 Y1.1738 Z0.
N1170 Z0.2
N1175 X1.0086 Y0.427
N1180 Z0. F12.
N1185 X1.0136 Y0.432 Z-0.0086 F40.
N1190 X1.0235 Y0.4419
N1195 X1.0335 Y0.432
N1200 X1.0385 Y0.427 Z0.
N1205 X1.0335 Y0.432 Z-0.0086
N1210 X1.0235 Y0.4419
N1215 Y1.1589
N1220 X1.0136 Y1.1689
N1225 X1.0086 Y1.1738 Z0.
N1230 X1.0136 Y1.1689 Z-0.0086
N1235 X1.0235 Y1.1589
N1240 X1.0335 Y1.1689
N1245 X1.0385 Y1.1738 Z0.
N1250 Z0.2
N1255 X1.0684 Y0.427
N1260 Z0. F12.
N1265 X1.0733 Y0.432 Z-0.0086 F40.
N1270 X1.0833 Y0.4419
N1275 X1.0932 Y0.432
N1280 X1.0982 Y0.427 Z0.
N1285 X1.0932 Y0.432 Z-0.0086
N1290 X1.0833 Y0.4419
N1295 Y1.1589
N1300 X1.0932 Y1.1689
N1305 X1.0982 Y1.1738 Z0.
N1310 X1.0932 Y1.1689 Z-0.0086
N1315 X1.0833 Y1.1589
N1320 X1.0733 Y1.1689
N1325 X1.0684 Y1.1738 Z0.
N1330 Z0.2
N1335 X1.1132 Y0.427
N1340 Z0. F12.
N1345 X1.1181 Y0.432 Z-0.0086 F40.
N1350 X1.1281 Y0.4419
N6100 Y1.1589
N6105 X0.7497 Y1.1639 Z-0.0172
N6110 X0.7547 Y1.1589 Z-0.0259
N6115 X0.7596 Y1.1639 Z-0.0172
N6120 Z0.2
N6125 X0.7945 Y0.437
N6130 Z-0.0172 F12.
N6135 X0.7995 Y0.4419 Z-0.0259 F40.
N6140 X0.8045 Y0.437 Z-0.0172
N6145 X0.7995 Y0.4419 Z-0.0259
N6150 Y1.1589
N6155 X0.7945 Y1.1639 Z-0.0172
N6160 X0.7995 Y1.1589 Z-0.0259
N6165 X0.8045 Y1.1639 Z-0.0172
N6170 Z0.2
N6175 X0.8543 Y0.437
N6180 Z-0.0172 F12.
N6185 X0.8592 Y0.4419 Z-0.0259 F40.
N6190 X0.8642 Y0.437 Z-0.0172
N6195 X0.8592 Y0.4419 Z-0.0259
N6200 Y1.1589
N6205 X0.8543 Y1.1639 Z-0.0172
N6210 X0.8592 Y1.1589 Z-0.0259
N6215 X0.8642 Y1.1639 Z-0.0172
N6220 Z0.2
N6225 X0.914 Y0.437
N6230 Z-0.0172 F12.
N6235 X0.919 Y0.4419 Z-0.0259 F40.
N6240 X0.924 Y0.437 Z-0.0172
N6245 X0.919 Y0.4419 Z-0.0259
N6250 Y1.1589
N6255 X0.924 Y1.1639 Z-0.0172
N6260 X0.919 Y1.1589 Z-0.0259
N6265 X0.914 Y1.1639 Z-0.0172
N6270 Z0.2
N6275 X0.9588 Y0.437
N6280 Z-0.0172 F12.
N6285 X0.9638 Y0.4419 Z-0.0259 F40.
N6290 X0.9688 Y0.437 Z-0.0172
N6295 X0.9638 Y0.4419 Z-0.0259
N6300 Y1.1589
N6305 X0.9688 Y1.1639 Z-0.0172
N6310 X0.9638 Y1.1589 Z-0.0259
N6315 X0.9588 Y1.1639 Z-0.0172
N6320 Z0.2
N6325 X1.0186 Y0.437
N6330 Z-0.0172 F12.
N6335 X1.0235 Y0.4419 Z-0.0259 F40.
N6340 X1.0285 Y0.437 Z-0.0172
N6345 X1.0235 Y0.4419 Z-0.0259
N6350 Y1.1589
N6355 X1.0186 Y1.1639 Z-0.0172
N6360 X1.0235 Y1.1589 Z-0.0259
N6365 X1.0285 Y1.1639 Z-0.0172
N6370 Z0.2
N6375 X1.0783 Y0.437
N6380 Z-0.0172 F12.
N6385 X1.0833 Y0.4419 Z-0.0259 F40.
N6390 X1.0883 Y0.437 Z-0.0172
N6395 X1.0833 Y0.4419 Z-0.0259
N6400 Y1.1589
N6405 X1.0883 Y1.1639 Z-0.0172
N6410 X1.0833 Y1.1589 Z-0.0259
N6415 X1.0783 Y1.1639 Z-0.0172
N6420 Z0.2
N6425 X1.1231 Y0.437
N6430 Z-0.0172 F12.
N6435 X1.1281 Y0.4419 Z-0.0259 F40.
N6440 X1.1331 Y0.437 Z-0.0172
N6445 X1.1281 Y0.4419 Z-0.0259
N6450 Y1.1589
N6455 X1.1231 Y1.1639 Z-0.0172
N6460 X1.1281 Y1.1589 Z-0.0259
N6465 X1.1331 Y1.1639 Z-0.0172
N6470 Z0.2
N6475 X1.1829 Y0.437
N6480 Z-0.0172 F12.
N6485 X1.1878 Y0.4419 Z-0.0259 F40.
N6490 X1.1928 Y0.437 Z-0.0172
N6495 X1.1878 Y0.4419 Z-0.0259
N6500 Y1.1589
N6505 X1.1928 Y1.1639 Z-0.0172
N6510 X1.1878 Y1.1589 Z-0.0259
N6515 X1.1829 Y1.1639 Z-0.0172
N6520 Z0.2
N6525 X1.2426 Y0.437
N6530 Z-0.0173 F12.
N6535 X1.2476 Y0.4419 Z-0.0259 F40.
N6540 X1.2526 Y0.437 Z-0.0173
N6545 X1.2476 Y0.4419 Z-0.0259
N6550 Y1.1589
N6555 X1.2426 Y1.1639 Z-0.0173
N6560 X1.2476 Y1.1589 Z-0.0259
N6565 X1.2526 Y1.1639 Z-0.0173
N6570 Z0.2
N6575 X1.4082 Y0.4382
N6580 Z-0.0194 F12.
N6585 X1.4138 Y0.4438 Z-0.0291 F40.
N6590 X1.4194 Y0.4494
N6595 X1.425 Y0.4438
N6600 X1.4306 Y0.4382 Z-0.0194
N6605 X1.425 Y0.4438 Z-0.0291
N6610 X1.4194 Y0.4494
N6615 Y1.1515
N6620 X1.4138 Y1.1571
N6625 X1.4082 Y1.1627 Z-0.0194
N6630 X1.4138 Y1.1571 Z-0.0291
N6635 X1.4194 Y1.1515
N6640 X1.425 Y1.1571
N6645 X1.4306 Y1.1627 Z-0.0194
N6650 Z0.2
N6655 X1.5264 Y0.437
N6660 Z-0.0172 F12.
N6665 X1.5314 Y0.4419 Z-0.0259 F40.
N6670 X1.5364 Y0.437 Z-0.0172
N6675 X1.5314 Y0.4419 Z-0.0259
N6680 Y1.1589
N6685 X1.5264 Y1.1639 Z-0.0172
N6690 X1.5314 Y1.1589 Z-0.0259
N6695 X1.5364 Y1.1639 Z-0.0172
N6700 Z0.2
N6705 X1.5712 Y0.437
N6710 Z-0.0172 F12.
N6715 X1.5762 Y0.4419 Z-0.0259 F40.
N6720 X1.5812 Y0.437 Z-0.0172
N6725 X1.5762 Y0.4419 Z-0.0259
N6730 Y1.1589
N6735 X1.5712 Y1.1639 Z-0.0172
N6740 X1.5762 Y1.1589 Z-0.0259
N6745 X1.5812 Y1.1639 Z-0.0172
N6750 Z0.2
N6755 X1.616 Y0.437
N6760 Z-0.0172 F12.
N6765 X1.621 Y0.4419 Z-0.0259 F40.
N6770 X1.626 Y0.437 Z-0.0172
N6775 X1.621 Y0.4419 Z-0.0259
N6780 Y1.1589
N6785 X1.626 Y1.1639 Z-0.0172
N6790 X1.621 Y1.1589 Z-0.0259
N6795 X1.616 Y1.1639 Z-0.0172
N6800 Z0.2
N6805 X1.6758 Y0.437
N6810 Z-0.0172 F12.
N6815 X1.6808 Y0.4419 Z-0.0259 F40.
N6820 X1.6858 Y0.437 Z-0.0172
N6825 X1.6808 Y0.4419 Z-0.0259
N6830 Y1.1589
N6835 X1.6758 Y1.1639 Z-0.0172
N6840 X1.6808 Y1.1589 Z-0.0259
N6845 X1.6858 Y1.1639 Z-0.0172
N6850 Z0.2
N6855 X1.7355 Y0.437
N6860 Z-0.0172 F12.
N6865 X1.7405 Y0.4419 Z-0.0259 F40.
N6870 X1.7455 Y0.437 Z-0.0172
N6875 X1.7405 Y0.4419 Z-0.0259
N6880 Y1.1589
N6885 X1.7355 Y1.1639 Z-0.0172
N6890 X1.7405 Y1.1589 Z-0.0259
N6895 X1.7455 Y1.1639 Z-0.0172
N6900 Z0.2
N6905 X1.7804 Y0.437
N6910 Z-0.0172 F12.
N6915 X1.7853 Y0.4419 Z-0.0259 F40.
N6920 X1.8003 Y0.4569
N6925 X1.8152 Y0.4419
N6930 X1.8202 Y0.437 Z-0.0172
N6935 X1.8152 Y0.4419 Z-0.0259
N6940 X1.8003 Y0.4569
N6945 Y1.144
N6950 X1.7853 Y1.1589
N6955 X1.7804 Y1.1639 Z-0.0172
N6960 X1.7853 Y1.1589 Z-0.0259
N6965 X1.8003 Y1.144
N6970 X1.8152 Y1.1589
N6975 X1.8202 Y1.1639 Z-0.0172
N6980 Z0.2
N6985 X1.855 Y0.437
N6990 Z-0.0172 F12.
N6995 X1.86 Y0.4419 Z-0.0259 F40.
N7000 X1.865 Y0.437 Z-0.0172
N7005 X1.86 Y0.4419 Z-0.0259
N7010 Y1.1589
N7015 X1.865 Y1.1639 Z-0.0172
N7020 X1.86 Y1.1589 Z-0.0259
N7025 X1.855 Y1.1639 Z-0.0172
N7030 Z0.2
N7035 X1.9297 Y0.437
N7040 Z-0.0172 F12.
N7045 X1.9347 Y0.4419 Z-0.0259 F40.
N7050 X1.9397 Y0.437 Z-0.0172
N7055 X1.9347 Y0.4419 Z-0.0259
N7060 Y1.1589
N7065 X1.9297 Y1.1639 Z-0.0172
N7070 X1.9347 Y1.1589 Z-0.0259
N7075 X1.9397 Y1.1639 Z-0.0172
N7080 Z0.2
N7085 X1.9758 Y0.4382
N7090 Z-0.0194 F12.
N7095 X1.9814 Y0.4438 Z-0.0291 F40.
N7100 X1.987 Y0.4494
N7105 X1.9926 Y0.4438
N7110 X1.9982 Y0.4382 Z-0.0194
N7115 X1.9926 Y0.4438 Z-0.0291
N7120 X1.987 Y0.4494
N7125 Y1.1515
N7130 X1.9814 Y1.1571
N7135 X1.9758 Y1.1627 Z-0.0194
N7140 X1.9814 Y1.1571 Z-0.0291
N7145 X1.987 Y1.1515
N7150 X1.9926 Y1.1571
N7155 X1.9982 Y1.1627 Z-0.0194
N7160 Z0.2
N7165 X2.0642 Y0.437
N7170 Z-0.0172 F12.
N7175 X2.0691 Y0.4419 Z-0.0259 F40.
N7180 X2.0741 Y0.437 Z-0.0172
N7185 X2.0691 Y0.4419 Z-0.0259
N7190 Y1.1589
N7195 X2.0741 Y1.1639 Z-0.0172
N7200 X2.0691 Y1.1589 Z-0.0259
N7205 X2.0642 Y1.1639 Z-0.0172
N7210 Z0.2
N7215 X2.1401 Y0.4382
N7220 Z-0.0194 F12.
N7225 X2.1457 Y0.4438 Z-0.0291 F40.
N7230 X2.1513 Y0.4494
N7235 X2.1569 Y0.4438
N7240 X2.1625 Y0.4382 Z-0.0194
N7245 X2.1569 Y0.4438 Z-0.0291
N7250 X2.1513 Y0.4494
N7255 Y1.1515
N7260 X2.1457 Y1.1571
N7265 X2.1401 Y1.1627 Z-0.0194
N7270 X2.1457 Y1.1571 Z-0.0291
N7275 X2.1513 Y1.1515
N7280 X2.1569 Y1.1571
N7285 X2.1625 Y1.1627 Z-0.0194
N7290 Z0.2
N7295 X2.2285 Y0.437
N7300 Z-0.0172 F12.
N7305 X2.2334 Y0.4419 Z-0.0259 F40.
N7310 X2.2384 Y0.437 Z-0.0172
N7315 X2.2334 Y0.4419 Z-0.0259
N7320 Y1.1589
N7325 X2.2384 Y1.1639 Z-0.0172
N7330 X2.2334 Y1.1589 Z-0.0259
N7335 X2.2285 Y1.1639 Z-0.0172
N7340 Z0.2
N7345 X0.3532 Y0.4438
N7350 Z-0.0291 F12.
N7355 X0.3588 Y0.4494 Z-0.0388 F40.
N7360 X0.3644 Y0.4438 Z-0.0291
N7365 X0.3588 Y0.4494 Z-0.0388
N7370 Y1.1515
N7375 X0.3532 Y1.1571 Z-0.0291
N7380 X0.3588 Y1.1515 Z-0.0388
N7385 X0.3644 Y1.1571 Z-0.0291
N7390 Z0.2
N7395 X0.4279 Y0.4438
N7400 Z-0.0291 F12.
N7405 X0.4335 Y0.4494 Z-0.0388 F40.
N7410 X0.4391 Y0.4438 Z-0.0291
N7415 X0.4335 Y0.4494 Z-0.0388
N7420 Y1.1515
N7425 X0.4391 Y1.1571 Z-0.0291
N7430 X0.4335 Y1.1515 Z-0.0388
N7435 X0.4279 Y1.1571 Z-0.0291
N7440 Z0.2
N7445 X0.4858 Y0.4419
N7450 Z-0.0259 F12.
N7455 X0.4908 Y0.4469 Z-0.0345 F40.
N7460 X0.5007 Y0.4569
N7465 X0.5107 Y0.4469
N7470 X0.5157 Y0.4419 Z-0.0259
N7475 X0.5107 Y0.4469 Z-0.0345
N7480 X0.5007 Y0.4569
N7485 Y1.144
N7490 X0.4908 Y1.1539
N7495 X0.4858 Y1.1589 Z-0.0259
N7500 X0.4908 Y1.1539 Z-0.0345
N7505 X0.5007 Y1.144
N7510 X0.5107 Y1.1539
N7515 X0.5157 Y1.1589 Z-0.0259
N7520 Z0.2
N7525 X0.665 Y0.4419
N7530 Z-0.0259 F12.
N7535 X0.67 Y0.4469 Z-0.0345 F40.
N7540 X0.68 Y0.4569
N7545 X0.6899 Y0.4469
N7550 X0.6949 Y0.4419 Z-0.0259
N7555 X0.6899 Y0.4469 Z-0.0345
N7560 X0.68 Y0.4569
N7565 Y1.144
N7570 X0.67 Y1.1539
N7575 X0.665 Y1.1589 Z-0.0259
N7580 X0.67 Y1.1539 Z-0.0345
N7585 X0.68 Y1.144
N7590 X0.6899 Y1.1539
N7595 X0.6949 Y1.1589 Z-0.0259
N7600 Z0.2
N7605 X1.4138 Y0.4438
N7610 Z-0.0291 F12.
N7615 X1.4194 Y0.4494 Z-0.0388 F40.
N7620 X1.425 Y0.4438 Z-0.0291
N7625 X1.4194 Y0.4494 Z-0.0388
N7630 Y1.1515
N7635 X1.4138 Y1.1571 Z-0.0291
N7640 X1.4194 Y1.1515 Z-0.0388
N7645 X1.425 Y1.1571 Z-0.0291
N7650 Z0.2
N7655 X1.7853 Y0.4419
N7660 Z-0.0259 F12.
N7665 X1.7903 Y0.4469 Z-0.0345 F40.
N7670 X1.8003 Y0.4569
N7675 X1.8102 Y0.4469
N7680 X1.8152 Y0.4419 Z-0.0259
N7685 X1.8102 Y0.4469 Z-0.0345
N7690 X1.8003 Y0.4569
N7695 Y1.144
N7700 X1.7903 Y1.1539
N7705 X1.7853 Y1.1589 Z-0.0259
N7710 X1.7903 Y1.1539 Z-0.0345
N7715 X1.8003 Y1.144
N7720 X1.8102 Y1.1539
N7725 X1.8152 Y1.1589 Z-0.0259
N7730 Z0.2
N7735 X1.9814 Y0.4438
N7740 Z-0.0291 F12.
N7745 X1.987 Y0.4494 Z-0.0388 F40.
N7750 X1.9926 Y0.4438 Z-0.0291
N7755 X1.987 Y0.4494 Z-0.0388
N7760 Y1.1515
N7765 X1.9814 Y1.1571 Z-0.0291
N7770 X1.987 Y1.1515 Z-0.0388
N7775 X1.9926 Y1.1571 Z-0.0291
N7780 Z0.2
N7785 X2.1457 Y0.4438
N7790 Z-0.0291 F12.
N7795 X2.1513 Y0.4494 Z-0.0388 F40.
N7800 X2.1569 Y0.4438 Z-0.0291
N7805 X2.1513 Y0.4494 Z-0.0388
N7810 Y1.1515
N7815 X2.1457 Y1.1571 Z-0.0291
N7820 X2.1513 Y1.1515 Z-0.0388
N7825 X2.1569 Y1.1571 Z-0.0291
N7830 Z0.2
N7835 X0.4908 Y0.4469
N7840 Z-0.0345 F12.
N7845 X0.4958 Y0.4519 Z-0.0431 F40.
N7850 X0.5007 Y0.4569
N7855 X0.5057 Y0.4519
N7860 X0.5107 Y0.4469 Z-0.0345
N7865 X0.5057 Y0.4519 Z-0.0431
N7870 X0.5007 Y0.4569
N7875 Y1.144
N7880 X0.4958 Y1.149
N7885 X0.4908 Y1.1539 Z-0.0345
N7890 X0.4958 Y1.149 Z-0.0431
N7895 X0.5007 Y1.144
N7900 X0.5057 Y1.149
N7905 X0.5107 Y1.1539 Z-0.0345
N7910 Z0.2
N7915 X0.67 Y0.4469
N7920 Z-0.0345 F12.
N7925 X0.675 Y0.4519 Z-0.0431 F40.
N7930 X0.68 Y0.4569
N7935 X0.685 Y0.4519
N7940 X0.6899 Y0.4469 Z-0.0345
N7945 X0.685 Y0.4519 Z-0.0431
N7950 X0.68 Y0.4569
N7955 Y1.144
N7960 X0.675 Y1.149
N7965 X0.67 Y1.1539 Z-0.0345
N7970 X0.675 Y1.149 Z-0.0431
N7975 X0.68 Y1.144
N7980 X0.685 Y1.149
N7985 X0.6899 Y1.1539 Z-0.0345
N7990 Z0.2
N7995 X1.7903 Y0.4469
N8000 Z-0.0345 F12.
N8005 X1.7953 Y0.4519 Z-0.0431 F40.
N8010 X1.8003 Y0.4569
N8015 X1.8053 Y0.4519
N8020 X1.8102 Y0.4469 Z-0.0345
N8025 X1.8053 Y0.4519 Z-0.0431
N8030 X1.8003 Y0.4569
N8035 Y1.144
N8040 X1.7953 Y1.149
N8045 X1.7903 Y1.1539 Z-0.0345
N8050 X1.7953 Y1.149 Z-0.0431
N8055 X1.8003 Y1.144
N8060 X1.8053 Y1.149
N8065 X1.8102 Y1.1539 Z-0.0345
N8070 Z0.2
N8075 X0.4958 Y0.4519
N8080 Z-0.0431 F12.
N8085 X0.5007 Y0.4569 Z-0.0517 F40.
N8090 X0.5057 Y0.4519 Z-0.0431
N8095 X0.5007 Y0.4569 Z-0.0517
N8100 Y1.144
N8105 X0.4958 Y1.149 Z-0.0431
N8110 X0.5007 Y1.144 Z-0.0517
N8115 X0.5057 Y1.149 Z-0.0431
N8120 Z0.2
N8125 X0.675 Y0.4519
N8130 Z-0.0431 F12.
N8135 X0.68 Y0.4569 Z-0.0517 F40.
N8140 X0.685 Y0.4519 Z-0.0431
N8145 X0.68 Y0.4569 Z-0.0517
N8150 Y1.144
N8155 X0.675 Y1.149 Z-0.0431
N8160 X0.68 Y1.144 Z-0.0517
N8165 X0.685 Y1.149 Z-0.0431
N8170 Z0.2
N8175 X1.7953 Y0.4519
N8180 Z-0.0431 F12.
N8185 X1.8003 Y0.4569 Z-0.0517 F40.
N8190 X1.8053 Y0.4519 Z-0.0431
N8195 X1.8003 Y0.4569 Z-0.0517
N8200 Y1.144
N8205 X1.7953 Y1.149 Z-0.0431
N8210 X1.8003 Y1.144 Z-0.0517
N8215 X1.8053 Y1.149 Z-0.0431
N8220 Z0.6
N8225 M5
N8230 G53 G0 Z0.

#hmm = #a == #b != #c < #d <= #e > #f >= #g
#foo = func_foo[42, 69, #blah]
#bar = 1 and 1 or 2 and 2
#aaa = 1 or 2 xor 3 and 4
#bbb = 1 + 1 * 2 + 2 / 3 - 3 + 10
#ccc = [1 + 1] * [2 + 2] / [3 - 3] + 10

sub add[#a, #b, #ptr_c]
    ##ptr_c = #a + #b (pointer dereference)

    sub test[#x]
        #something = #x
    endsub

    return 37
endsub

#c = 0
add[3, 5, &#c] (store the result in c)

if 1 > 0
    g01 x0 y0 z0
else
    g01 x1 y1 z1
endif

if 1 > 0
    g01 x2 y2 z2
endif

while #something < #another
    #something = #x
endwhile

N8235 M30
%